ncols        78
nrows        66
xllcorner    -87.500000000000
yllcorner    25.000000000000
cellsize     0.083333333333
NODATA_value -9999.00
-9999.00 -9999.00 -9999.00 -9999.00 -9999.00 -9999.00 -9999.00 -9999.00 -9999.00 -9999.00 -9999.00 -9999.00 -9999.00 -9999.00 -9999.00 -9999.00 -9999.00 -9999.00 -9999.00 -9999.00 -9999.00 -9999.00 -9999.00 -9999.00 -9999.00 -9999.00 -9999.00 -9999.00 -9999.00 -9999.00 -9999.00 -9999.00 -9999.00 -9999.00 -9999.00 -9999.00 -9999.00 -9999.00 -9999.00 -9999.00 -9999.00 -9999.00 -9999.00 -9999.00 -9999.00 -9999.00 -9999.00 -9999.00 -9999.00 -9999.00 -9999.00 -9999.00 -9999.00 -9999.00 -9999.00 -9999.00 -9999.00 -9999.00 -9999.00 -9999.00 -9999.00 -9999.00 -9999.00 -9999.00 -9999.00 -9999.00 -9999.00 -9999.00 -9999.00 -9999.00 -9999.00 -9999.00 -9999.00 -9999.00 -9999.00 -9999.00 -9999.00 -9999.00 
-9999.00 -9999.00 -9999.00 -9999.00 -9999.00 -9999.00 -9999.00 829027.94 2072749.25 1065831.13 7934537.50 947518.13 6720462.00 118422.63 148037.53 -9999.00 -9999.00 -9999.00 -9999.00 -9999.00 -9999.00 -9999.00 -9999.00 -9999.00 -9999.00 -9999.00 -9999.00 -9999.00 -9999.00 -9999.00 -9999.00 -9999.00 -9999.00 -9999.00 -9999.00 -9999.00 -9999.00 -9999.00 -9999.00 -9999.00 -9999.00 -9999.00 -9999.00 -9999.00 -9999.00 -9999.00 -9999.00 -9999.00 -9999.00 -9999.00 -9999.00 -9999.00 -9999.00 -9999.00 -9999.00 -9999.00 -9999.00 -9999.00 -9999.00 -9999.00 -9999.00 -9999.00 -9999.00 -9999.00 -9999.00 -9999.00 -9999.00 -9999.00 -9999.00 -9999.00 -9999.00 -9999.00 -9999.00 -9999.00 -9999.00 -9999.00 -9999.00 -9999.00 
-9999.00 355626.13 29632.67 3495795.25 4918955.50 15405886.00 1896126.25 7761700.00 13715196.00 5835639.50 15671735.00 8591615.00 15020364.00 13540618.00 7081275.00 5215364.00 2015096.50 -9999.00 -9999.00 -9999.00 -9999.00 -9999.00 -9999.00 -9999.00 -9999.00 -9999.00 -9999.00 -9999.00 -9999.00 -9999.00 -9999.00 -9999.00 -9999.00 -9999.00 -9999.00 -9999.00 -9999.00 -9999.00 -9999.00 -9999.00 -9999.00 -9999.00 -9999.00 -9999.00 -9999.00 -9999.00 -9999.00 -9999.00 -9999.00 -9999.00 -9999.00 -9999.00 -9999.00 -9999.00 -9999.00 -9999.00 -9999.00 -9999.00 -9999.00 -9999.00 -9999.00 -9999.00 -9999.00 -9999.00 -9999.00 -9999.00 -9999.00 -9999.00 -9999.00 -9999.00 -9999.00 -9999.00 -9999.00 -9999.00 -9999.00 -9999.00 -9999.00 -9999.00 
2787356.00 2579594.50 3410135.50 20550326.00 12037445.00 18203782.00 10941242.00 13402961.00 6790298.50 9252257.00 13995390.00 9250580.00 17019888.00 22592968.00 18856524.00 17198056.00 16662788.00 12453412.00 14085600.00 3203170.50 -9999.00 -9999.00 -9999.00 -9999.00 -9999.00 -9999.00 -9999.00 -9999.00 -9999.00 -9999.00 -9999.00 -9999.00 -9999.00 -9999.00 -9999.00 -9999.00 -9999.00 -9999.00 -9999.00 -9999.00 -9999.00 -9999.00 -9999.00 -9999.00 -9999.00 -9999.00 -9999.00 -9999.00 -9999.00 -9999.00 -9999.00 -9999.00 -9999.00 -9999.00 -9999.00 -9999.00 -9999.00 -9999.00 -9999.00 -9999.00 -9999.00 -9999.00 -9999.00 -9999.00 -9999.00 -9999.00 -9999.00 -9999.00 -9999.00 -9999.00 -9999.00 -9999.00 -9999.00 -9999.00 -9999.00 -9999.00 -9999.00 -9999.00 
16056355.00 9673678.00 17715522.00 40713704.00 27243422.00 24246932.00 25816704.00 12582130.00 22521724.00 18041498.00 16526529.00 9288409.00 14509794.00 37567084.00 25637882.00 13768986.00 15252895.00 15845705.00 23353650.00 15340475.00 11930224.00 2998084.25 -9999.00 -9999.00 -9999.00 -9999.00 -9999.00 -9999.00 -9999.00 -9999.00 -9999.00 -9999.00 -9999.00 -9999.00 -9999.00 -9999.00 -9999.00 -9999.00 -9999.00 -9999.00 -9999.00 -9999.00 -9999.00 -9999.00 -9999.00 -9999.00 -9999.00 -9999.00 -9999.00 -9999.00 -9999.00 -9999.00 -9999.00 -9999.00 -9999.00 -9999.00 -9999.00 -9999.00 -9999.00 -9999.00 -9999.00 -9999.00 -9999.00 -9999.00 -9999.00 -9999.00 -9999.00 -9999.00 -9999.00 -9999.00 -9999.00 -9999.00 -9999.00 -9999.00 -9999.00 -9999.00 -9999.00 -9999.00 
9534282.00 10157350.00 12382176.00 28627726.00 32015750.00 13361621.00 8759372.00 4455082.50 12709894.00 10245251.00 17107226.00 20373172.00 16571809.00 22809212.00 18144678.00 17638668.00 22214946.00 21918442.00 13928510.00 24233514.00 27022864.00 13156590.00 29708.80 -9999.00 -9999.00 -9999.00 -9999.00 -9999.00 -9999.00 -9999.00 -9999.00 -9999.00 -9999.00 -9999.00 -9999.00 -9999.00 -9999.00 -9999.00 -9999.00 -9999.00 -9999.00 -9999.00 -9999.00 -9999.00 -9999.00 -9999.00 -9999.00 -9999.00 -9999.00 -9999.00 -9999.00 -9999.00 -9999.00 -9999.00 -9999.00 -9999.00 -9999.00 -9999.00 -9999.00 -9999.00 -9999.00 -9999.00 -9999.00 -9999.00 -9999.00 -9999.00 -9999.00 -9999.00 -9999.00 -9999.00 -9999.00 -9999.00 -9999.00 -9999.00 -9999.00 -9999.00 -9999.00 -9999.00 
10790366.00 7162642.00 12275783.00 18637336.00 10075773.00 5974279.50 1872853.63 1961078.88 1693726.13 2943486.00 6151845.00 12571273.00 9481271.00 22291278.00 20627294.00 11739883.00 20688372.00 20331666.00 9423244.00 22379828.00 15010403.00 12751228.00 3151255.75 1546174.38 -9999.00 -9999.00 -9999.00 -9999.00 -9999.00 -9999.00 -9999.00 -9999.00 -9999.00 -9999.00 -9999.00 -9999.00 -9999.00 -9999.00 -9999.00 -9999.00 -9999.00 -9999.00 -9999.00 -9999.00 -9999.00 -9999.00 -9999.00 -9999.00 -9999.00 -9999.00 -9999.00 -9999.00 -9999.00 -9999.00 -9999.00 -9999.00 -9999.00 -9999.00 -9999.00 -9999.00 -9999.00 -9999.00 -9999.00 -9999.00 -9999.00 -9999.00 -9999.00 -9999.00 -9999.00 -9999.00 -9999.00 -9999.00 -9999.00 -9999.00 -9999.00 -9999.00 -9999.00 -9999.00 
7555074.00 6097981.00 13327279.00 17462244.00 4729189.50 -9999.00 -9999.00 1874688.50 -9999.00 2676458.00 1547287.00 5978667.50 17729134.00 14217490.00 6605015.00 2052546.50 13118191.00 22132102.00 15021791.00 11037373.00 2409383.50 10918626.00 2350558.50 14098101.00 3302688.75 -9999.00 -9999.00 -9999.00 -9999.00 -9999.00 -9999.00 -9999.00 -9999.00 -9999.00 -9999.00 -9999.00 -9999.00 -9999.00 -9999.00 -9999.00 -9999.00 -9999.00 -9999.00 -9999.00 -9999.00 -9999.00 -9999.00 -9999.00 -9999.00 -9999.00 -9999.00 -9999.00 -9999.00 -9999.00 -9999.00 -9999.00 -9999.00 -9999.00 -9999.00 -9999.00 -9999.00 -9999.00 -9999.00 -9999.00 -9999.00 -9999.00 -9999.00 -9999.00 -9999.00 -9999.00 -9999.00 -9999.00 -9999.00 -9999.00 -9999.00 -9999.00 -9999.00 -9999.00 
4495701.50 1905313.00 6430335.50 6608981.50 -9999.00 -9999.00 -9999.00 13067974.00 -9999.00 268049.78 1220253.63 2322212.75 5954148.50 8574854.00 4376339.00 7144761.00 14529901.00 20155554.00 5716176.00 14410710.00 8932168.00 8276670.50 10093944.00 1428574.50 2709374.75 -9999.00 -9999.00 -9999.00 -9999.00 -9999.00 -9999.00 -9999.00 -9999.00 -9999.00 -9999.00 774346.75 3037607.50 -9999.00 4317601.50 6938020.50 3067296.25 3871525.00 833936.19 119135.20 -9999.00 -9999.00 -9999.00 -9999.00 -9999.00 -9999.00 -9999.00 -9999.00 -9999.00 -9999.00 -9999.00 -9999.00 -9999.00 -9999.00 -9999.00 -9999.00 -9999.00 -9999.00 -9999.00 -9999.00 -9999.00 -9999.00 -9999.00 -9999.00 -9999.00 -9999.00 -9999.00 -9999.00 -9999.00 -9999.00 -9999.00 -9999.00 -9999.00 -9999.00 
10607712.00 18474990.00 2056268.50 1161875.13 -9999.00 -9999.00 -9999.00 -9999.00 -9999.00 1608574.00 -9999.00 -9999.00 1072330.25 804228.06 2860379.00 12157355.00 16297676.00 15462423.00 3664074.50 9861037.00 4112027.00 16178383.00 4201086.00 7600006.50 8878077.00 -9999.00 -9999.00 -9999.00 -9999.00 -9999.00 -9999.00 -9999.00 -9999.00 89424.07 3904107.25 10547597.00 9891871.00 2920695.00 7448145.00 8222727.00 6852715.00 10071490.00 1638978.38 1907270.00 417304.63 -9999.00 -9999.00 -9999.00 -9999.00 -9999.00 -9999.00 -9999.00 -9999.00 -9999.00 -9999.00 -9999.00 -9999.00 -9999.00 -9999.00 -9999.00 -9999.00 -9999.00 -9999.00 -9999.00 -9999.00 -9999.00 -9999.00 -9999.00 -9999.00 -9999.00 -9999.00 -9999.00 -9999.00 -9999.00 -9999.00 -9999.00 -9999.00 -9999.00 
11005140.00 12641761.00 89425.53 -9999.00 -9999.00 -9999.00 -9999.00 -9999.00 -9999.00 -9999.00 -9999.00 -9999.00 -9999.00 -9999.00 626009.19 9035086.00 5934160.50 1819182.13 2147125.00 5009950.00 10885086.00 4710958.50 2504920.00 3220377.75 1878636.88 -9999.00 -9999.00 -9999.00 -9999.00 -9999.00 -9999.00 626445.50 298316.16 3846638.25 2773144.00 16876754.00 5366630.50 834658.56 3548762.75 5128511.50 3816947.25 17116252.00 4055618.50 6947333.50 9422882.00 2594518.00 -9999.00 -9999.00 -9999.00 -9999.00 -9999.00 -9999.00 -9999.00 -9999.00 -9999.00 -9999.00 -9999.00 -9999.00 -9999.00 -9999.00 -9999.00 -9999.00 -9999.00 -9999.00 -9999.00 -9999.00 -9999.00 -9999.00 -9999.00 -9999.00 -9999.00 -9999.00 -9999.00 -9999.00 -9999.00 -9999.00 -9999.00 -9999.00 
9042639.00 776211.50 -9999.00 -9999.00 -9999.00 -9999.00 -9999.00 -9999.00 -9999.00 -9999.00 -9999.00 -9999.00 -9999.00 1879914.25 -9999.00 1879823.13 2059002.88 6387434.50 10266503.00 716024.69 15877283.00 5371756.00 1612018.75 2327965.50 -9999.00 -9999.00 1343381.38 -9999.00 29851.00 -9999.00 626820.25 6715004.50 10265990.00 7133122.00 5371034.50 5252313.00 716533.69 7671160.50 6983282.00 6893121.50 8923872.00 16053517.00 5938623.50 7372277.50 1253268.00 2506491.50 3074887.50 -9999.00 -9999.00 -9999.00 -9999.00 -9999.00 -9999.00 -9999.00 -9999.00 -9999.00 -9999.00 -9999.00 -9999.00 -9999.00 -9999.00 -9999.00 -9999.00 -9999.00 -9999.00 -9999.00 -9999.00 -9999.00 -9999.00 -9999.00 -9999.00 -9999.00 -9999.00 -9999.00 -9999.00 -9999.00 -9999.00 -9999.00 
3225350.00 29856.78 -9999.00 -9999.00 -9999.00 -9999.00 -9999.00 -9999.00 -9999.00 -9999.00 -9999.00 -9999.00 -9999.00 -9999.00 -9999.00 239029.22 7854476.50 2778106.50 5495378.50 5017948.00 5197475.00 268715.28 268715.28 -9999.00 1881643.38 3316246.75 3942697.00 1881643.38 448190.56 -9999.00 3225647.25 4122009.50 2508644.25 9648086.00 4360345.00 5765399.50 12633399.00 11559054.00 3613830.50 4629492.50 6152035.00 4391328.50 5974414.00 1881453.63 1254247.13 4480674.50 3852388.50 -9999.00 -9999.00 -9999.00 -9999.00 -9999.00 -9999.00 -9999.00 -9999.00 -9999.00 -9999.00 -9999.00 -9999.00 -9999.00 -9999.00 -9999.00 -9999.00 -9999.00 -9999.00 -9999.00 -9999.00 -9999.00 -9999.00 -9999.00 -9999.00 -9999.00 -9999.00 -9999.00 -9999.00 -9999.00 -9999.00 -9999.00 
-9999.00 -9999.00 -9999.00 -9999.00 -9999.00 -9999.00 -9999.00 -9999.00 -9999.00 -9999.00 -9999.00 -9999.00 -9999.00 -9999.00 -9999.00 2271402.25 3437138.25 19909762.00 11179223.00 9864189.00 5380814.00 897064.44 897064.44 6815986.00 3766825.50 4663447.00 2241674.00 -9999.00 1434451.63 2959767.25 627527.25 7532163.00 7892967.50 8698310.00 6397923.00 9235328.00 13692368.00 3885261.00 2720424.75 926369.94 4155188.75 3855798.25 9684529.00 4843471.00 1973097.13 4363327.50 3048287.75 2451403.25 -9999.00 -9999.00 -9999.00 -9999.00 -9999.00 -9999.00 -9999.00 -9999.00 -9999.00 -9999.00 -9999.00 -9999.00 -9999.00 -9999.00 -9999.00 -9999.00 -9999.00 -9999.00 -9999.00 -9999.00 -9999.00 -9999.00 -9999.00 -9999.00 -9999.00 -9999.00 -9999.00 -9999.00 -9999.00 -9999.00 
-9999.00 -9999.00 -9999.00 -9999.00 -9999.00 -9999.00 -9999.00 -9999.00 -9999.00 -9999.00 -9999.00 -9999.00 -9999.00 -9999.00 -9999.00 -9999.00 -9999.00 14536653.00 10770635.00 8975479.00 15346014.00 2333556.00 8018640.00 717755.06 3590808.50 3589494.50 5655569.00 -9999.00 3769721.00 717755.00 658331.06 1525693.88 3260750.25 6252677.50 7808541.00 2662086.25 10350910.00 7031165.00 4487699.00 478801.22 3111606.25 10320855.00 8855699.00 9303083.00 1914449.00 2423811.50 1645795.75 3320368.50 29927.74 -9999.00 -9999.00 -9999.00 -9999.00 -9999.00 -9999.00 -9999.00 -9999.00 -9999.00 -9999.00 -9999.00 -9999.00 -9999.00 -9999.00 -9999.00 -9999.00 -9999.00 -9999.00 -9999.00 -9999.00 -9999.00 -9999.00 -9999.00 -9999.00 -9999.00 -9999.00 -9999.00 -9999.00 -9999.00 
-9999.00 -9999.00 -9999.00 -9999.00 -9999.00 -9999.00 -9999.00 -9999.00 -9999.00 -9999.00 -9999.00 -9999.00 -9999.00 -9999.00 -9999.00 -9999.00 -9999.00 -9999.00 1795793.25 239603.16 11976173.00 8443326.00 2875096.75 7903456.00 6018496.00 7454561.50 9670535.00 11527707.00 1885898.75 1497459.88 1736541.88 4462069.00 3622350.50 3772699.25 10988018.00 6557562.00 5030336.50 6138038.00 1077527.50 8473418.00 7635327.50 7036152.00 11465579.00 5569152.00 1885898.75 5120057.00 4281576.00 -9999.00 -9999.00 -9999.00 -9999.00 -9999.00 -9999.00 -9999.00 -9999.00 -9999.00 -9999.00 -9999.00 -9999.00 -9999.00 -9999.00 -9999.00 -9999.00 -9999.00 -9999.00 -9999.00 -9999.00 -9999.00 -9999.00 -9999.00 -9999.00 -9999.00 -9999.00 -9999.00 -9999.00 -9999.00 -9999.00 -9999.00 
-9999.00 -9999.00 -9999.00 -9999.00 -9999.00 -9999.00 -9999.00 -9999.00 -9999.00 -9999.00 -9999.00 -9999.00 -9999.00 -9999.00 -9999.00 -9999.00 -9999.00 -9999.00 -9999.00 389420.19 12133335.00 6920678.50 9797762.00 4614441.00 1618102.50 5573611.50 10366749.00 15881455.00 10877381.00 2007401.38 1797845.00 5392135.00 1678000.00 7191020.00 8330007.00 6562549.50 10037621.00 4014869.50 3565560.50 6442699.50 9018844.00 13662222.00 5692096.00 3776198.50 4045708.00 2846228.75 3086272.50 7133269.00 3626214.50 4765714.00 -9999.00 -9999.00 -9999.00 -9999.00 -9999.00 -9999.00 -9999.00 -9999.00 -9999.00 -9999.00 -9999.00 -9999.00 -9999.00 -9999.00 -9999.00 -9999.00 -9999.00 -9999.00 -9999.00 -9999.00 -9999.00 -9999.00 -9999.00 -9999.00 -9999.00 -9999.00 -9999.00 -9999.00 
-9999.00 -9999.00 -9999.00 -9999.00 -9999.00 -9999.00 -9999.00 -9999.00 -9999.00 -9999.00 -9999.00 -9999.00 -9999.00 -9999.00 -9999.00 -9999.00 -9999.00 -9999.00 -9999.00 -9999.00 -9999.00 -9999.00 -9999.00 3567740.50 6117402.00 6297976.00 3598911.50 8096931.50 1889047.00 2068727.00 1739305.75 3777914.50 7406797.00 10105708.00 10225653.00 5727319.50 10884813.00 6478835.00 3239100.00 10705462.00 1439166.50 3868757.50 3988367.75 7886878.00 5068064.00 1528986.38 6538081.00 7886282.00 8606988.00 5548098.00 1289776.88 -9999.00 -9999.00 -9999.00 -9999.00 -9999.00 -9999.00 -9999.00 -9999.00 -9999.00 -9999.00 -9999.00 -9999.00 -9999.00 -9999.00 -9999.00 -9999.00 -9999.00 -9999.00 -9999.00 -9999.00 -9999.00 -9999.00 -9999.00 -9999.00 -9999.00 -9999.00 -9999.00 
-9999.00 -9999.00 -9999.00 -9999.00 -9999.00 -9999.00 -9999.00 -9999.00 -9999.00 -9999.00 -9999.00 -9999.00 -9999.00 -9999.00 -9999.00 -9999.00 -9999.00 -9999.00 -9999.00 -9999.00 -9999.00 -9999.00 -9999.00 1890480.25 13146813.00 1620156.00 11884932.00 8554509.00 6003280.50 1530992.13 6241523.00 1891245.25 3630789.25 7503449.00 9334447.00 6302080.00 11284972.00 5431391.00 4891288.50 3781972.75 3000697.50 2490912.00 1320167.38 1800287.13 1290807.63 1890559.88 2220984.75 1020481.50 12784046.00 7681256.00 3781050.00 -9999.00 -9999.00 -9999.00 -9999.00 -9999.00 -9999.00 -9999.00 -9999.00 -9999.00 -9999.00 -9999.00 -9999.00 -9999.00 -9999.00 -9999.00 -9999.00 -9999.00 -9999.00 -9999.00 -9999.00 -9999.00 -9999.00 -9999.00 -9999.00 -9999.00 -9999.00 -9999.00 
-9999.00 -9999.00 -9999.00 -9999.00 -9999.00 -9999.00 -9999.00 -9999.00 -9999.00 -9999.00 -9999.00 -9999.00 -9999.00 -9999.00 -9999.00 -9999.00 -9999.00 -9999.00 -9999.00 -9999.00 -9999.00 -9999.00 -9999.00 -9999.00 6216574.00 4415576.50 4325079.00 6486285.00 9943608.00 2702754.00 7928916.00 4835374.00 2703131.25 5195994.50 6487364.50 8560143.00 7267690.00 2553061.00 7389514.50 9161689.00 1501478.63 1652429.38 3003650.50 4204055.50 510430.34 3334782.25 4686237.00 1411328.63 -9999.00 1261553.63 7600107.50 1411619.88 -9999.00 -9999.00 -9999.00 -9999.00 -9999.00 -9999.00 -9999.00 -9999.00 -9999.00 -9999.00 -9999.00 -9999.00 -9999.00 -9999.00 -9999.00 -9999.00 -9999.00 -9999.00 -9999.00 -9999.00 -9999.00 -9999.00 -9999.00 -9999.00 -9999.00 -9999.00 
-9999.00 -9999.00 -9999.00 -9999.00 -9999.00 -9999.00 -9999.00 -9999.00 -9999.00 -9999.00 -9999.00 -9999.00 -9999.00 -9999.00 -9999.00 -9999.00 -9999.00 -9999.00 -9999.00 -9999.00 -9999.00 -9999.00 -9999.00 811849.00 541245.25 7756056.00 5409599.00 5140046.00 7033284.50 2163795.50 2133990.75 5440802.00 6671843.00 2224489.25 1533035.63 4538457.00 6372532.50 4358353.00 5349925.00 1563302.63 3036327.00 8144886.50 11451752.00 3667275.00 6402730.50 9135767.00 5800875.00 3246918.50 1653509.13 3636334.25 30047.29 -9999.00 3787472.75 -9999.00 -9999.00 -9999.00 -9999.00 -9999.00 -9999.00 -9999.00 -9999.00 -9999.00 -9999.00 -9999.00 -9999.00 -9999.00 -9999.00 -9999.00 -9999.00 -9999.00 -9999.00 -9999.00 -9999.00 -9999.00 -9999.00 -9999.00 -9999.00 -9999.00 
-9999.00 -9999.00 -9999.00 -9999.00 -9999.00 -9999.00 -9999.00 -9999.00 -9999.00 -9999.00 -9999.00 -9999.00 -9999.00 -9999.00 -9999.00 -9999.00 -9999.00 -9999.00 -9999.00 -9999.00 -9999.00 -9999.00 -9999.00 1082642.88 1353335.38 1082605.00 -9999.00 2345925.00 3098599.50 6016878.00 1895645.50 3430147.75 2255723.50 1082628.88 2345799.00 4332588.50 6197392.00 5776496.00 1414045.50 3880818.75 9596343.00 6677927.50 3248645.25 3969802.00 -9999.00 6167686.00 5956796.50 3700256.25 541684.69 3790670.00 1263930.88 -9999.00 1895379.38 -9999.00 -9999.00 -9999.00 -9999.00 -9999.00 -9999.00 -9999.00 -9999.00 -9999.00 -9999.00 -9999.00 -9999.00 -9999.00 -9999.00 -9999.00 -9999.00 -9999.00 -9999.00 -9999.00 -9999.00 -9999.00 -9999.00 -9999.00 -9999.00 -9999.00 
-9999.00 -9999.00 -9999.00 -9999.00 -9999.00 -9999.00 -9999.00 -9999.00 -9999.00 -9999.00 -9999.00 -9999.00 -9999.00 -9999.00 -9999.00 -9999.00 -9999.00 -9999.00 -9999.00 -9999.00 -9999.00 -9999.00 -9999.00 -9999.00 -9999.00 -9999.00 -9999.00 -9999.00 2498459.00 8791781.00 4515935.00 4877259.00 -9999.00 451758.47 2258019.25 3522161.25 4786023.50 10686577.00 1685640.00 1325106.00 4274746.00 6412636.00 3974724.50 5027192.50 11289551.00 3612004.50 2318879.75 4365898.50 270848.69 -9999.00 1264186.75 5058713.00 1897238.38 -9999.00 -9999.00 -9999.00 -9999.00 -9999.00 -9999.00 -9999.00 -9999.00 -9999.00 -9999.00 -9999.00 -9999.00 -9999.00 -9999.00 -9999.00 -9999.00 -9999.00 -9999.00 -9999.00 -9999.00 -9999.00 -9999.00 -9999.00 -9999.00 -9999.00 
-9999.00 -9999.00 -9999.00 -9999.00 -9999.00 -9999.00 -9999.00 -9999.00 -9999.00 -9999.00 -9999.00 -9999.00 -9999.00 -9999.00 -9999.00 -9999.00 -9999.00 -9999.00 -9999.00 -9999.00 -9999.00 -9999.00 -9999.00 -9999.00 -9999.00 -9999.00 -9999.00 -9999.00 813745.25 14642642.00 1898738.75 -9999.00 -9999.00 903538.06 2440052.25 1626759.50 1536477.00 2922817.00 2139250.75 5090880.00 2681039.00 3554841.00 6507699.50 2801303.75 7594161.50 451954.72 3283534.00 2500457.75 4881225.00 3345507.50 -9999.00 1356242.00 542496.81 -9999.00 -9999.00 -9999.00 -9999.00 -9999.00 -9999.00 -9999.00 -9999.00 -9999.00 -9999.00 -9999.00 -9999.00 -9999.00 -9999.00 -9999.00 -9999.00 -9999.00 -9999.00 -9999.00 -9999.00 -9999.00 -9999.00 -9999.00 -9999.00 -9999.00 
-9999.00 -9999.00 -9999.00 -9999.00 -9999.00 -9999.00 -9999.00 -9999.00 -9999.00 -9999.00 -9999.00 -9999.00 -9999.00 -9999.00 -9999.00 -9999.00 -9999.00 -9999.00 -9999.00 -9999.00 -9999.00 -9999.00 -9999.00 -9999.00 -9999.00 -9999.00 -9999.00 -9999.00 4251305.00 3165205.00 663599.63 1779390.63 2624000.00 -9999.00 1899091.13 90470.60 3709383.75 2471805.00 3709107.00 5941886.50 3075088.50 10252773.00 1899003.13 6060739.50 5368124.00 8503248.00 4522563.00 3949187.00 4703949.00 995084.81 -9999.00 1898915.00 -9999.00 -9999.00 -9999.00 -9999.00 -9999.00 -9999.00 -9999.00 -9999.00 -9999.00 -9999.00 -9999.00 -9999.00 -9999.00 -9999.00 -9999.00 -9999.00 -9999.00 -9999.00 -9999.00 -9999.00 -9999.00 -9999.00 -9999.00 -9999.00 -9999.00 -9999.00 
-9999.00 -9999.00 -9999.00 -9999.00 -9999.00 -9999.00 -9999.00 -9999.00 -9999.00 -9999.00 -9999.00 -9999.00 -9999.00 -9999.00 -9999.00 -9999.00 -9999.00 -9999.00 -9999.00 -9999.00 -9999.00 -9999.00 -9999.00 -9999.00 -9999.00 -9999.00 -9999.00 -9999.00 361980.19 4345428.50 10199255.00 754163.69 3439064.25 362020.63 -9999.00 5612997.50 90516.66 3802489.25 362025.78 1206606.13 3348844.25 4345797.50 5794353.00 1720610.00 6034359.50 2715095.25 4888070.00 5098836.00 5854570.00 4315322.50 3802042.00 1720213.38 2081749.25 -9999.00 -9999.00 -9999.00 -9999.00 -9999.00 -9999.00 -9999.00 -9999.00 -9999.00 -9999.00 -9999.00 -9999.00 -9999.00 -9999.00 -9999.00 -9999.00 -9999.00 -9999.00 -9999.00 -9999.00 -9999.00 -9999.00 -9999.00 -9999.00 -9999.00 
-9999.00 -9999.00 -9999.00 -9999.00 -9999.00 -9999.00 -9999.00 -9999.00 -9999.00 -9999.00 -9999.00 -9999.00 -9999.00 -9999.00 -9999.00 -9999.00 -9999.00 -9999.00 -9999.00 -9999.00 -9999.00 -9999.00 -9999.00 -9999.00 -9999.00 -9999.00 -9999.00 -9999.00 -9999.00 1992530.00 1540202.00 2717586.75 2899583.00 4892852.00 -9999.00 453021.47 3170542.75 3713926.75 3894850.50 -9999.00 5707138.00 2386081.00 1902077.38 271887.78 3625170.75 815663.44 6280966.00 3986107.75 6644573.00 4590278.00 5224640.00 2265644.25 -9999.00 5193941.50 -9999.00 -9999.00 -9999.00 -9999.00 -9999.00 -9999.00 -9999.00 -9999.00 -9999.00 -9999.00 -9999.00 -9999.00 -9999.00 -9999.00 -9999.00 -9999.00 -9999.00 -9999.00 -9999.00 -9999.00 -9999.00 -9999.00 -9999.00 -9999.00 
-9999.00 -9999.00 -9999.00 -9999.00 -9999.00 -9999.00 -9999.00 -9999.00 -9999.00 -9999.00 -9999.00 -9999.00 -9999.00 -9999.00 -9999.00 -9999.00 -9999.00 -9999.00 -9999.00 -9999.00 -9999.00 -9999.00 -9999.00 -9999.00 -9999.00 -9999.00 -9999.00 -9999.00 -9999.00 -9999.00 -9999.00 -9999.00 1904611.13 3536437.25 4080960.75 -9999.00 1904000.63 2266455.50 3989247.00 9307490.00 2992510.00 5893265.50 1903738.75 2628535.75 4684279.00 5862407.00 1904523.88 2024335.13 7825962.00 -9999.00 -9999.00 -9999.00 1904349.50 1934663.63 -9999.00 -9999.00 -9999.00 -9999.00 -9999.00 -9999.00 -9999.00 -9999.00 -9999.00 -9999.00 -9999.00 -9999.00 -9999.00 -9999.00 -9999.00 -9999.00 -9999.00 -9999.00 -9999.00 -9999.00 -9999.00 -9999.00 -9999.00 -9999.00 
-9999.00 -9999.00 -9999.00 -9999.00 -9999.00 -9999.00 -9999.00 -9999.00 -9999.00 -9999.00 -9999.00 -9999.00 -9999.00 -9999.00 -9999.00 -9999.00 -9999.00 -9999.00 -9999.00 -9999.00 -9999.00 -9999.00 -9999.00 -9999.00 -9999.00 -9999.00 -9999.00 -9999.00 -9999.00 -9999.00 -9999.00 1905569.00 9710943.00 5172407.50 4718086.00 907151.25 3810789.50 -9999.00 -9999.00 2147700.00 6472359.00 1603447.50 7409437.00 1905133.75 4535945.50 6078948.50 2540603.75 2540690.75 1905743.00 635382.88 -9999.00 2631181.00 4990398.50 -9999.00 -9999.00 -9999.00 -9999.00 -9999.00 -9999.00 -9999.00 -9999.00 -9999.00 -9999.00 -9999.00 -9999.00 -9999.00 -9999.00 -9999.00 -9999.00 -9999.00 -9999.00 -9999.00 -9999.00 -9999.00 -9999.00 -9999.00 -9999.00 -9999.00 
-9999.00 -9999.00 -9999.00 -9999.00 -9999.00 -9999.00 -9999.00 -9999.00 -9999.00 -9999.00 -9999.00 -9999.00 -9999.00 -9999.00 -9999.00 -9999.00 -9999.00 -9999.00 -9999.00 -9999.00 -9999.00 -9999.00 -9999.00 -9999.00 -9999.00 -9999.00 -9999.00 -9999.00 -9999.00 -9999.00 -9999.00 -9999.00 3903820.50 6809856.50 817383.88 -9999.00 1635056.75 272509.47 1906872.38 1907132.63 1270842.88 6355865.00 2723979.50 4025131.75 5356466.00 4539968.50 9291918.00 3631316.50 -9999.00 1270794.88 -9999.00 1906525.13 1907219.38 7021516.50 1725050.50 -9999.00 -9999.00 -9999.00 -9999.00 -9999.00 -9999.00 -9999.00 -9999.00 -9999.00 -9999.00 -9999.00 -9999.00 -9999.00 -9999.00 -9999.00 -9999.00 -9999.00 -9999.00 -9999.00 -9999.00 -9999.00 -9999.00 -9999.00 
-9999.00 -9999.00 -9999.00 -9999.00 -9999.00 -9999.00 -9999.00 -9999.00 -9999.00 -9999.00 -9999.00 -9999.00 -9999.00 -9999.00 -9999.00 -9999.00 -9999.00 -9999.00 -9999.00 -9999.00 -9999.00 -9999.00 -9999.00 -9999.00 -9999.00 -9999.00 -9999.00 -9999.00 -9999.00 -9999.00 -9999.00 -9999.00 1907826.25 -9999.00 2907877.00 12359580.00 4180247.50 4724887.00 2544765.75 3392614.00 8571605.00 3574643.25 -9999.00 242269.14 10238181.00 8600952.00 6663219.00 90861.23 5361384.50 4088879.25 10812433.00 6724621.50 10450899.00 10452050.00 17993716.00 -9999.00 -9999.00 -9999.00 -9999.00 -9999.00 -9999.00 -9999.00 -9999.00 -9999.00 -9999.00 -9999.00 -9999.00 -9999.00 -9999.00 -9999.00 -9999.00 -9999.00 -9999.00 -9999.00 -9999.00 -9999.00 -9999.00 -9999.00 
-9999.00 -9999.00 -9999.00 -9999.00 -9999.00 -9999.00 -9999.00 -9999.00 -9999.00 -9999.00 -9999.00 -9999.00 -9999.00 -9999.00 -9999.00 -9999.00 -9999.00 -9999.00 -9999.00 -9999.00 -9999.00 -9999.00 -9999.00 -9999.00 -9999.00 -9999.00 -9999.00 -9999.00 -9999.00 -9999.00 -9999.00 -9999.00 -9999.00 -9999.00 -9999.00 8367173.00 6457054.50 6184326.00 1910332.25 19671968.00 32804130.00 6457395.00 11003829.00 6032340.00 10882688.00 7003940.50 6153615.50 727581.38 727520.81 4548174.50 13825039.00 9184802.00 5637852.50 10307610.00 8367079.50 -9999.00 -9999.00 -9999.00 -9999.00 -9999.00 -9999.00 -9999.00 -9999.00 -9999.00 -9999.00 -9999.00 -9999.00 -9999.00 -9999.00 -9999.00 -9999.00 -9999.00 -9999.00 -9999.00 -9999.00 -9999.00 -9999.00 -9999.00 
-9999.00 -9999.00 -9999.00 -9999.00 -9999.00 -9999.00 -9999.00 -9999.00 -9999.00 -9999.00 -9999.00 -9999.00 -9999.00 -9999.00 -9999.00 -9999.00 -9999.00 -9999.00 -9999.00 -9999.00 -9999.00 -9999.00 -9999.00 -9999.00 -9999.00 -9999.00 -9999.00 -9999.00 -9999.00 -9999.00 -9999.00 -9999.00 -9999.00 -9999.00 -9999.00 8644933.00 7371410.00 5005667.00 5915578.00 16595761.00 43774552.00 -9999.00 3822387.25 2275123.75 6098855.00 6826547.50 7402704.00 6614236.00 9738941.00 24604202.00 9737711.00 5642692.00 9373736.00 13437902.00 14925701.00 515791.78 -9999.00 -9999.00 -9999.00 -9999.00 -9999.00 -9999.00 -9999.00 -9999.00 -9999.00 -9999.00 -9999.00 -9999.00 -9999.00 -9999.00 -9999.00 -9999.00 -9999.00 -9999.00 -9999.00 -9999.00 -9999.00 -9999.00 
-9999.00 -9999.00 -9999.00 -9999.00 -9999.00 -9999.00 -9999.00 -9999.00 -9999.00 -9999.00 -9999.00 -9999.00 -9999.00 -9999.00 -9999.00 -9999.00 -9999.00 -9999.00 -9999.00 -9999.00 -9999.00 -9999.00 -9999.00 -9999.00 -9999.00 -9999.00 -9999.00 -9999.00 -9999.00 -9999.00 -9999.00 -9999.00 -9999.00 -9999.00 -9999.00 5829814.50 7286137.50 1457456.75 4188733.00 28598136.00 29326028.00 7560381.00 6648465.00 2368089.25 5828572.50 9017057.00 7012783.50 16180971.00 8470339.00 5766684.50 3916420.75 -9999.00 2550439.00 13937583.00 18032716.00 6011677.00 -9999.00 -9999.00 -9999.00 -9999.00 -9999.00 -9999.00 -9999.00 -9999.00 -9999.00 -9999.00 -9999.00 -9999.00 -9999.00 -9999.00 -9999.00 -9999.00 -9999.00 -9999.00 -9999.00 -9999.00 -9999.00 -9999.00 
-9999.00 -9999.00 -9999.00 -9999.00 -9999.00 -9999.00 -9999.00 -9999.00 -9999.00 -9999.00 -9999.00 -9999.00 -9999.00 -9999.00 -9999.00 -9999.00 -9999.00 -9999.00 -9999.00 -9999.00 -9999.00 -9999.00 -9999.00 -9999.00 -9999.00 -9999.00 -9999.00 -9999.00 -9999.00 -9999.00 -9999.00 -9999.00 -9999.00 -9999.00 6198580.00 20689444.00 6652235.50 7200125.00 8384971.00 4861199.00 3159811.25 3189329.50 2248051.25 5498949.50 2460870.00 2066248.13 5500037.50 2643211.25 3462753.50 364527.41 1913426.25 11058169.00 11756860.00 9781648.00 14491591.00 10785249.00 -9999.00 -9999.00 -9999.00 -9999.00 -9999.00 -9999.00 -9999.00 -9999.00 -9999.00 -9999.00 -9999.00 -9999.00 -9999.00 -9999.00 -9999.00 -9999.00 -9999.00 -9999.00 -9999.00 -9999.00 -9999.00 -9999.00 
-9999.00 -9999.00 -9999.00 -9999.00 -9999.00 -9999.00 -9999.00 -9999.00 -9999.00 -9999.00 -9999.00 -9999.00 -9999.00 -9999.00 -9999.00 -9999.00 -9999.00 -9999.00 -9999.00 -9999.00 -9999.00 -9999.00 -9999.00 -9999.00 -9999.00 -9999.00 -9999.00 -9999.00 -9999.00 -9999.00 -9999.00 -9999.00 -9999.00 -9999.00 3831444.75 9486128.00 1642253.13 4013571.75 4014044.25 17207746.00 9881633.00 8392920.00 7236105.00 14472944.00 5655100.50 4134724.25 2067453.38 5108020.00 6385818.00 8848479.00 4744036.00 911921.25 6201059.00 7113081.50 12950926.00 15446619.00 1155668.63 -9999.00 -9999.00 -9999.00 -9999.00 -9999.00 -9999.00 -9999.00 -9999.00 -9999.00 -9999.00 -9999.00 -9999.00 -9999.00 -9999.00 -9999.00 -9999.00 -9999.00 -9999.00 -9999.00 -9999.00 -9999.00 
-9999.00 -9999.00 -9999.00 -9999.00 -9999.00 -9999.00 -9999.00 -9999.00 -9999.00 -9999.00 -9999.00 -9999.00 -9999.00 -9999.00 -9999.00 -9999.00 -9999.00 -9999.00 -9999.00 -9999.00 -9999.00 -9999.00 -9999.00 -9999.00 -9999.00 -9999.00 -9999.00 -9999.00 -9999.00 -9999.00 -9999.00 -9999.00 -9999.00 -9999.00 4838029.00 4564116.50 8306773.00 7941348.00 7302494.00 18346772.00 5294097.00 6847767.00 8669926.00 10769490.00 4747882.50 1916756.88 3195237.75 1916757.00 3012233.00 9949866.00 14057610.00 -9999.00 11776374.00 8306635.00 7210596.50 13966066.00 2282119.75 -9999.00 -9999.00 -9999.00 -9999.00 -9999.00 -9999.00 -9999.00 -9999.00 -9999.00 -9999.00 -9999.00 -9999.00 -9999.00 -9999.00 -9999.00 -9999.00 -9999.00 -9999.00 -9999.00 -9999.00 -9999.00 
-9999.00 -9999.00 -9999.00 -9999.00 -9999.00 -9999.00 -9999.00 -9999.00 -9999.00 -9999.00 -9999.00 -9999.00 -9999.00 -9999.00 -9999.00 -9999.00 -9999.00 -9999.00 -9999.00 -9999.00 -9999.00 -9999.00 -9999.00 -9999.00 -9999.00 -9999.00 -9999.00 -9999.00 -9999.00 -9999.00 -9999.00 -9999.00 -9999.00 -9999.00 882729.38 3470587.00 13519160.00 9227385.00 6029809.50 4567704.50 10232478.00 7307592.50 3563384.75 5939285.50 5481462.50 14248980.00 5480756.00 4932462.00 11511303.00 3653653.00 2710384.00 4140416.00 -9999.00 -9999.00 -9999.00 2740409.25 3989839.75 1004901.69 -9999.00 -9999.00 -9999.00 -9999.00 -9999.00 -9999.00 -9999.00 -9999.00 -9999.00 -9999.00 -9999.00 -9999.00 -9999.00 -9999.00 -9999.00 -9999.00 -9999.00 -9999.00 -9999.00 -9999.00 
-9999.00 -9999.00 -9999.00 -9999.00 -9999.00 -9999.00 -9999.00 -9999.00 -9999.00 -9999.00 -9999.00 -9999.00 -9999.00 -9999.00 -9999.00 -9999.00 -9999.00 -9999.00 -9999.00 -9999.00 -9999.00 -9999.00 -9999.00 -9999.00 -9999.00 -9999.00 -9999.00 -9999.00 -9999.00 -9999.00 -9999.00 -9999.00 -9999.00 -9999.00 3108186.00 3199549.00 3291661.75 3199779.75 731485.75 1188664.38 4661517.50 1097325.25 9781076.00 2467794.75 3199364.00 8684634.00 9141578.00 8594152.00 5760340.00 12402026.00 17674208.00 12037383.00 1980772.00 -9999.00 30474.10 -9999.00 4450305.00 5454932.00 -9999.00 -9999.00 -9999.00 -9999.00 -9999.00 -9999.00 -9999.00 -9999.00 -9999.00 -9999.00 -9999.00 -9999.00 -9999.00 -9999.00 -9999.00 -9999.00 -9999.00 -9999.00 -9999.00 -9999.00 
-9999.00 -9999.00 -9999.00 -9999.00 -9999.00 -9999.00 -9999.00 -9999.00 -9999.00 -9999.00 -9999.00 -9999.00 -9999.00 -9999.00 -9999.00 -9999.00 -9999.00 -9999.00 -9999.00 -9999.00 -9999.00 -9999.00 -9999.00 -9999.00 -9999.00 -9999.00 -9999.00 -9999.00 -9999.00 -9999.00 -9999.00 -9999.00 -9999.00 -9999.00 -9999.00 -9999.00 1920741.50 1281215.88 -9999.00 457460.06 3110583.75 9362605.00 14240845.00 8873190.00 12532113.00 5488122.00 11252551.00 10338169.00 10426998.00 5306074.00 5031979.50 7959915.50 3476434.75 1920741.50 1921163.50 3841988.75 8598280.00 26531758.00 2104240.00 -9999.00 -9999.00 -9999.00 -9999.00 -9999.00 -9999.00 -9999.00 -9999.00 -9999.00 -9999.00 -9999.00 -9999.00 -9999.00 -9999.00 -9999.00 -9999.00 -9999.00 -9999.00 -9999.00 
-9999.00 -9999.00 -9999.00 -9999.00 -9999.00 -9999.00 -9999.00 -9999.00 -9999.00 -9999.00 -9999.00 -9999.00 -9999.00 -9999.00 -9999.00 -9999.00 -9999.00 -9999.00 -9999.00 -9999.00 -9999.00 -9999.00 -9999.00 -9999.00 -9999.00 -9999.00 -9999.00 -9999.00 -9999.00 -9999.00 -9999.00 -9999.00 -9999.00 -9999.00 -9999.00 4303997.00 3754678.50 2563722.00 1922595.63 -9999.00 5128154.50 3998205.75 6897482.50 6133638.00 11719712.00 8485009.00 6437231.50 6835389.50 11260926.00 11075039.00 1098674.00 10618558.00 7871698.50 5218978.00 1648299.38 61015.19 4576354.00 1098385.63 1647578.38 305124.03 -9999.00 -9999.00 -9999.00 -9999.00 -9999.00 -9999.00 -9999.00 -9999.00 -9999.00 -9999.00 -9999.00 -9999.00 -9999.00 -9999.00 -9999.00 -9999.00 -9999.00 -9999.00 
-9999.00 -9999.00 -9999.00 -9999.00 -9999.00 -9999.00 -9999.00 -9999.00 -9999.00 -9999.00 -9999.00 -9999.00 -9999.00 -9999.00 -9999.00 -9999.00 -9999.00 -9999.00 -9999.00 -9999.00 -9999.00 -9999.00 -9999.00 -9999.00 -9999.00 -9999.00 -9999.00 -9999.00 -9999.00 -9999.00 -9999.00 -9999.00 -9999.00 -9999.00 -9999.00 -9999.00 733025.13 9434691.00 1923939.50 6137236.00 4121944.25 7695994.00 6137443.50 4489866.50 7054556.50 7541850.00 4184284.00 13651342.00 11360309.00 5771387.00 8519129.00 -9999.00 3939690.75 3390832.00 8061134.00 3206723.75 549864.69 5863914.50 3878076.25 30528.06 -9999.00 -9999.00 -9999.00 -9999.00 -9999.00 -9999.00 -9999.00 -9999.00 -9999.00 -9999.00 -9999.00 -9999.00 -9999.00 -9999.00 -9999.00 -9999.00 -9999.00 -9999.00 
-9999.00 -9999.00 -9999.00 -9999.00 -9999.00 -9999.00 -9999.00 -9999.00 -9999.00 -9999.00 -9999.00 -9999.00 -9999.00 -9999.00 -9999.00 -9999.00 -9999.00 -9999.00 -9999.00 -9999.00 -9999.00 -9999.00 -9999.00 -9999.00 -9999.00 -9999.00 -9999.00 -9999.00 -9999.00 -9999.00 -9999.00 -9999.00 -9999.00 -9999.00 -9999.00 -9999.00 1925363.25 91707.84 2476000.50 1283687.13 1925363.38 1924861.25 2017579.38 9443492.00 3209411.25 3850475.50 3758708.25 12652299.00 3942796.50 8159358.50 6510130.50 8434176.00 6234912.00 12195841.00 5011791.50 3850308.25 1283798.63 2566844.25 6052836.00 6327082.00 2414849.25 -9999.00 -9999.00 -9999.00 -9999.00 -9999.00 -9999.00 -9999.00 -9999.00 -9999.00 -9999.00 -9999.00 -9999.00 -9999.00 -9999.00 -9999.00 -9999.00 -9999.00 
-9999.00 -9999.00 -9999.00 -9999.00 -9999.00 -9999.00 -9999.00 -9999.00 -9999.00 -9999.00 -9999.00 -9999.00 -9999.00 -9999.00 -9999.00 -9999.00 -9999.00 -9999.00 -9999.00 -9999.00 -9999.00 -9999.00 -9999.00 -9999.00 -9999.00 -9999.00 -9999.00 -9999.00 -9999.00 -9999.00 -9999.00 -9999.00 -9999.00 -9999.00 -9999.00 -9999.00 11193937.00 183550.77 -9999.00 1927116.50 -9999.00 1926199.00 4495085.00 2355288.25 7553978.50 10091853.00 8991967.00 6147601.00 9542036.00 6299377.00 5995406.50 3486508.00 6056028.50 23669196.00 15351998.00 1376507.88 -9999.00 5779097.50 4496003.00 825549.56 4005853.00 -9999.00 -9999.00 -9999.00 -9999.00 -9999.00 -9999.00 -9999.00 -9999.00 -9999.00 -9999.00 -9999.00 -9999.00 -9999.00 -9999.00 -9999.00 -9999.00 -9999.00 
-9999.00 -9999.00 -9999.00 -9999.00 -9999.00 -9999.00 -9999.00 -9999.00 -9999.00 -9999.00 -9999.00 -9999.00 -9999.00 -9999.00 -9999.00 -9999.00 -9999.00 -9999.00 -9999.00 -9999.00 -9999.00 -9999.00 -9999.00 -9999.00 -9999.00 -9999.00 -9999.00 -9999.00 -9999.00 -9999.00 -9999.00 -9999.00 -9999.00 -9999.00 -9999.00 -9999.00 7741258.00 4590616.00 918268.88 1928115.25 -9999.00 1928115.38 3030643.25 8661363.00 10527025.00 8631087.00 8445892.00 6426773.50 7711795.50 8845984.00 8325137.50 10926022.00 11108856.00 15792729.00 8906978.00 3764478.50 5875764.00 -9999.00 1928613.88 2202989.75 1071016.25 6671906.50 -9999.00 -9999.00 -9999.00 -9999.00 -9999.00 -9999.00 -9999.00 -9999.00 -9999.00 -9999.00 -9999.00 -9999.00 -9999.00 -9999.00 -9999.00 -9999.00 
-9999.00 -9999.00 -9999.00 -9999.00 -9999.00 -9999.00 -9999.00 -9999.00 -9999.00 -9999.00 -9999.00 -9999.00 -9999.00 -9999.00 -9999.00 -9999.00 -9999.00 -9999.00 -9999.00 -9999.00 -9999.00 -9999.00 -9999.00 -9999.00 -9999.00 -9999.00 -9999.00 -9999.00 -9999.00 -9999.00 -9999.00 -9999.00 -9999.00 -9999.00 -9999.00 -9999.00 -9999.00 1286737.88 -9999.00 -9999.00 1930106.75 1286783.88 8636072.00 6339292.50 4686017.00 11392332.00 6431510.50 5145606.00 9004130.00 9372357.00 3950528.75 7749217.50 9157914.00 17887018.00 18866478.00 4685757.00 -9999.00 3491627.00 2327085.25 1930106.63 1929029.13 30633.99 -9999.00 -9999.00 -9999.00 -9999.00 -9999.00 -9999.00 -9999.00 -9999.00 -9999.00 -9999.00 -9999.00 -9999.00 -9999.00 -9999.00 -9999.00 -9999.00 
-9999.00 -9999.00 -9999.00 -9999.00 -9999.00 -9999.00 -9999.00 -9999.00 -9999.00 -9999.00 -9999.00 -9999.00 -9999.00 -9999.00 -9999.00 -9999.00 -9999.00 -9999.00 -9999.00 -9999.00 -9999.00 -9999.00 -9999.00 -9999.00 -9999.00 -9999.00 -9999.00 -9999.00 -9999.00 -9999.00 -9999.00 -9999.00 -9999.00 -9999.00 -9999.00 -9999.00 -9999.00 2206262.00 1654779.13 1930685.88 -9999.00 2114719.50 2391078.75 643826.88 643855.81 -9999.00 3861289.25 3862033.25 551506.44 2390294.00 6620498.50 6589038.00 2666894.25 11248579.00 17254856.00 8827772.00 1747183.50 1839142.25 4598056.00 1654944.63 4690190.00 2574624.50 -9999.00 -9999.00 -9999.00 -9999.00 -9999.00 -9999.00 -9999.00 -9999.00 -9999.00 -9999.00 -9999.00 -9999.00 -9999.00 -9999.00 -9999.00 -9999.00 
-9999.00 -9999.00 -9999.00 -9999.00 -9999.00 -9999.00 -9999.00 -9999.00 -9999.00 -9999.00 -9999.00 -9999.00 -9999.00 -9999.00 -9999.00 -9999.00 -9999.00 -9999.00 -9999.00 -9999.00 -9999.00 -9999.00 -9999.00 -9999.00 -9999.00 -9999.00 -9999.00 -9999.00 -9999.00 -9999.00 -9999.00 -9999.00 -9999.00 -9999.00 -9999.00 -9999.00 -9999.00 -9999.00 1932007.25 -9999.00 -9999.00 -9999.00 367925.44 3219787.00 14722036.00 7177334.00 1011955.31 3127700.25 367938.53 1563738.75 275989.28 6624283.50 7022162.00 7359600.50 4600335.00 9109470.00 5703225.50 3863767.00 -9999.00 -9999.00 1994256.63 1410418.00 2668877.25 -9999.00 -9999.00 -9999.00 -9999.00 -9999.00 -9999.00 -9999.00 -9999.00 -9999.00 -9999.00 -9999.00 -9999.00 -9999.00 -9999.00 -9999.00 
-9999.00 -9999.00 -9999.00 -9999.00 -9999.00 -9999.00 -9999.00 -9999.00 -9999.00 -9999.00 -9999.00 -9999.00 -9999.00 -9999.00 -9999.00 -9999.00 -9999.00 -9999.00 -9999.00 -9999.00 -9999.00 -9999.00 -9999.00 -9999.00 -9999.00 -9999.00 -9999.00 -9999.00 -9999.00 -9999.00 -9999.00 -9999.00 -9999.00 -9999.00 -9999.00 -9999.00 -9999.00 -9999.00 -9999.00 -9999.00 -9999.00 -9999.00 1227896.88 5770911.50 9299021.00 11233455.00 552402.00 1012607.81 3314638.75 1473056.25 5555163.00 4695627.50 9054174.00 7427439.50 8103809.00 9575985.00 2946719.25 -9999.00 -9999.00 -9999.00 6444470.50 24158686.00 13998901.00 -9999.00 -9999.00 -9999.00 -9999.00 -9999.00 -9999.00 -9999.00 -9999.00 -9999.00 -9999.00 -9999.00 -9999.00 -9999.00 -9999.00 -9999.00 
-9999.00 -9999.00 -9999.00 -9999.00 -9999.00 -9999.00 -9999.00 -9999.00 -9999.00 -9999.00 -9999.00 -9999.00 -9999.00 -9999.00 -9999.00 -9999.00 -9999.00 -9999.00 -9999.00 -9999.00 -9999.00 -9999.00 -9999.00 -9999.00 -9999.00 -9999.00 -9999.00 -9999.00 -9999.00 -9999.00 -9999.00 -9999.00 -9999.00 -9999.00 -9999.00 -9999.00 -9999.00 -9999.00 -9999.00 1842825.25 92141.29 1935376.00 153518.91 2241589.25 13390732.00 17108614.00 8846571.00 10689177.00 552894.44 1505462.25 2364327.50 6725031.50 5527417.00 5558653.50 18613162.00 12440466.00 2763947.25 2580846.75 1934474.63 -9999.00 1381872.88 10318542.00 7769110.00 -9999.00 30725.01 -9999.00 -9999.00 -9999.00 -9999.00 -9999.00 -9999.00 -9999.00 -9999.00 -9999.00 -9999.00 -9999.00 -9999.00 -9999.00 
-9999.00 -9999.00 -9999.00 -9999.00 -9999.00 -9999.00 -9999.00 -9999.00 -9999.00 -9999.00 -9999.00 -9999.00 -9999.00 -9999.00 -9999.00 -9999.00 -9999.00 -9999.00 -9999.00 -9999.00 -9999.00 -9999.00 -9999.00 -9999.00 -9999.00 -9999.00 -9999.00 -9999.00 -9999.00 -9999.00 -9999.00 -9999.00 -9999.00 -9999.00 -9999.00 -9999.00 -9999.00 -9999.00 -9999.00 -9999.00 1936112.25 -9999.00 -9999.00 1751424.63 10388711.00 11280279.00 4978772.50 8207458.00 3226581.00 6146205.00 5163673.50 2581510.25 4980592.50 1199051.13 12633646.00 19825084.00 4148342.00 3226263.00 -9999.00 -9999.00 -9999.00 -9999.00 1936928.88 4519316.50 2397912.00 30730.22 -9999.00 -9999.00 -9999.00 -9999.00 -9999.00 -9999.00 -9999.00 -9999.00 -9999.00 -9999.00 -9999.00 -9999.00 
-9999.00 -9999.00 -9999.00 -9999.00 -9999.00 -9999.00 -9999.00 -9999.00 -9999.00 -9999.00 -9999.00 -9999.00 -9999.00 -9999.00 -9999.00 -9999.00 -9999.00 -9999.00 -9999.00 -9999.00 -9999.00 -9999.00 -9999.00 -9999.00 -9999.00 -9999.00 -9999.00 -9999.00 -9999.00 -9999.00 -9999.00 -9999.00 -9999.00 -9999.00 -9999.00 -9999.00 -9999.00 -9999.00 -9999.00 1106909.63 830182.19 1937988.00 1753196.75 430690.72 13073288.00 8027299.00 7843272.00 5630005.00 92296.79 -9999.00 2952509.00 5691161.00 7411458.50 4953573.50 5104906.50 17900584.00 14488148.00 3875235.50 7474433.50 1937906.75 -9999.00 -9999.00 5812261.50 18822182.00 4920886.50 1938232.25 3782684.00 -9999.00 -9999.00 -9999.00 -9999.00 -9999.00 -9999.00 -9999.00 -9999.00 -9999.00 -9999.00 -9999.00 
-9999.00 -9999.00 -9999.00 -9999.00 -9999.00 -9999.00 -9999.00 -9999.00 -9999.00 -9999.00 -9999.00 -9999.00 -9999.00 -9999.00 -9999.00 -9999.00 -9999.00 -9999.00 -9999.00 -9999.00 -9999.00 -9999.00 -9999.00 -9999.00 -9999.00 -9999.00 -9999.00 -9999.00 -9999.00 -9999.00 -9999.00 -9999.00 -9999.00 -9999.00 -9999.00 -9999.00 -9999.00 -9999.00 -9999.00 -9999.00 -9999.00 1939126.25 -9999.00 6309125.50 3908659.75 13664772.00 8770717.00 7478072.50 -9999.00 -9999.00 2801034.00 4339552.50 9479648.00 8155889.50 8280654.50 4155266.25 6649275.00 1108280.75 8032884.50 -9999.00 1938476.25 -9999.00 92347.08 17174996.00 3139131.50 400210.53 1662595.00 -9999.00 -9999.00 -9999.00 -9999.00 -9999.00 -9999.00 -9999.00 -9999.00 -9999.00 -9999.00 -9999.00 
-9999.00 -9999.00 -9999.00 -9999.00 -9999.00 -9999.00 -9999.00 -9999.00 -9999.00 -9999.00 -9999.00 -9999.00 -9999.00 -9999.00 -9999.00 -9999.00 -9999.00 -9999.00 -9999.00 -9999.00 -9999.00 -9999.00 -9999.00 -9999.00 -9999.00 -9999.00 -9999.00 -9999.00 -9999.00 -9999.00 -9999.00 -9999.00 -9999.00 -9999.00 -9999.00 -9999.00 -9999.00 -9999.00 -9999.00 461939.94 13304807.00 -9999.00 1939856.38 2679674.75 3048731.50 5081852.50 1201013.88 4618960.00 1940827.88 1940342.38 2555743.25 4927621.50 5914195.00 7392200.50 1848330.50 9148812.00 4065146.25 2586871.25 3142037.00 1939856.25 1293399.50 646699.81 646663.88 3140938.50 154029.67 3141491.25 862505.88 -9999.00 -9999.00 -9999.00 -9999.00 -9999.00 -9999.00 -9999.00 -9999.00 -9999.00 -9999.00 -9999.00 
-9999.00 -9999.00 -9999.00 -9999.00 -9999.00 -9999.00 -9999.00 -9999.00 -9999.00 -9999.00 -9999.00 -9999.00 -9999.00 -9999.00 -9999.00 -9999.00 -9999.00 -9999.00 -9999.00 -9999.00 -9999.00 -9999.00 -9999.00 -9999.00 -9999.00 -9999.00 -9999.00 -9999.00 -9999.00 -9999.00 -9999.00 -9999.00 -9999.00 -9999.00 -9999.00 -9999.00 -9999.00 -9999.00 -9999.00 -9999.00 -9999.00 2497219.00 3329625.25 -9999.00 -9999.00 6103299.00 2465641.75 5733749.00 1202015.13 -9999.00 -9999.00 1479280.13 462275.06 2959503.00 4623323.50 3329704.50 5824423.50 -9999.00 -9999.00 -9999.00 1941716.75 739609.31 1201865.25 -9999.00 -9999.00 1941636.00 -9999.00 -9999.00 -9999.00 -9999.00 -9999.00 -9999.00 -9999.00 -9999.00 -9999.00 -9999.00 -9999.00 -9999.00 
-9999.00 -9999.00 -9999.00 -9999.00 -9999.00 -9999.00 -9999.00 -9999.00 -9999.00 -9999.00 -9999.00 -9999.00 -9999.00 -9999.00 -9999.00 -9999.00 -9999.00 -9999.00 -9999.00 -9999.00 -9999.00 -9999.00 -9999.00 -9999.00 -9999.00 -9999.00 -9999.00 -9999.00 -9999.00 -9999.00 -9999.00 -9999.00 -9999.00 -9999.00 -9999.00 -9999.00 -9999.00 -9999.00 246824.59 2344833.50 1943649.75 -9999.00 -9999.00 -9999.00 1202663.88 740100.94 1943006.38 -9999.00 -9999.00 1943086.88 -9999.00 -9999.00 1942845.38 -9999.00 -9999.00 2868803.75 2128516.50 3330224.00 -9999.00 1942925.88 -9999.00 -9999.00 -9999.00 123344.18 -9999.00 740039.50 1295066.63 61683.58 -9999.00 -9999.00 -9999.00 -9999.00 -9999.00 -9999.00 -9999.00 -9999.00 -9999.00 -9999.00 
-9999.00 -9999.00 -9999.00 -9999.00 -9999.00 -9999.00 -9999.00 -9999.00 -9999.00 -9999.00 -9999.00 -9999.00 -9999.00 -9999.00 -9999.00 -9999.00 -9999.00 -9999.00 -9999.00 -9999.00 -9999.00 -9999.00 -9999.00 -9999.00 -9999.00 -9999.00 -9999.00 -9999.00 -9999.00 -9999.00 -9999.00 -9999.00 -9999.00 -9999.00 -9999.00 -9999.00 -9999.00 -9999.00 8087483.50 9507169.00 9815245.00 5833358.00 -9999.00 -9999.00 -9999.00 -9999.00 3888584.50 1944212.00 1944933.75 -9999.00 -9999.00 2036541.25 1758831.00 3890027.75 3888343.50 4259239.00 3519293.00 1389303.25 4444776.00 -9999.00 -9999.00 -9999.00 3888102.75 -9999.00 -9999.00 -9999.00 30864.33 -9999.00 -9999.00 -9999.00 -9999.00 -9999.00 -9999.00 -9999.00 -9999.00 -9999.00 -9999.00 -9999.00 
-9999.00 -9999.00 -9999.00 -9999.00 -9999.00 -9999.00 -9999.00 -9999.00 -9999.00 -9999.00 -9999.00 -9999.00 -9999.00 -9999.00 -9999.00 -9999.00 -9999.00 -9999.00 -9999.00 -9999.00 -9999.00 -9999.00 -9999.00 -9999.00 -9999.00 -9999.00 -9999.00 -9999.00 -9999.00 -9999.00 -9999.00 -9999.00 -9999.00 -9999.00 -9999.00 -9999.00 -9999.00 -9999.00 7133403.00 12229506.00 92673.03 -9999.00 1668320.38 278053.38 -9999.00 3891468.25 3521206.75 7505523.50 2687217.75 3056814.00 4631947.50 -9999.00 2037919.63 3706617.50 1544646.75 5961164.50 3520646.75 13435033.00 3151207.00 -9999.00 -9999.00 -9999.00 -9999.00 1945414.38 -9999.00 -9999.00 -9999.00 -9999.00 -9999.00 -9999.00 -9999.00 -9999.00 -9999.00 -9999.00 -9999.00 -9999.00 -9999.00 -9999.00 
-9999.00 -9999.00 -9999.00 -9999.00 -9999.00 -9999.00 -9999.00 -9999.00 -9999.00 -9999.00 -9999.00 -9999.00 -9999.00 -9999.00 -9999.00 -9999.00 -9999.00 -9999.00 -9999.00 -9999.00 -9999.00 -9999.00 -9999.00 -9999.00 -9999.00 -9999.00 -9999.00 -9999.00 -9999.00 -9999.00 -9999.00 -9999.00 -9999.00 -9999.00 -9999.00 -9999.00 -9999.00 -9999.00 -9999.00 -9999.00 6303703.00 2595682.00 2318145.00 7418271.00 1947012.13 -9999.00 1947729.25 -9999.00 -9999.00 1947490.50 -9999.00 1946693.13 -9999.00 -9999.00 2348985.75 1174624.25 3246025.75 5933397.50 3523324.50 2781635.75 1947377.88 4915425.00 -9999.00 -9999.00 2102354.00 618320.50 1762087.13 -9999.00 -9999.00 -9999.00 -9999.00 -9999.00 -9999.00 -9999.00 -9999.00 -9999.00 -9999.00 -9999.00 
-9999.00 -9999.00 -9999.00 -9999.00 -9999.00 -9999.00 -9999.00 -9999.00 -9999.00 -9999.00 -9999.00 -9999.00 -9999.00 -9999.00 -9999.00 -9999.00 -9999.00 -9999.00 -9999.00 -9999.00 -9999.00 -9999.00 -9999.00 -9999.00 -9999.00 -9999.00 -9999.00 -9999.00 -9999.00 -9999.00 -9999.00 -9999.00 -9999.00 -9999.00 -9999.00 -9999.00 -9999.00 -9999.00 -9999.00 649322.69 1298645.38 928114.81 2969967.25 -9999.00 -9999.00 3898002.50 5381434.50 4267659.00 -9999.00 -9999.00 -9999.00 -9999.00 4454054.50 3339805.25 556607.75 4174671.75 6215838.50 2597891.75 3433255.25 4268609.50 -9999.00 1948047.63 -9999.00 3803175.75 1051198.63 1329547.88 834843.50 1947968.13 -9999.00 -9999.00 -9999.00 -9999.00 -9999.00 -9999.00 -9999.00 -9999.00 -9999.00 -9999.00 
-9999.00 -9999.00 -9999.00 -9999.00 -9999.00 -9999.00 -9999.00 -9999.00 -9999.00 -9999.00 -9999.00 -9999.00 -9999.00 -9999.00 -9999.00 -9999.00 -9999.00 -9999.00 -9999.00 -9999.00 -9999.00 -9999.00 -9999.00 -9999.00 -9999.00 -9999.00 -9999.00 -9999.00 -9999.00 -9999.00 -9999.00 -9999.00 -9999.00 -9999.00 -9999.00 -9999.00 -9999.00 -9999.00 -9999.00 -9999.00 5849145.50 -9999.00 4178640.00 1671456.00 1114123.00 835592.19 1950111.25 -9999.00 464123.50 1485195.25 -9999.00 3806329.50 2042815.13 -9999.00 742537.13 3156971.50 -9999.00 -9999.00 -9999.00 -9999.00 185649.39 1763669.38 -9999.00 -9999.00 -9999.00 619179.25 681097.13 -9999.00 7798860.00 -9999.00 -9999.00 -9999.00 -9999.00 -9999.00 -9999.00 -9999.00 -9999.00 -9999.00 
-9999.00 -9999.00 -9999.00 -9999.00 -9999.00 -9999.00 -9999.00 -9999.00 -9999.00 -9999.00 -9999.00 -9999.00 -9999.00 -9999.00 -9999.00 -9999.00 -9999.00 -9999.00 -9999.00 -9999.00 -9999.00 -9999.00 -9999.00 -9999.00 -9999.00 -9999.00 -9999.00 -9999.00 -9999.00 -9999.00 -9999.00 -9999.00 -9999.00 -9999.00 -9999.00 -9999.00 -9999.00 -9999.00 -9999.00 -9999.00 1950823.13 929264.31 1672772.13 2818423.00 -9999.00 8548554.00 2043689.38 1950665.00 -9999.00 2229241.00 3622516.75 7804511.00 4738650.00 2323142.00 9756759.00 6689286.00 8268060.00 1950981.25 681531.44 7960884.00 1764887.38 -9999.00 8453567.00 4644189.50 5419686.00 4737863.00 2662747.00 8361088.00 7988545.50 1114891.50 3809829.50 -9999.00 -9999.00 -9999.00 -9999.00 -9999.00 -9999.00 -9999.00 
-9999.00 -9999.00 -9999.00 -9999.00 -9999.00 -9999.00 -9999.00 -9999.00 -9999.00 -9999.00 -9999.00 -9999.00 -9999.00 -9999.00 -9999.00 -9999.00 -9999.00 -9999.00 -9999.00 -9999.00 -9999.00 -9999.00 -9999.00 -9999.00 -9999.00 -9999.00 -9999.00 -9999.00 -9999.00 -9999.00 -9999.00 -9999.00 -9999.00 -9999.00 -9999.00 -9999.00 -9999.00 -9999.00 -9999.00 -9999.00 -9999.00 -9999.00 8832542.00 9636942.00 6228863.50 7251325.00 5764089.00 1766263.00 -9999.00 -9999.00 2789774.00 8832184.00 2882659.00 4462710.50 4276548.50 3997687.25 4556423.00 1301705.50 5360166.00 1797044.13 -9999.00 3346905.50 7066687.00 5764156.50 247845.55 1518350.88 1581024.75 -9999.00 -9999.00 -9999.00 -9999.00 -9999.00 -9999.00 -9999.00 -9999.00 -9999.00 -9999.00 -9999.00 
-9999.00 -9999.00 -9999.00 -9999.00 -9999.00 -9999.00 -9999.00 -9999.00 -9999.00 -9999.00 -9999.00 -9999.00 -9999.00 -9999.00 -9999.00 -9999.00 -9999.00 -9999.00 -9999.00 -9999.00 -9999.00 -9999.00 -9999.00 -9999.00 -9999.00 -9999.00 -9999.00 -9999.00 -9999.00 -9999.00 -9999.00 -9999.00 -9999.00 -9999.00 -9999.00 -9999.00 -9999.00 -9999.00 -9999.00 -9999.00 -9999.00 186115.09 5302993.50 9675162.00 3442314.25 1395863.00 -9999.00 1953580.50 -9999.00 651245.81 4186871.50 3069261.25 3721225.25 2976944.25 3070125.25 -9999.00 1953737.63 124085.84 9460336.00 2109099.50 3101512.25 -9999.00 3721228.50 186010.41 4559169.50 1488356.13 1023098.31 -9999.00 -9999.00 -9999.00 -9999.00 -9999.00 -9999.00 -9999.00 -9999.00 -9999.00 -9999.00 -9999.00 
-9999.00 -9999.00 -9999.00 -9999.00 -9999.00 -9999.00 -9999.00 -9999.00 -9999.00 -9999.00 -9999.00 -9999.00 -9999.00 -9999.00 -9999.00 -9999.00 -9999.00 -9999.00 -9999.00 -9999.00 -9999.00 -9999.00 -9999.00 -9999.00 -9999.00 -9999.00 -9999.00 -9999.00 -9999.00 -9999.00 -9999.00 -9999.00 -9999.00 -9999.00 -9999.00 -9999.00 -9999.00 -9999.00 -9999.00 1024207.13 1117234.75 2699030.75 19332192.00 13064622.00 11544765.00 3444415.50 3165929.75 1117391.25 1954443.38 5306215.00 3537626.00 2886185.50 5865365.50 -9999.00 -9999.00 3909200.25 -9999.00 62044.15 3195413.75 17252896.00 11046869.00 7913858.50 -9999.00 838021.19 2979630.75 3444468.00 2327184.50 2483101.75 7480029.50 4189028.00 -9999.00 -9999.00 -9999.00 -9999.00 -9999.00 -9999.00 -9999.00 -9999.00 
-9999.00 -9999.00 -9999.00 -9999.00 -9999.00 -9999.00 -9999.00 -9999.00 -9999.00 -9999.00 -9999.00 -9999.00 -9999.00 -9999.00 -9999.00 -9999.00 -9999.00 -9999.00 -9999.00 -9999.00 -9999.00 -9999.00 -9999.00 -9999.00 -9999.00 -9999.00 -9999.00 -9999.00 -9999.00 -9999.00 -9999.00 -9999.00 -9999.00 -9999.00 -9999.00 -9999.00 -9999.00 -9999.00 -9999.00 -9999.00 4191935.50 93150.66 4035727.50 4719268.00 3725676.75 1118030.75 9783159.00 3913653.25 -9999.00 3912561.75 1956241.88 -9999.00 1955851.50 -9999.00 1117897.13 838422.75 -9999.00 -9999.00 -9999.00 465771.88 3447024.00 -9999.00 1956319.88 1583519.00 7173885.50 931877.88 -9999.00 2452455.00 4906915.00 1955851.63 -9999.00 -9999.00 -9999.00 -9999.00 -9999.00 -9999.00 -9999.00 -9999.00 
