ncols        78
nrows        66
xllcorner    -87.500000000000
yllcorner    25.000000000000
cellsize     0.083333333333
NODATA_value -9999.000000
-9999.000000 -9999.000000 -9999.000000 -9999.000000 0.000018 0.000080 -9999.000000 -9999.000000 -9999.000000 -9999.000000 -9999.000000 0.000026 0.000330 0.002721 0.003195 0.000415 -9999.000000 -9999.000000 -9999.000000 -9999.000000 -9999.000000 -9999.000000 -9999.000000 -9999.000000 -9999.000000 -9999.000000 -9999.000000 -9999.000000 -9999.000000 -9999.000000 -9999.000000 -9999.000000 -9999.000000 -9999.000000 -9999.000000 -9999.000000 -9999.000000 -9999.000000 -9999.000000 -9999.000000 -9999.000000 -9999.000000 -9999.000000 -9999.000000 -9999.000000 -9999.000000 -9999.000000 -9999.000000 -9999.000000 -9999.000000 -9999.000000 -9999.000000 -9999.000000 -9999.000000 -9999.000000 -9999.000000 -9999.000000 -9999.000000 -9999.000000 -9999.000000 -9999.000000 -9999.000000 -9999.000000 -9999.000000 -9999.000000 -9999.000000 -9999.000000 -9999.000000 -9999.000000 -9999.000000 -9999.000000 -9999.000000 0.000000 0.000000 0.000000 0.000000 0.000000 0.000000 
-9999.000000 -9999.000000 -9999.000000 0.000038 0.000360 0.000607 0.000693 0.000000 0.000000 0.000050 0.000000 0.000000 0.000188 0.000000 0.000000 -9999.000000 -9999.000000 -9999.000000 -9999.000000 -9999.000000 -9999.000000 -9999.000000 -9999.000000 -9999.000000 -9999.000000 -9999.000000 -9999.000000 -9999.000000 -9999.000000 -9999.000000 -9999.000000 -9999.000000 -9999.000000 -9999.000000 -9999.000000 -9999.000000 -9999.000000 -9999.000000 -9999.000000 -9999.000000 -9999.000000 -9999.000000 -9999.000000 -9999.000000 -9999.000000 -9999.000000 -9999.000000 -9999.000000 -9999.000000 -9999.000000 -9999.000000 -9999.000000 -9999.000000 -9999.000000 -9999.000000 -9999.000000 -9999.000000 -9999.000000 -9999.000000 -9999.000000 -9999.000000 -9999.000000 -9999.000000 -9999.000000 -9999.000000 -9999.000000 -9999.000000 -9999.000000 -9999.000000 -9999.000000 -9999.000000 -9999.000000 -9999.000000 0.000000 0.000000 0.000000 0.000000 0.000000 
0.000017 0.000000 0.000000 0.000000 0.000577 0.000101 0.003350 0.000127 0.000000 0.000224 0.002833 0.000530 0.007170 0.011369 0.093936 0.024861 0.009282 -9999.000000 -9999.000000 -9999.000000 -9999.000000 -9999.000000 -9999.000000 -9999.000000 -9999.000000 -9999.000000 -9999.000000 -9999.000000 -9999.000000 -9999.000000 -9999.000000 -9999.000000 -9999.000000 -9999.000000 -9999.000000 -9999.000000 -9999.000000 -9999.000000 -9999.000000 -9999.000000 -9999.000000 -9999.000000 -9999.000000 -9999.000000 -9999.000000 -9999.000000 -9999.000000 -9999.000000 -9999.000000 -9999.000000 -9999.000000 -9999.000000 -9999.000000 -9999.000000 -9999.000000 -9999.000000 -9999.000000 -9999.000000 -9999.000000 -9999.000000 -9999.000000 -9999.000000 -9999.000000 -9999.000000 -9999.000000 -9999.000000 -9999.000000 -9999.000000 -9999.000000 -9999.000000 -9999.000000 -9999.000000 -9999.000000 0.000000 0.000000 0.000000 0.000000 0.000000 
0.000043 0.000117 0.000077 0.000000 0.000782 0.000282 0.004095 0.034647 0.002167 0.000041 0.000087 0.000946 0.001228 0.002028 0.017867 0.018275 0.019978 0.024744 0.077082 0.069753 0.027872 0.001584 -9999.000000 -9999.000000 -9999.000000 -9999.000000 -9999.000000 -9999.000000 -9999.000000 -9999.000000 -9999.000000 -9999.000000 -9999.000000 -9999.000000 -9999.000000 -9999.000000 -9999.000000 -9999.000000 -9999.000000 -9999.000000 -9999.000000 -9999.000000 -9999.000000 -9999.000000 -9999.000000 -9999.000000 -9999.000000 -9999.000000 -9999.000000 -9999.000000 -9999.000000 -9999.000000 -9999.000000 -9999.000000 -9999.000000 -9999.000000 -9999.000000 -9999.000000 -9999.000000 -9999.000000 -9999.000000 -9999.000000 -9999.000000 -9999.000000 -9999.000000 -9999.000000 -9999.000000 -9999.000000 -9999.000000 -9999.000000 -9999.000000 -9999.000000 -9999.000000 0.000000 0.000000 0.000000 0.000000 0.000000 
0.000001 0.000002 0.000290 0.000000 0.000174 0.000547 0.005140 0.000998 0.000015 0.003759 0.000044 0.000270 0.000389 0.008693 0.023894 0.050436 0.037910 0.053424 0.063797 0.036456 0.000446 0.000000 0.000010 0.000000 -9999.000000 -9999.000000 -9999.000000 -9999.000000 -9999.000000 -9999.000000 -9999.000000 -9999.000000 -9999.000000 -9999.000000 -9999.000000 -9999.000000 -9999.000000 -9999.000000 -9999.000000 -9999.000000 -9999.000000 0.000000 -9999.000000 -9999.000000 -9999.000000 -9999.000000 -9999.000000 -9999.000000 -9999.000000 -9999.000000 -9999.000000 -9999.000000 -9999.000000 -9999.000000 -9999.000000 -9999.000000 -9999.000000 -9999.000000 -9999.000000 -9999.000000 -9999.000000 -9999.000000 -9999.000000 -9999.000000 -9999.000000 -9999.000000 -9999.000000 -9999.000000 -9999.000000 -9999.000000 -9999.000000 -9999.000000 -9999.000000 -9999.000000 0.000000 0.000000 0.000000 0.000000 
0.000013 0.000101 0.000017 0.000094 0.000023 0.000000 0.004078 0.000000 0.000000 0.035721 0.000000 0.000535 0.000068 0.006022 0.001450 0.004833 0.042595 0.028456 0.019016 0.013912 0.000759 0.000000 0.000000 0.000000 -9999.000000 -9999.000000 -9999.000000 -9999.000000 -9999.000000 -9999.000000 -9999.000000 -9999.000000 -9999.000000 -9999.000000 -9999.000000 -9999.000000 -9999.000000 -9999.000000 0.000000 0.000000 0.000000 0.000000 0.000000 0.000000 -9999.000000 -9999.000000 -9999.000000 -9999.000000 -9999.000000 -9999.000000 -9999.000000 -9999.000000 -9999.000000 -9999.000000 -9999.000000 -9999.000000 -9999.000000 -9999.000000 -9999.000000 -9999.000000 -9999.000000 -9999.000000 -9999.000000 -9999.000000 -9999.000000 -9999.000000 -9999.000000 -9999.000000 -9999.000000 -9999.000000 -9999.000000 -9999.000000 -9999.000000 -9999.000000 0.000000 0.000000 0.000000 0.000000 
0.011118 0.001255 0.000152 0.000000 0.000000 0.000327 0.000000 0.000000 0.000000 0.000000 0.000000 0.003025 0.032877 0.011334 0.009700 0.014404 0.006977 0.015786 0.007565 0.001481 0.000084 0.000055 0.000000 0.000000 -9999.000000 -9999.000000 -9999.000000 -9999.000000 -9999.000000 -9999.000000 -9999.000000 -9999.000000 -9999.000000 -9999.000000 -9999.000000 -9999.000000 -9999.000000 -9999.000000 0.000818 0.064907 0.140901 0.127736 0.037276 0.004335 0.000000 -9999.000000 -9999.000000 -9999.000000 -9999.000000 -9999.000000 -9999.000000 -9999.000000 -9999.000000 -9999.000000 -9999.000000 -9999.000000 -9999.000000 -9999.000000 -9999.000000 -9999.000000 -9999.000000 -9999.000000 -9999.000000 -9999.000000 -9999.000000 -9999.000000 -9999.000000 -9999.000000 -9999.000000 -9999.000000 -9999.000000 -9999.000000 -9999.000000 -9999.000000 0.000000 0.000000 0.000000 0.000000 
0.001234 0.000142 0.006926 0.005338 0.000000 0.000184 0.000085 0.000000 0.000000 0.000000 0.000000 0.000088 0.000000 0.000000 0.000058 0.000057 0.000047 0.017975 0.009170 0.002052 0.000157 0.000000 0.000000 0.000236 0.000000 0.000004 -9999.000000 -9999.000000 -9999.000000 -9999.000000 -9999.000000 -9999.000000 -9999.000000 -9999.000000 -9999.000000 -9999.000000 0.013693 0.017821 0.060718 0.189157 0.319963 0.229290 0.087054 0.061829 0.046586 0.000748 -9999.000000 -9999.000000 -9999.000000 -9999.000000 -9999.000000 -9999.000000 -9999.000000 -9999.000000 -9999.000000 -9999.000000 -9999.000000 -9999.000000 -9999.000000 -9999.000000 -9999.000000 -9999.000000 -9999.000000 -9999.000000 -9999.000000 -9999.000000 -9999.000000 -9999.000000 -9999.000000 -9999.000000 -9999.000000 -9999.000000 -9999.000000 -9999.000000 0.000000 0.000000 0.000000 0.000000 
0.004511 0.000000 0.012339 0.000490 0.000000 0.000000 0.000000 0.000000 0.000000 0.000000 0.000000 0.000000 0.000000 0.000238 0.000000 0.000547 0.002002 0.000724 0.006315 0.001608 0.000150 0.000000 0.000000 0.000000 0.000000 0.000251 -9999.000000 -9999.000000 -9999.000000 -9999.000000 -9999.000000 -9999.000000 0.000609 0.001169 0.027886 0.032227 0.056650 0.070705 0.032348 0.159903 0.437477 0.241916 0.015229 0.041604 0.199853 0.174808 0.009943 -9999.000000 -9999.000000 -9999.000000 -9999.000000 -9999.000000 -9999.000000 -9999.000000 -9999.000000 -9999.000000 -9999.000000 -9999.000000 -9999.000000 -9999.000000 -9999.000000 -9999.000000 -9999.000000 -9999.000000 -9999.000000 -9999.000000 -9999.000000 -9999.000000 -9999.000000 -9999.000000 -9999.000000 -9999.000000 -9999.000000 -9999.000000 -9999.000000 0.000000 0.000000 0.000000 
0.019240 0.195655 0.033602 0.000000 0.000000 0.000000 0.000000 0.000000 0.000000 0.000000 0.000000 0.000005 0.000000 0.000000 0.000000 0.010902 0.009102 0.003045 0.000000 0.000880 0.000000 0.000000 0.000000 0.000000 0.003686 0.002103 0.000182 -9999.000000 -9999.000000 -9999.000000 0.000000 0.004172 0.018314 0.000000 0.000872 0.247929 0.016744 0.185424 0.050056 0.332012 0.307735 0.242601 0.248932 0.074510 0.553170 0.347742 0.100455 0.001908 -9999.000000 -9999.000000 -9999.000000 -9999.000000 -9999.000000 -9999.000000 -9999.000000 -9999.000000 -9999.000000 -9999.000000 -9999.000000 -9999.000000 -9999.000000 -9999.000000 -9999.000000 -9999.000000 -9999.000000 -9999.000000 -9999.000000 -9999.000000 -9999.000000 -9999.000000 -9999.000000 -9999.000000 -9999.000000 -9999.000000 -9999.000000 0.000000 0.000000 0.000000 
0.009463 0.051887 0.195276 0.000000 0.000000 0.000000 0.000000 0.000000 0.000000 0.000000 0.000000 0.000000 0.000000 0.000968 0.000000 0.034814 0.021042 0.014194 0.000000 0.000000 0.000008 0.000203 0.000000 0.000000 0.000000 0.001019 0.002244 0.000753 0.000078 0.000000 0.001138 0.000000 0.038554 0.090749 0.045940 0.081662 0.063512 0.064515 0.095309 0.066225 0.276378 0.209509 0.298735 0.395467 0.238763 0.106189 0.098323 0.028879 0.000681 -9999.000000 -9999.000000 -9999.000000 -9999.000000 -9999.000000 -9999.000000 -9999.000000 -9999.000000 -9999.000000 -9999.000000 -9999.000000 -9999.000000 -9999.000000 -9999.000000 -9999.000000 -9999.000000 -9999.000000 -9999.000000 -9999.000000 -9999.000000 -9999.000000 -9999.000000 -9999.000000 -9999.000000 -9999.000000 -9999.000000 -9999.000000 0.000000 0.000000 
0.002639 0.000000 0.000000 0.000000 0.000000 0.000000 0.000000 0.000000 0.000000 0.000000 0.000000 0.000000 0.000000 0.000000 0.002105 0.000000 0.000000 0.000498 0.004558 0.000000 0.000000 0.000000 0.000000 0.000000 0.000773 0.003359 0.003682 0.002702 0.000000 0.000000 0.000000 0.000000 0.068959 0.003401 0.002345 0.006919 0.197097 0.049098 0.084783 0.151922 0.083732 0.272287 0.041137 0.189243 0.047214 0.119826 0.040811 0.076919 0.005279 -9999.000000 -9999.000000 -9999.000000 -9999.000000 -9999.000000 -9999.000000 -9999.000000 -9999.000000 -9999.000000 -9999.000000 -9999.000000 -9999.000000 -9999.000000 -9999.000000 -9999.000000 -9999.000000 -9999.000000 -9999.000000 -9999.000000 -9999.000000 -9999.000000 -9999.000000 -9999.000000 -9999.000000 -9999.000000 -9999.000000 -9999.000000 0.000000 0.000000 
0.056840 0.000000 0.000000 0.000000 0.000000 0.000000 0.000000 0.000000 0.000000 0.000000 0.000000 0.000000 0.000000 0.000000 0.000089 0.000000 0.003480 0.000000 0.000010 0.020023 0.000016 0.000000 0.000000 0.005726 0.000857 0.006557 0.000000 0.007482 0.000000 0.000211 0.000000 0.011420 0.002383 0.006242 0.010201 0.003304 0.130648 0.064729 0.012489 0.004644 0.024682 0.012473 0.131320 0.124004 0.165000 0.302190 0.143491 0.269658 0.216959 0.022223 0.000000 -9999.000000 -9999.000000 -9999.000000 -9999.000000 -9999.000000 -9999.000000 -9999.000000 -9999.000000 -9999.000000 -9999.000000 -9999.000000 -9999.000000 -9999.000000 -9999.000000 -9999.000000 -9999.000000 -9999.000000 -9999.000000 -9999.000000 -9999.000000 -9999.000000 -9999.000000 -9999.000000 -9999.000000 -9999.000000 0.000000 0.000000 
0.000000 0.000000 0.000000 0.000000 0.000000 0.000000 0.000000 0.000000 0.000000 0.000000 0.000000 0.000000 0.000000 0.000000 0.000000 0.000000 0.000000 0.001465 0.014986 0.005816 0.054352 0.000000 0.111435 0.000000 0.000000 0.000000 0.000000 0.001281 0.000000 0.000000 0.000000 0.000000 0.000000 0.001319 0.008233 0.011335 0.028246 0.075760 0.008404 0.000000 0.011718 0.009780 0.341189 0.119705 0.086928 0.267494 0.141487 0.619628 0.363687 0.130578 0.000000 0.000000 -9999.000000 -9999.000000 -9999.000000 -9999.000000 -9999.000000 -9999.000000 -9999.000000 -9999.000000 -9999.000000 -9999.000000 -9999.000000 -9999.000000 -9999.000000 -9999.000000 -9999.000000 -9999.000000 -9999.000000 -9999.000000 -9999.000000 -9999.000000 -9999.000000 -9999.000000 -9999.000000 -9999.000000 -9999.000000 0.000000 
0.000000 0.000000 0.000000 0.000000 0.000000 0.000000 0.000000 0.000000 0.000000 0.000000 0.000000 0.000000 0.000000 0.000000 0.000000 0.000000 0.000072 0.000000 0.000438 0.004062 0.008810 0.106071 0.052910 0.003426 0.010263 0.000000 0.000000 0.000000 0.000000 0.000000 0.002113 0.013531 0.006113 0.000918 0.030878 0.003738 0.021331 0.039703 0.000960 0.002997 0.006511 0.044440 0.038848 0.067545 0.670546 0.130927 0.039158 0.357248 0.000000 0.042409 0.030507 0.000000 -9999.000000 -9999.000000 -9999.000000 -9999.000000 -9999.000000 -9999.000000 -9999.000000 -9999.000000 -9999.000000 -9999.000000 -9999.000000 -9999.000000 -9999.000000 -9999.000000 -9999.000000 -9999.000000 -9999.000000 -9999.000000 0.000000 0.000000 -9999.000000 -9999.000000 -9999.000000 -9999.000000 -9999.000000 0.000000 
0.000000 0.000000 0.000000 0.000000 0.000000 0.000000 0.000000 0.000000 0.000000 0.000000 0.000000 0.000000 0.000000 0.000000 0.000000 0.000000 0.000000 0.000022 0.000000 0.000000 0.000135 0.019896 0.000000 0.007045 0.000126 0.000000 0.000000 0.000000 0.000000 0.000000 0.003002 0.000000 0.002502 0.031059 0.020052 0.021235 0.009542 0.000970 0.000000 0.056943 0.071790 0.000935 0.032775 0.010807 0.046502 0.040172 0.057365 0.124150 0.083156 0.091259 0.069478 0.011734 0.000000 -9999.000000 -9999.000000 -9999.000000 -9999.000000 -9999.000000 -9999.000000 -9999.000000 -9999.000000 -9999.000000 -9999.000000 -9999.000000 -9999.000000 -9999.000000 -9999.000000 -9999.000000 -9999.000000 -9999.000000 -9999.000000 0.000000 -9999.000000 -9999.000000 -9999.000000 -9999.000000 -9999.000000 -9999.000000 
0.000000 0.000000 0.000000 0.000000 0.000000 0.000000 0.000000 0.000000 0.000000 0.000000 0.000000 0.000000 0.000000 0.000000 0.000000 0.000000 0.000000 0.000000 0.000000 0.000000 0.027929 0.000002 0.000210 0.000000 0.000000 0.000000 0.000000 0.001820 0.000000 0.000188 0.001329 0.000781 0.010916 0.003390 0.011863 0.006818 0.015890 0.001133 0.000595 0.012494 0.006880 0.018323 0.000000 0.019186 0.006263 0.006571 0.001434 0.142827 0.056419 0.123315 0.075114 0.032312 0.006770 0.000000 0.000000 0.000000 -9999.000000 -9999.000000 -9999.000000 -9999.000000 -9999.000000 -9999.000000 -9999.000000 -9999.000000 -9999.000000 -9999.000000 -9999.000000 -9999.000000 -9999.000000 -9999.000000 -9999.000000 -9999.000000 0.000000 -9999.000000 -9999.000000 -9999.000000 -9999.000000 -9999.000000 
0.000000 0.000000 0.000000 0.000000 0.000000 0.000000 0.000000 0.000000 0.000000 0.000000 0.000000 0.000000 0.000000 0.000000 0.000000 0.000000 0.000000 0.000000 0.000000 0.000000 0.007175 0.005089 0.000468 0.000946 0.000000 0.000000 0.000000 0.000000 0.000000 0.000000 0.002534 0.000000 0.002928 0.026976 0.026974 0.034997 0.033595 0.003445 0.000276 0.019868 0.008447 0.000683 0.003681 0.004143 0.020934 0.039377 0.070888 0.027427 0.005362 0.034871 0.011076 0.021696 0.021886 0.005826 0.000000 0.000000 0.000000 -9999.000000 -9999.000000 -9999.000000 -9999.000000 -9999.000000 -9999.000000 -9999.000000 -9999.000000 -9999.000000 -9999.000000 -9999.000000 -9999.000000 -9999.000000 -9999.000000 -9999.000000 -9999.000000 -9999.000000 -9999.000000 -9999.000000 -9999.000000 -9999.000000 
0.000000 0.000000 0.000000 0.000000 0.000000 0.000000 0.000000 0.000000 0.000000 0.000000 0.000000 0.000000 0.000000 0.000000 0.000000 0.000000 0.000000 0.000000 0.000000 0.000000 0.000649 0.002383 0.000180 0.000000 0.001092 0.000000 0.027414 0.050136 0.006213 0.000000 0.002223 0.000000 0.001521 0.019474 0.008263 0.037097 0.037618 0.021563 0.010777 0.002548 0.000647 0.000911 0.001491 0.001522 0.012382 0.001270 0.002153 0.026281 0.146232 0.107619 0.042959 0.029685 0.027330 0.041431 0.014320 0.000000 0.000000 -9999.000000 -9999.000000 -9999.000000 -9999.000000 -9999.000000 -9999.000000 -9999.000000 -9999.000000 -9999.000000 -9999.000000 -9999.000000 -9999.000000 -9999.000000 -9999.000000 -9999.000000 -9999.000000 -9999.000000 -9999.000000 -9999.000000 -9999.000000 -9999.000000 
0.000000 0.000000 0.000000 0.000000 0.000000 0.000000 0.000000 0.000000 0.000000 0.000000 0.000000 0.000000 0.000000 0.000000 0.000000 0.000000 0.000000 0.000000 0.000000 0.000000 0.000000 0.000000 0.000106 0.000090 0.000000 0.000000 0.030510 0.034965 0.033740 0.000000 0.064828 0.003671 0.003069 0.023379 0.001733 0.001827 0.016952 0.001554 0.002230 0.023546 0.000000 0.017229 0.023854 0.014482 0.000000 0.105890 0.220160 0.025726 0.046228 0.000000 0.004336 0.015733 0.040361 0.070965 0.070130 0.007392 0.000000 0.000000 -9999.000000 -9999.000000 -9999.000000 -9999.000000 -9999.000000 -9999.000000 -9999.000000 -9999.000000 -9999.000000 -9999.000000 -9999.000000 -9999.000000 -9999.000000 -9999.000000 -9999.000000 -9999.000000 -9999.000000 -9999.000000 -9999.000000 -9999.000000 
0.000000 0.000000 0.000000 0.000000 0.000000 0.000000 0.000000 0.000000 0.000000 0.000000 0.000000 0.000000 0.000000 0.000000 0.000000 0.000000 0.000000 0.000000 0.000000 0.000000 0.000000 0.000000 0.000000 0.000000 0.000000 0.000014 0.000705 0.000000 0.006030 0.009387 0.000000 0.021383 0.014308 0.011481 0.002830 0.001879 0.001652 0.000091 0.000336 0.000000 0.025507 0.281633 0.009270 0.003048 0.004231 0.055159 0.133752 0.000616 0.024267 0.159543 0.000000 0.047288 0.077931 0.097187 0.111686 0.041387 0.000000 0.000000 -9999.000000 -9999.000000 -9999.000000 -9999.000000 -9999.000000 -9999.000000 -9999.000000 -9999.000000 -9999.000000 -9999.000000 -9999.000000 -9999.000000 -9999.000000 -9999.000000 -9999.000000 -9999.000000 -9999.000000 -9999.000000 -9999.000000 0.000000 
0.000000 0.000000 0.000000 0.000000 0.000000 0.000000 0.000000 0.000000 0.000000 0.000000 0.000000 0.000000 0.000000 0.000000 0.000000 0.000000 0.000000 0.000000 0.000000 0.000000 0.000000 0.000000 0.000000 0.000000 0.000000 0.000000 0.000496 0.000000 0.000000 0.001264 0.000526 0.001385 0.000920 0.003749 0.000591 0.270727 0.041765 0.021438 0.000000 0.010079 0.043431 0.028317 0.007459 0.066432 0.050177 0.113152 0.041528 0.039636 0.018197 0.012377 0.045763 0.113858 0.226307 0.181773 0.139435 0.061287 0.000000 0.000000 -9999.000000 -9999.000000 -9999.000000 -9999.000000 -9999.000000 -9999.000000 -9999.000000 -9999.000000 -9999.000000 -9999.000000 -9999.000000 -9999.000000 -9999.000000 -9999.000000 -9999.000000 -9999.000000 -9999.000000 -9999.000000 -9999.000000 -9999.000000 
0.000000 0.000000 0.000000 0.000000 0.000000 0.000000 0.000000 0.000000 0.000000 0.000000 0.000000 0.000000 0.000000 0.000000 0.000000 0.000000 0.000000 0.000000 0.000000 0.000000 0.000000 0.000000 0.000000 0.000000 0.000000 0.000019 0.000043 0.000021 0.000000 0.000000 0.000248 0.000000 0.002524 0.002012 0.000000 0.000000 0.021908 0.062550 0.000000 0.049324 0.001487 0.004847 0.001767 0.002223 0.004257 0.010363 0.000107 0.018683 0.000000 0.055425 0.043966 0.125659 0.096019 0.116271 0.133050 0.067266 0.000000 0.000000 -9999.000000 -9999.000000 -9999.000000 -9999.000000 -9999.000000 -9999.000000 -9999.000000 -9999.000000 -9999.000000 -9999.000000 -9999.000000 -9999.000000 -9999.000000 -9999.000000 -9999.000000 -9999.000000 -9999.000000 -9999.000000 -9999.000000 -9999.000000 
0.000000 0.000000 0.000000 0.000000 0.000000 0.000000 0.000000 0.000000 0.000000 0.000000 0.000000 0.000000 0.000000 0.000000 0.000000 0.000000 0.000000 0.000000 0.000000 0.000000 0.000000 0.000000 0.000000 0.000000 0.000000 0.000000 0.000002 0.000001 0.000000 0.000037 0.000000 0.006235 0.013571 0.025070 0.000000 0.002368 0.010913 0.007130 0.017624 0.060753 0.003088 0.001542 0.000445 0.001040 0.149398 0.000000 0.000000 0.000199 0.052660 0.230311 0.120632 0.062321 0.122906 0.123553 0.137282 0.047468 0.000000 0.000000 -9999.000000 -9999.000000 -9999.000000 -9999.000000 -9999.000000 -9999.000000 -9999.000000 -9999.000000 -9999.000000 -9999.000000 -9999.000000 -9999.000000 -9999.000000 -9999.000000 -9999.000000 -9999.000000 -9999.000000 -9999.000000 -9999.000000 -9999.000000 
0.000000 0.000000 0.000000 0.000000 0.000000 0.000000 0.000000 0.000000 0.000000 0.000000 0.000000 0.000000 0.000000 0.000000 0.000000 0.000000 0.000000 0.000000 0.000000 0.000000 0.000000 0.000000 0.000000 0.000000 0.000000 0.000000 0.000000 0.000040 0.000000 0.000000 0.000000 0.026889 0.001737 0.010832 0.021683 0.000000 0.001050 0.003442 0.000000 0.128958 0.013804 0.005506 0.000000 0.002002 0.000271 0.036288 0.020765 0.055162 0.012451 0.001228 0.113141 0.227610 0.181503 0.169108 0.165293 0.055289 0.000000 0.000000 -9999.000000 -9999.000000 -9999.000000 -9999.000000 -9999.000000 -9999.000000 -9999.000000 -9999.000000 -9999.000000 -9999.000000 -9999.000000 -9999.000000 -9999.000000 -9999.000000 -9999.000000 -9999.000000 -9999.000000 -9999.000000 -9999.000000 -9999.000000 
0.000000 0.000000 0.000000 0.000000 0.000000 0.000000 0.000000 0.000000 0.000000 0.000000 0.000000 0.000000 0.000000 0.000000 0.000000 0.000000 0.000000 0.000000 0.000000 0.000000 0.000000 0.000000 0.000000 0.000000 0.000000 0.000000 0.000000 0.000067 0.000000 0.001740 0.000194 0.000000 0.000000 0.000000 0.006148 0.004490 0.000000 0.052434 0.000000 0.161150 0.015893 0.003320 0.001229 0.005467 0.000614 0.008801 0.001375 0.020730 0.061470 0.096728 0.070242 0.217925 0.203975 0.209572 0.204168 0.064313 0.000000 -9999.000000 -9999.000000 -9999.000000 -9999.000000 -9999.000000 -9999.000000 -9999.000000 -9999.000000 -9999.000000 -9999.000000 -9999.000000 -9999.000000 -9999.000000 -9999.000000 -9999.000000 -9999.000000 -9999.000000 -9999.000000 -9999.000000 -9999.000000 -9999.000000 
0.000000 0.000000 0.000000 0.000000 0.000000 0.000000 0.000000 0.000000 0.000000 0.000000 0.000000 0.000000 0.000000 0.000000 0.000000 0.000000 0.000000 0.000000 0.000000 0.000000 0.000000 0.000000 0.000000 0.000000 0.000000 0.000000 0.000000 0.000029 0.000152 0.000000 0.000000 0.000000 0.051012 0.014393 0.006145 0.000000 0.001870 0.000016 0.004537 0.136590 0.193081 0.046750 0.000000 0.000000 0.000000 0.000000 0.038545 0.124875 0.036581 0.015957 0.054370 0.000000 0.120557 0.250005 0.208145 0.064709 0.000000 -9999.000000 -9999.000000 -9999.000000 -9999.000000 -9999.000000 -9999.000000 -9999.000000 -9999.000000 -9999.000000 -9999.000000 -9999.000000 -9999.000000 -9999.000000 -9999.000000 -9999.000000 -9999.000000 -9999.000000 -9999.000000 -9999.000000 -9999.000000 -9999.000000 
0.000000 0.000000 0.000000 0.000000 0.000000 0.000000 0.000000 0.000000 0.000000 0.000000 0.000000 0.000000 0.000000 0.000000 0.000000 0.000000 0.000000 0.000000 0.000000 0.000000 0.000000 0.000000 0.000000 0.000000 0.000000 0.000000 0.000000 0.000000 0.000000 0.000037 0.000005 0.003443 0.000000 0.001892 0.002274 0.001101 0.000750 0.013676 0.016006 0.400142 0.000000 0.039070 0.021306 0.025033 0.076734 0.041993 0.001361 0.001534 0.027324 0.023535 0.032019 0.024310 0.017034 0.075206 0.092558 0.031237 0.000000 -9999.000000 -9999.000000 -9999.000000 -9999.000000 -9999.000000 -9999.000000 -9999.000000 -9999.000000 -9999.000000 -9999.000000 -9999.000000 -9999.000000 -9999.000000 -9999.000000 -9999.000000 -9999.000000 -9999.000000 -9999.000000 -9999.000000 -9999.000000 -9999.000000 
0.000000 0.000000 0.000000 0.000000 0.000000 0.000000 0.000000 0.000000 0.000000 0.000000 0.000000 0.000000 0.000000 0.000000 0.000000 0.000000 0.000000 0.000000 0.000000 0.000000 0.000000 0.000000 0.000000 0.000000 0.000000 0.000000 0.000000 0.000000 0.000000 0.000000 0.000005 0.000000 0.000227 0.000000 0.000000 0.000000 0.000000 0.003893 0.029627 0.000000 0.000000 0.000000 0.180643 0.018780 0.000307 0.009520 0.004917 0.000839 0.001914 0.019207 0.027302 0.021129 0.052112 0.059922 0.059799 0.009007 -9999.000000 -9999.000000 -9999.000000 -9999.000000 -9999.000000 -9999.000000 -9999.000000 -9999.000000 -9999.000000 -9999.000000 -9999.000000 -9999.000000 -9999.000000 -9999.000000 -9999.000000 -9999.000000 -9999.000000 -9999.000000 -9999.000000 -9999.000000 -9999.000000 -9999.000000 
0.000000 0.000000 0.000000 0.000000 0.000000 0.000000 0.000000 0.000000 0.000000 0.000000 0.000000 0.000000 0.000000 0.000000 0.000000 0.000000 0.000000 0.000000 0.000000 0.000000 0.000000 0.000000 0.000000 0.000000 0.000000 0.000000 0.000000 0.000000 0.000000 0.000000 0.000000 0.000000 0.000000 0.002007 0.006671 0.001831 0.000000 0.000000 0.001716 0.000000 0.000000 0.000673 0.000000 0.017928 0.175421 0.004547 0.005637 0.003621 0.012771 0.037416 0.046564 0.085920 0.045132 0.075245 0.046550 0.038453 -9999.000000 -9999.000000 -9999.000000 -9999.000000 -9999.000000 -9999.000000 -9999.000000 -9999.000000 -9999.000000 -9999.000000 -9999.000000 -9999.000000 -9999.000000 -9999.000000 -9999.000000 -9999.000000 -9999.000000 -9999.000000 -9999.000000 -9999.000000 -9999.000000 -9999.000000 
0.000000 0.000000 0.000000 0.000000 0.000000 0.000000 0.000000 0.000000 0.000000 0.000000 0.000000 0.000000 0.000000 0.000000 0.000000 0.000000 0.000000 0.000000 0.000000 0.000000 0.000000 0.000000 0.000000 0.000000 0.000000 0.000000 0.000000 0.000000 0.000000 0.000000 0.000000 0.000000 0.000000 0.000811 0.000000 0.000812 0.000708 0.000505 0.000552 0.011886 0.019939 0.000023 0.015675 0.050517 0.024527 0.029303 0.000028 0.000000 0.003814 0.013210 0.029972 0.028582 0.144829 0.198967 0.281208 0.112182 -9999.000000 -9999.000000 0.000000 0.000000 -9999.000000 -9999.000000 -9999.000000 -9999.000000 -9999.000000 -9999.000000 -9999.000000 -9999.000000 -9999.000000 -9999.000000 -9999.000000 -9999.000000 -9999.000000 -9999.000000 -9999.000000 -9999.000000 -9999.000000 -9999.000000 
0.000000 0.000000 0.000000 0.000000 0.000000 0.000000 0.000000 0.000000 0.000000 0.000000 0.000000 0.000000 0.000000 0.000000 0.000000 0.000000 0.000000 0.000000 0.000000 0.000000 0.000000 0.000000 0.000000 0.000000 0.000000 0.000000 0.000000 0.000000 0.000000 0.000000 0.000000 0.000000 0.000000 0.000142 0.000492 0.000158 0.001558 0.000000 0.000000 0.035656 0.067570 0.000412 0.008395 0.016868 0.032774 0.047060 0.000680 0.000000 0.000000 0.000000 0.000151 0.150868 0.507820 0.269525 0.115175 0.070090 -9999.000000 -9999.000000 0.000000 0.000000 0.000000 -9999.000000 -9999.000000 -9999.000000 -9999.000000 -9999.000000 -9999.000000 -9999.000000 -9999.000000 -9999.000000 -9999.000000 -9999.000000 -9999.000000 -9999.000000 -9999.000000 -9999.000000 -9999.000000 -9999.000000 
0.000000 0.000000 0.000000 0.000000 0.000000 0.000000 0.000000 0.000000 0.000000 0.000000 0.000000 0.000000 0.000000 0.000000 0.000000 0.000000 0.000000 0.000000 0.000000 0.000000 0.000000 0.000000 0.000000 0.000000 0.000000 0.000000 0.000000 0.000000 0.000000 0.000000 0.000000 0.000000 0.000000 0.000099 0.001313 0.001941 0.000000 0.000060 0.000000 0.036151 0.147958 0.048090 0.009746 0.000000 0.033618 0.016443 0.003037 0.009584 0.002192 0.004147 0.036993 0.078504 0.292960 0.159038 0.036788 0.063767 0.023610 -9999.000000 -9999.000000 0.000000 0.000000 -9999.000000 -9999.000000 -9999.000000 -9999.000000 -9999.000000 -9999.000000 -9999.000000 -9999.000000 -9999.000000 -9999.000000 -9999.000000 -9999.000000 -9999.000000 -9999.000000 -9999.000000 -9999.000000 -9999.000000 
0.000000 0.000000 0.000000 0.000000 0.000000 0.000000 0.000000 0.000000 0.000000 0.000000 0.000000 0.000000 0.000000 0.000000 0.000000 0.000000 0.000000 0.000000 0.000000 0.000000 0.000000 0.000000 0.000000 0.000000 0.000000 0.000000 0.000000 0.000000 0.000000 0.000000 0.000000 0.000000 0.000000 0.000040 0.000572 0.000507 0.000362 0.000000 0.005024 0.122854 0.068063 0.010504 0.001254 0.000000 0.000224 0.000468 0.001991 0.097783 0.002108 0.005313 0.000801 0.087997 0.161898 0.184818 0.062580 0.044822 0.047274 0.008606 0.000560 0.000000 -9999.000000 -9999.000000 -9999.000000 -9999.000000 -9999.000000 -9999.000000 -9999.000000 -9999.000000 -9999.000000 -9999.000000 -9999.000000 -9999.000000 -9999.000000 -9999.000000 -9999.000000 -9999.000000 -9999.000000 -9999.000000 
0.000000 0.000000 0.000000 0.000000 0.000000 0.000000 0.000000 0.000000 0.000000 0.000000 0.000000 0.000000 0.000000 0.000000 0.000000 0.000000 0.000000 0.000000 0.000000 0.000000 0.000000 0.000000 0.000000 0.000000 0.000000 0.000000 0.000000 0.000000 0.000000 0.000000 0.000000 0.000000 0.000000 0.000086 0.000200 0.001182 0.000089 0.000000 0.001185 0.030014 0.000000 0.000000 0.000004 0.005733 0.001612 0.000000 0.011342 0.000000 0.004123 0.000000 0.008834 0.104721 0.058681 0.097577 0.075360 0.106625 0.062604 0.025697 0.000000 0.000000 -9999.000000 -9999.000000 -9999.000000 -9999.000000 -9999.000000 -9999.000000 -9999.000000 -9999.000000 -9999.000000 -9999.000000 -9999.000000 -9999.000000 -9999.000000 -9999.000000 -9999.000000 -9999.000000 -9999.000000 -9999.000000 
0.000000 0.000000 0.000000 0.000000 0.000000 0.000000 0.000000 0.000000 0.000000 0.000000 0.000000 0.000000 0.000000 0.000000 0.000000 0.000000 0.000000 0.000000 0.000000 0.000000 0.000000 0.000000 0.000000 0.000000 0.000000 0.000000 0.000000 0.000000 0.000000 0.000000 0.000000 0.000000 0.000000 0.000000 0.000063 0.000013 0.000000 0.000000 0.000031 0.013774 0.002063 0.000324 0.000069 0.022677 0.003293 0.006305 0.016988 0.009332 0.002765 0.002545 0.007659 0.000000 0.021512 0.105335 0.108676 0.037306 0.000000 0.021661 0.001379 -9999.000000 -9999.000000 -9999.000000 -9999.000000 -9999.000000 -9999.000000 -9999.000000 -9999.000000 -9999.000000 -9999.000000 -9999.000000 -9999.000000 -9999.000000 -9999.000000 -9999.000000 -9999.000000 -9999.000000 -9999.000000 -9999.000000 
0.000000 0.000000 0.000000 0.000000 0.000000 0.000000 0.000000 0.000000 0.000000 0.000000 0.000000 0.000000 0.000000 0.000000 0.000000 0.000000 0.000000 0.000000 0.000000 0.000000 0.000000 0.000000 0.000000 0.000000 0.000000 0.000000 0.000000 0.000000 0.000000 0.000000 0.000000 0.000000 0.000000 0.000000 0.000000 0.000621 0.000245 0.000167 0.000000 0.039049 0.000000 0.040676 0.030898 0.000759 0.003822 0.000632 0.000000 0.000000 0.005762 0.011045 0.002750 0.021738 0.075390 0.055320 0.138290 0.129924 0.078491 0.106931 -9999.000000 -9999.000000 -9999.000000 -9999.000000 -9999.000000 -9999.000000 -9999.000000 -9999.000000 -9999.000000 -9999.000000 -9999.000000 -9999.000000 -9999.000000 -9999.000000 -9999.000000 -9999.000000 -9999.000000 -9999.000000 -9999.000000 -9999.000000 
0.000000 0.000000 0.000000 0.000000 0.000000 0.000000 0.000000 0.000000 0.000000 0.000000 0.000000 0.000000 0.000000 0.000000 0.000000 0.000000 0.000000 0.000000 0.000000 0.000000 0.000000 0.000000 0.000000 0.000000 0.000000 0.000000 0.000000 0.000000 0.000000 0.000000 0.000000 0.000000 0.000000 0.000000 0.000000 0.001357 0.002006 0.002310 0.000000 0.000203 0.005746 0.009421 0.000852 0.001541 0.004002 0.005290 0.005724 0.001186 0.000613 0.000380 0.000424 0.000000 0.021329 0.052397 0.083269 0.094432 0.163115 0.354893 0.116861 -9999.000000 -9999.000000 -9999.000000 -9999.000000 -9999.000000 -9999.000000 -9999.000000 -9999.000000 -9999.000000 -9999.000000 -9999.000000 -9999.000000 -9999.000000 -9999.000000 -9999.000000 -9999.000000 -9999.000000 -9999.000000 -9999.000000 
0.000000 0.000000 0.000000 0.000000 0.000000 0.000000 0.000000 0.000000 0.000000 0.000000 0.000000 0.000000 0.000000 0.000000 0.000000 0.000000 0.000000 0.000000 0.000000 0.000000 0.000000 0.000000 0.000000 0.000000 0.000000 0.000000 0.000000 0.000000 0.000000 0.000000 0.000000 0.000000 0.000000 0.000000 0.000042 0.000000 0.000500 0.003473 0.000000 0.000000 0.003499 0.000000 0.002131 0.000136 0.000000 0.000969 0.005715 0.031114 0.044735 0.025478 0.006460 0.002297 0.000000 0.001294 0.000000 0.031258 0.006757 0.007107 0.069058 0.010593 -9999.000000 -9999.000000 -9999.000000 -9999.000000 -9999.000000 -9999.000000 -9999.000000 -9999.000000 -9999.000000 -9999.000000 -9999.000000 -9999.000000 -9999.000000 -9999.000000 -9999.000000 -9999.000000 -9999.000000 -9999.000000 
0.000000 0.000000 0.000000 0.000000 0.000000 0.000000 0.000000 0.000000 0.000000 0.000000 0.000000 0.000000 0.000000 0.000000 0.000000 0.000000 0.000000 0.000000 0.000000 0.000000 0.000000 0.000000 0.000000 0.000000 0.000000 0.000000 0.000000 0.000000 0.000000 0.000000 0.000000 0.000000 0.000000 0.000000 0.000069 0.000323 0.000468 0.000000 0.000238 0.000000 0.003834 0.012768 0.001603 0.001748 0.002412 0.022089 0.020339 0.043386 0.015138 0.009019 0.034015 0.004925 0.002538 0.001111 0.002681 0.029311 0.024747 0.040048 0.126756 0.038742 -9999.000000 -9999.000000 -9999.000000 -9999.000000 -9999.000000 -9999.000000 -9999.000000 -9999.000000 -9999.000000 -9999.000000 -9999.000000 -9999.000000 -9999.000000 -9999.000000 -9999.000000 -9999.000000 -9999.000000 -9999.000000 
0.000000 0.000000 0.000000 0.000000 0.000000 0.000000 0.000000 0.000000 0.000000 0.000000 0.000000 0.000000 0.000000 0.000000 0.000000 0.000000 0.000000 0.000000 0.000000 0.000000 0.000000 0.000000 0.000000 0.000000 0.000000 0.000000 0.000000 0.000000 0.000000 0.000000 0.000000 0.000000 0.000000 0.000000 0.000192 0.000611 0.000000 0.001139 0.000000 0.000352 0.000600 0.000085 0.001309 0.054356 0.003806 0.005406 0.004137 0.026011 0.008583 0.004776 0.000000 0.005996 0.008066 0.001572 0.000000 0.000000 0.021403 0.194380 0.000720 0.000000 -9999.000000 -9999.000000 -9999.000000 -9999.000000 -9999.000000 -9999.000000 -9999.000000 -9999.000000 -9999.000000 -9999.000000 -9999.000000 -9999.000000 -9999.000000 -9999.000000 -9999.000000 -9999.000000 -9999.000000 -9999.000000 
0.000000 0.000000 0.000000 0.000000 0.000000 0.000000 0.000000 0.000000 0.000000 0.000000 0.000000 0.000000 0.000000 0.000000 0.000000 0.000000 0.000000 0.000000 0.000000 0.000000 0.000000 0.000000 0.000000 0.000000 0.000000 0.000000 0.000000 0.000000 0.000000 0.000000 0.000000 0.000000 0.000000 0.000000 0.000000 0.000115 0.000000 0.000000 0.000000 0.000014 0.000044 0.000110 0.002205 0.008100 0.001068 0.001101 0.014314 0.003894 0.014627 0.100837 0.016792 0.014831 0.029500 0.000000 0.000081 0.000000 0.000000 0.001319 0.018101 0.000000 0.001116 -9999.000000 -9999.000000 -9999.000000 -9999.000000 -9999.000000 -9999.000000 -9999.000000 -9999.000000 -9999.000000 -9999.000000 -9999.000000 -9999.000000 -9999.000000 -9999.000000 -9999.000000 -9999.000000 -9999.000000 
0.000000 0.000000 0.000000 0.000000 0.000000 0.000000 0.000000 0.000000 0.000000 0.000000 0.000000 0.000000 0.000000 0.000000 0.000000 0.000000 0.000000 0.000000 0.000000 0.000000 0.000000 0.000000 0.000000 0.000000 0.000000 0.000000 0.000000 0.000000 0.000000 0.000000 0.000000 0.000000 0.000000 0.000000 0.000000 0.000004 0.000000 0.000000 0.000000 0.000000 0.000000 0.000000 0.000000 0.012948 0.000145 0.046005 0.001854 0.006278 0.000637 0.005512 0.023161 0.005347 0.002408 0.000613 0.005319 0.000000 0.000149 0.008548 0.018622 0.013044 0.003104 -9999.000000 -9999.000000 -9999.000000 -9999.000000 -9999.000000 -9999.000000 -9999.000000 -9999.000000 -9999.000000 -9999.000000 -9999.000000 -9999.000000 -9999.000000 -9999.000000 -9999.000000 -9999.000000 -9999.000000 
0.000000 0.000000 0.000000 0.000000 0.000000 0.000000 0.000000 0.000000 0.000000 0.000000 0.000000 0.000000 0.000000 0.000000 0.000000 0.000000 0.000000 0.000000 0.000000 0.000000 0.000000 0.000000 0.000000 0.000000 0.000000 0.000000 0.000000 0.000000 0.000000 0.000000 0.000000 0.000000 0.000000 0.000000 0.000000 0.000020 0.000059 0.000000 0.000000 0.000000 0.000008 0.000000 0.000450 0.000000 0.001461 0.000673 0.000000 0.010226 0.003156 0.003394 0.013752 0.001339 0.006616 0.001030 0.005349 0.000779 0.003647 0.006894 0.007236 0.078499 0.041721 0.018075 -9999.000000 -9999.000000 0.000000 -9999.000000 -9999.000000 -9999.000000 -9999.000000 -9999.000000 -9999.000000 -9999.000000 -9999.000000 -9999.000000 -9999.000000 -9999.000000 -9999.000000 -9999.000000 
0.000000 0.000000 0.000000 0.000000 0.000000 0.000000 0.000000 0.000000 0.000000 0.000000 0.000000 0.000000 0.000000 0.000000 0.000000 0.000000 0.000000 0.000000 0.000000 0.000000 0.000000 0.000000 0.000000 0.000000 0.000000 0.000000 0.000000 0.000000 0.000000 0.000000 0.000000 0.000000 0.000000 0.000000 0.000000 0.000004 0.000000 0.000008 0.000000 0.000000 0.000005 0.000000 0.000258 0.002461 0.000747 0.001802 0.000000 0.000404 0.000360 0.000223 0.009320 0.009574 0.005890 0.011071 0.006518 0.020011 0.000749 0.003090 0.000000 0.014559 0.071277 0.022950 0.014971 0.001293 0.000000 -9999.000000 -9999.000000 -9999.000000 -9999.000000 -9999.000000 -9999.000000 -9999.000000 -9999.000000 -9999.000000 -9999.000000 -9999.000000 -9999.000000 -9999.000000 
0.000000 0.000000 0.000000 0.000000 0.000000 0.000000 0.000000 0.000000 0.000000 0.000000 0.000000 0.000000 0.000000 0.000000 0.000000 0.000000 0.000000 0.000000 0.000000 0.000000 0.000000 0.000000 0.000000 0.000000 0.000000 0.000000 0.000000 0.000000 0.000000 0.000000 0.000000 0.000000 0.000000 0.000000 0.000000 0.000017 0.000302 0.000662 0.000244 0.000020 0.000000 0.000000 0.000000 0.000000 0.000941 0.000946 0.000000 0.000000 0.004711 0.009265 0.004929 0.006779 0.009060 0.004878 0.006214 0.015582 0.016285 0.004659 0.000088 0.022314 0.114164 0.000000 0.008905 0.001642 0.000000 -9999.000000 -9999.000000 -9999.000000 -9999.000000 -9999.000000 -9999.000000 -9999.000000 -9999.000000 -9999.000000 -9999.000000 -9999.000000 -9999.000000 -9999.000000 
0.000000 0.000000 0.000000 0.000000 0.000000 0.000000 0.000000 0.000000 0.000000 0.000000 0.000000 0.000000 0.000000 0.000000 0.000000 0.000000 0.000000 0.000000 0.000000 0.000000 0.000000 0.000000 0.000000 0.000000 0.000000 0.000000 0.000000 0.000000 0.000000 0.000000 0.000000 0.000000 0.000000 0.000000 0.000000 0.000000 0.000153 0.000262 0.000076 0.000000 0.000002 0.000000 0.000000 0.000000 0.000000 0.000761 0.000000 0.000000 0.000000 0.000000 0.000000 0.002048 0.004036 0.005172 0.013950 0.000383 0.005858 0.178274 0.009561 0.009612 0.039447 0.000000 0.004449 0.000235 -9999.000000 -9999.000000 -9999.000000 -9999.000000 -9999.000000 -9999.000000 -9999.000000 -9999.000000 -9999.000000 -9999.000000 -9999.000000 -9999.000000 -9999.000000 -9999.000000 
0.000000 0.000000 0.000000 0.000000 0.000000 0.000000 0.000000 0.000000 0.000000 0.000000 0.000000 0.000000 0.000000 0.000000 0.000000 0.000000 0.000000 0.000000 0.000000 0.000000 0.000000 0.000000 0.000000 0.000000 0.000000 0.000000 0.000000 0.000000 0.000000 0.000000 0.000000 0.000000 0.000000 0.000000 0.000000 0.000000 0.000024 0.000131 0.000080 0.000052 0.000011 0.000005 0.000000 0.000000 0.002351 0.002866 0.000000 0.000000 0.000000 0.000000 0.000000 0.108220 0.020522 0.061874 0.000000 0.001998 0.000559 0.002336 0.020969 0.017104 0.020714 0.000000 0.001935 0.004753 -9999.000000 -9999.000000 -9999.000000 -9999.000000 -9999.000000 -9999.000000 -9999.000000 -9999.000000 -9999.000000 -9999.000000 -9999.000000 -9999.000000 -9999.000000 -9999.000000 
0.000000 0.000000 0.000000 0.000000 0.000000 0.000000 0.000000 0.000000 0.000000 0.000000 0.000000 0.000000 0.000000 0.000000 0.000000 0.000000 0.000000 0.000000 0.000000 0.000000 0.000000 0.000000 0.000000 0.000000 0.000000 0.000000 0.000000 0.000000 0.000000 0.000000 0.000000 0.000000 0.000000 0.000000 0.000000 0.000000 0.000000 0.000016 0.000057 0.000018 0.000005 0.000028 0.000053 0.000213 0.021387 0.006477 0.000000 0.000000 0.000000 0.000000 0.000000 0.103555 0.021597 0.019191 0.043130 0.000163 0.012533 0.011223 0.002825 0.017752 0.017429 0.016555 0.052450 0.031425 0.001968 0.000000 0.000000 0.000000 -9999.000000 -9999.000000 -9999.000000 -9999.000000 -9999.000000 -9999.000000 -9999.000000 -9999.000000 -9999.000000 -9999.000000 
0.000000 0.000000 0.000000 0.000000 0.000000 0.000000 0.000000 0.000000 0.000000 0.000000 0.000000 0.000000 0.000000 0.000000 0.000000 0.000000 0.000000 0.000000 0.000000 0.000000 0.000000 0.000000 0.000000 0.000000 0.000000 0.000000 0.000000 0.000000 0.000000 0.000000 0.000000 0.000000 0.000000 0.000000 0.000000 0.000000 0.000000 0.000001 0.000002 0.000000 0.000000 0.000000 0.000000 0.000000 0.005653 0.000700 0.000191 0.000000 0.000000 0.000000 0.000000 0.015951 0.022288 0.010971 0.000941 0.002605 0.095738 0.000631 0.000000 0.022460 0.042278 0.133688 0.033961 0.016868 0.000000 0.001538 0.000023 0.000000 -9999.000000 -9999.000000 -9999.000000 -9999.000000 -9999.000000 -9999.000000 -9999.000000 -9999.000000 -9999.000000 -9999.000000 
0.000000 0.000000 0.000000 0.000000 0.000000 0.000000 0.000000 0.000000 0.000000 0.000000 0.000000 0.000000 0.000000 0.000000 0.000000 0.000000 0.000000 0.000000 0.000000 0.000000 0.000000 0.000000 0.000000 0.000000 0.000000 0.000000 0.000000 0.000000 0.000000 0.000000 0.000000 0.000000 0.000000 0.000000 0.000000 0.000000 0.000000 0.000000 0.000000 0.000000 0.000000 0.000007 0.000049 0.000000 0.001249 0.003938 0.000000 0.000000 0.000000 0.000000 0.000000 0.001769 0.005035 0.008279 0.003456 0.001426 0.107940 0.000000 0.002678 0.009441 0.044524 0.045190 0.003996 0.004057 0.000332 0.000000 0.006953 0.000000 -9999.000000 -9999.000000 -9999.000000 -9999.000000 -9999.000000 -9999.000000 -9999.000000 -9999.000000 -9999.000000 -9999.000000 
0.000000 0.000000 0.000000 0.000000 0.000000 0.000000 0.000000 0.000000 0.000000 0.000000 0.000000 0.000000 0.000000 0.000000 0.000000 0.000000 0.000000 0.000000 0.000000 0.000000 0.000000 0.000000 0.000000 0.000000 0.000000 0.000000 0.000000 0.000000 0.000000 0.000000 0.000000 0.000000 0.000000 0.000000 0.000000 0.000000 0.000000 0.000000 0.000000 0.000000 0.000000 0.000000 0.000118 0.000000 0.007737 0.003739 0.000000 0.000000 0.000000 0.000131 0.000009 0.003590 0.001441 0.000000 0.000000 0.000971 0.000277 0.000109 0.000397 0.000000 0.001524 0.005898 0.004039 0.005731 0.002575 0.071399 0.000000 0.002108 -9999.000000 -9999.000000 -9999.000000 -9999.000000 -9999.000000 -9999.000000 -9999.000000 -9999.000000 -9999.000000 -9999.000000 
0.000000 0.000000 0.000000 0.000000 0.000000 0.000000 0.000000 0.000000 0.000000 0.000000 0.000000 0.000000 0.000000 0.000000 0.000000 0.000000 0.000000 0.000000 0.000000 0.000000 0.000000 0.000000 0.000000 0.000000 0.000000 0.000000 0.000000 0.000000 0.000000 0.000000 0.000000 0.000000 0.000000 0.000000 0.000000 0.000000 0.000000 0.000000 0.000463 0.001697 0.000905 0.000105 0.000046 0.000000 0.000000 0.000136 0.000000 0.000039 0.000034 0.000574 0.001040 0.001994 0.002912 0.008539 0.003086 0.004770 0.000291 0.000000 0.021893 0.005531 0.000000 0.000313 0.000000 0.003891 0.000000 0.000000 0.006803 0.002580 -9999.000000 -9999.000000 -9999.000000 -9999.000000 -9999.000000 -9999.000000 -9999.000000 -9999.000000 -9999.000000 -9999.000000 
0.000000 0.000000 0.000000 0.000000 0.000000 0.000000 0.000000 0.000000 0.000000 0.000000 0.000000 0.000000 0.000000 0.000000 0.000000 0.000000 0.000000 0.000000 0.000000 0.000000 0.000000 0.000000 0.000000 0.000000 0.000000 0.000000 0.000000 0.000000 0.000000 0.000000 0.000000 0.000000 0.000000 0.000000 0.000000 0.000000 0.000000 0.000000 0.001701 0.004108 0.002707 0.001968 0.000000 0.000000 0.000145 0.024388 0.000000 0.000000 0.000000 0.000000 0.001567 0.036083 0.028239 0.001396 0.016586 0.000917 0.000074 0.000000 0.000000 0.000000 0.000000 0.000000 0.000000 0.000000 0.000000 0.000012 0.001616 0.001817 0.000167 -9999.000000 -9999.000000 -9999.000000 -9999.000000 -9999.000000 -9999.000000 -9999.000000 -9999.000000 -9999.000000 
0.000000 0.000000 0.000000 0.000000 0.000000 0.000000 0.000000 0.000000 0.000000 0.000000 0.000000 0.000000 0.000000 0.000000 0.000000 0.000000 0.000000 0.000000 0.000000 0.000000 0.000000 0.000000 0.000000 0.000000 0.000000 0.000000 0.000000 0.000000 0.000000 0.000000 0.000000 0.000000 0.000000 0.000000 0.000000 0.000000 0.000000 0.000000 0.001580 0.002995 0.002889 0.004506 0.006229 0.004424 0.023846 0.067227 0.000416 0.000283 0.000000 0.000573 0.003429 0.000000 0.000000 0.000000 0.000054 0.000793 0.000543 0.000209 0.000574 0.000470 0.000000 0.000000 0.001254 0.000520 0.000576 0.001398 0.000914 0.000327 0.000092 0.000000 -9999.000000 -9999.000000 -9999.000000 -9999.000000 -9999.000000 -9999.000000 -9999.000000 -9999.000000 
0.000000 0.000000 0.000000 0.000000 0.000000 0.000000 0.000000 0.000000 0.000000 0.000000 0.000000 0.000000 0.000000 0.000000 0.000000 0.000000 0.000000 0.000000 0.000000 0.000000 0.000000 0.000000 0.000000 0.000000 0.000000 0.000000 0.000000 0.000000 0.000000 0.000000 0.000000 0.000000 0.000000 0.000000 0.000000 0.000000 0.000000 0.000000 0.003725 0.002855 0.000270 0.001849 0.003983 0.002684 0.000000 0.000000 0.000000 0.000263 0.000080 0.000000 0.000040 0.000520 0.000000 0.000090 0.000160 0.000226 0.000126 0.000000 0.003284 0.002036 0.001233 0.000260 0.000312 0.000000 0.000136 0.000000 0.000000 0.000000 0.000017 0.000000 0.000000 0.000000 -9999.000000 -9999.000000 -9999.000000 -9999.000000 -9999.000000 -9999.000000 
0.000000 0.000000 0.000000 0.000000 0.000000 0.000000 0.000000 0.000000 0.000000 0.000000 0.000000 0.000000 0.000000 0.000000 0.000000 0.000000 0.000000 0.000000 0.000000 0.000000 0.000000 0.000000 0.000000 0.000000 0.000000 0.000000 0.000000 0.000000 0.000000 0.000000 0.000000 0.000000 0.000000 0.000000 0.000000 0.000000 0.000000 0.001640 0.004848 0.000834 0.000206 0.000787 0.000513 0.000179 0.000000 0.000984 0.000000 0.000861 0.000000 0.000019 0.000000 0.000000 0.000000 0.000397 0.000000 0.000000 0.000915 0.000000 0.011958 0.006494 0.002362 0.000096 0.000000 0.000022 0.000048 0.000028 0.000000 0.000021 0.000057 0.000000 0.000000 0.000000 0.000000 0.000000 -9999.000000 -9999.000000 -9999.000000 -9999.000000 
0.000000 0.000000 0.000000 0.000000 0.000000 0.000000 0.000000 0.000000 0.000000 0.000000 0.000000 0.000000 0.000000 0.000000 0.000000 0.000000 0.000000 0.000000 0.000000 0.000000 0.000000 0.000000 0.000000 0.000000 0.000000 0.000000 0.000000 0.000000 0.000000 0.000000 0.000000 0.000000 0.000000 0.000000 0.000000 0.000000 0.000000 0.000646 0.000702 0.001736 0.000787 0.001468 0.000000 0.000000 0.000015 0.000000 0.000724 0.000019 0.000000 0.000000 0.000000 0.000004 0.000000 0.000000 0.000000 0.005254 0.000464 0.000846 0.000531 0.001435 0.000545 0.000185 0.000035 0.000000 0.000000 0.000146 0.000000 0.000202 0.000565 0.000717 0.000443 0.000000 0.000000 0.000000 0.000000 -9999.000000 -9999.000000 -9999.000000 
0.000000 0.000000 0.000000 0.000000 0.000000 0.000000 0.000000 0.000000 0.000000 0.000000 0.000000 0.000000 0.000000 0.000000 0.000000 0.000000 0.000000 0.000000 0.000000 0.000000 0.000000 0.000000 0.000000 0.000000 0.000000 0.000000 0.000000 0.000000 0.000000 0.000000 0.000000 0.000000 0.000000 0.000000 0.000000 0.000000 0.000000 0.000115 0.001128 0.003226 0.006871 0.004689 0.000052 0.000000 0.000000 0.000351 0.000000 0.000190 0.000029 0.000000 0.000002 0.000000 0.000083 0.000348 0.000821 0.000000 0.000200 0.000512 0.000881 0.000000 0.000130 0.000216 0.000213 0.000083 0.000000 0.000000 0.000000 0.001055 0.001818 0.002096 0.001970 0.000401 0.000000 0.000000 0.000000 -9999.000000 -9999.000000 -9999.000000 
0.000000 0.000000 0.000000 0.000000 0.000000 0.000000 0.000000 0.000000 0.000000 0.000000 0.000000 0.000000 0.000000 0.000000 0.000000 0.000000 0.000000 0.000000 0.000000 0.000000 0.000000 0.000000 0.000000 0.000000 0.000000 0.000000 0.000000 0.000000 0.000000 0.000000 0.000000 0.000000 0.000000 0.000000 0.000000 0.000000 0.000000 0.000000 0.000435 0.000000 0.005796 0.000000 0.000000 0.000189 0.000570 0.001556 0.000803 0.000331 0.000169 0.000012 0.000009 0.000081 0.000145 0.000396 0.000000 0.000413 0.000107 0.000055 0.000000 0.004335 0.001311 0.000792 0.000326 0.000000 0.000000 0.005076 0.000000 0.002888 0.002417 0.002286 0.001903 0.001453 0.000296 0.000000 0.000000 0.000000 0.000000 -9999.000000 
0.000000 0.000000 0.000000 0.000000 0.000000 0.000000 0.000000 0.000000 0.000000 0.000000 0.000000 0.000000 0.000000 0.000000 0.000000 0.000000 0.000000 0.000000 0.000000 0.000000 0.000000 0.000000 0.000000 0.000000 0.000000 0.000000 0.000000 0.000000 0.000000 0.000000 0.000000 0.000000 0.000000 0.000000 0.000000 0.000000 0.000000 0.000000 0.006886 0.079606 0.177990 0.043121 0.000061 0.000726 0.000000 0.000000 0.000000 0.000613 0.000000 0.000000 0.000005 0.000000 0.000251 0.001348 0.000438 0.003339 0.001392 0.000223 0.000431 0.000974 0.000000 0.000000 0.000080 0.000296 0.001161 0.000000 0.000000 0.001550 0.001849 0.002301 0.000817 0.000678 0.000816 0.000000 0.000000 0.000000 -9999.000000 -9999.000000 
0.000000 0.000000 0.000000 0.000000 0.000000 0.000000 0.000000 0.000000 0.000000 0.000000 0.000000 0.000000 0.000000 0.000000 0.000000 0.000000 0.000000 0.000000 0.000000 0.000000 0.000000 0.000000 0.000000 0.000000 0.000000 0.000000 0.000000 0.000000 0.000000 0.000000 0.000000 0.000000 0.000000 0.000000 0.000000 0.000000 0.000000 0.000000 0.000000 0.021984 0.000000 0.000000 0.000000 0.000330 0.002628 0.010150 0.009817 0.000000 0.000189 0.000000 0.000000 0.000000 0.000000 0.006659 0.000701 0.003946 0.000123 0.000317 0.000000 0.000095 0.000000 0.000014 0.000050 0.000000 0.002954 0.003552 0.000000 0.000622 0.009950 0.001495 0.000000 0.000270 0.000677 0.000112 0.000000 0.000000 0.000000 -9999.000000 
0.000000 0.000000 0.000000 0.000000 0.000000 0.000000 0.000000 0.000000 0.000000 0.000000 0.000000 0.000000 0.000000 0.000000 0.000000 0.000000 0.000000 0.000000 0.000000 0.000000 0.000000 0.000000 0.000000 0.000000 0.000000 0.000000 0.000000 0.000000 0.000000 0.000000 0.000000 0.000000 0.000000 0.000000 0.000000 0.000000 0.000000 0.000000 0.000000 0.000001 0.005657 0.000019 0.000000 0.000945 0.000000 0.000580 0.000063 0.000000 0.000002 0.000000 0.000000 0.000000 0.000000 0.000754 0.000285 0.000403 0.000000 0.000000 0.000000 0.000000 0.000005 0.000000 0.000000 0.000432 0.000000 0.020813 0.000000 0.001597 0.006244 0.003029 0.000984 0.000972 0.000779 0.000103 0.000000 0.000000 -9999.000000 0.000000 
0.000000 0.000000 0.000000 0.000000 0.000000 0.000000 0.000000 0.000000 0.000000 0.000000 0.000000 0.000000 0.000000 0.000000 0.000000 0.000000 0.000000 0.000000 0.000000 0.000000 0.000000 0.000000 0.000000 0.000000 0.000000 0.000000 0.000000 0.000000 0.000000 0.000000 0.000000 0.000000 0.000000 0.000000 0.000000 0.000000 0.000000 0.000000 0.000000 0.000010 0.000004 0.000000 0.000000 0.000185 0.000000 0.041438 0.010391 0.000000 0.000001 0.000000 0.000000 0.000000 0.000343 0.000252 0.000000 0.000097 0.000000 0.000000 0.000000 0.000000 0.000000 0.000001 0.000000 0.000000 0.010277 0.000000 0.000000 0.001801 0.011438 0.004322 0.002543 0.002404 0.002250 0.000083 0.000000 0.000000 -9999.000000 -9999.000000 
0.000000 0.000000 0.000000 0.000000 0.000000 0.000000 0.000000 0.000000 0.000000 0.000000 0.000000 0.000000 0.000000 0.000000 0.000000 0.000000 0.000000 0.000000 0.000000 0.000000 0.000000 0.000000 0.000000 0.000000 0.000000 0.000000 0.000000 0.000000 0.000000 0.000000 0.000000 0.000000 0.000000 0.000000 0.000000 0.000000 0.000000 0.000000 0.000000 0.000046 0.000000 0.000000 0.000236 0.000086 0.000000 0.007670 0.000307 0.000000 0.000000 0.000000 0.000000 0.000000 0.000713 0.000487 0.000052 0.000042 0.000015 0.000000 0.000110 0.000006 0.000010 0.000000 0.000000 0.000000 0.000000 0.004263 0.000000 0.000000 0.021410 0.000000 0.001006 0.001936 0.002085 0.001103 0.000000 0.000000 0.000000 0.000000 
0.000000 0.000000 0.000000 0.000000 0.000000 0.000000 0.000000 0.000000 0.000000 0.000000 0.000000 0.000000 0.000000 0.000000 0.000000 0.000000 0.000000 0.000000 0.000000 0.000000 0.000000 0.000000 0.000000 0.000000 0.000000 0.000000 0.000000 0.000000 0.000000 0.000000 0.000000 0.000000 0.000000 0.000000 0.000000 0.000000 0.000000 0.000000 0.000000 0.000000 0.000000 0.000000 0.001091 0.000282 0.000000 0.017034 0.000748 0.000000 0.000018 0.000000 0.000000 0.000529 0.001565 0.000714 0.000000 0.000000 0.000008 0.000021 0.000034 0.000000 0.000000 0.000001 0.000000 0.000000 0.000000 0.000000 0.000268 0.000000 0.000000 0.000000 0.000593 0.001568 0.001987 0.001441 0.000000 0.000000 0.000000 0.000000 
