ncols        26
nrows        22
xllcorner    -87.500000000000
yllcorner    25.000000000000
cellsize     0.250000000000
NODATA_value -9999
0.18699286878108978271 9.6214895248413085938 17.86148834228515625 20.231489181518554688 16.2914886474609375 -9999 -9999 -9999 -9999 -9999 -9999 -9999 -9999 -9999 -9999 -9999 -9999 -9999 -9999 -9999 -9999 -9999 -9999 -9999 4.7817568778991699219 22.811756134033203125 
26.686985015869140625 32.502628326416015625 97.73262786865234375 51.48262786865234375 42.04262542724609375 31.181224822998046875 29.281225204467773438 10.481225967407226563 -9999 -9999 -9999 -9999 -9999 1.702502131462097168 -9999 -9999 -9999 -9999 -9999 -9999 -9999 -9999 -9999 -9999 -9999 18.6785888671875 
31.936985015869140625 78.84262847900390625 144.472625732421875 95.96262359619140625 62.882625579833984375 37.251224517822265625 34.831226348876953125 24.191225051879882813 0.84122556447982788086 -9999 -9999 -9999 2.2325022220611572266 6.6925020217895507813 4.0424981117248535156 -9999 -9999 -9999 -9999 -9999 -9999 -9999 -9999 -9999 -9999 18.828588485717773438 
68.876983642578125 250.1426239013671875 217.042633056640625 165.13262939453125 104.38262939453125 49.081226348876953125 41.161224365234375 29.7712249755859375 8.9912252426147460938 1.0712256431579589844 5.0025019645690917969 15.50250244140625 18.50250244140625 14.8925018310546875 14.512497901916503906 7.6824979782104492188 -9999 -9999 -9999 -9999 -9999 -9999 -9999 -9999 -9999 18.668588638305664063 
404.426971435546875 539.11260986328125 492.542633056640625 322.042633056640625 205.7026214599609375 97.48122406005859375 58.941226959228515625 38.401226043701171875 29.20122528076171875 23.09122467041015625 25.18250274658203125 28.732501983642578125 24.43250274658203125 20.532501220703125 18.342498779296875 14.30249786376953125 4.2124981880187988281 -9999 -9999 -9999 -9999 -9999 -9999 -9999 -9999 -9999 
1255.489501953125 877.07708740234375 556.94708251953125 405.837066650390625 316.957061767578125 232.5650177001953125 193.305023193359375 123.24501800537109375 47.8150177001953125 34.4750213623046875 33.842498779296875 33.282497406005859375 28.322498321533203125 25.142498016357421875 22.917499542236328125 16.50749969482421875 10.717498779296875 4.1574993133544921875 0.95662748813629150391 -9999 -9999 -9999 -9999 -9999 -9999 -9999 
1437.9495849609375 859.65704345703125 590.40704345703125 445.47705078125 352.397064208984375 288.605010986328125 252.9450225830078125 181.495025634765625 106.90502166748046875 66.0050201416015625 45.08249664306640625 40.252498626708984375 33.55249786376953125 29.532497406005859375 27.657499313354492188 21.867498397827148438 17.5774993896484375 10.477499008178710938 4.0866274833679199219 -9999 -9999 -9999 -9999 -9999 -9999 -9999 
1402.719482421875 930.28704833984375 695.82708740234375 543.56707763671875 416.317047119140625 331.545013427734375 297.185028076171875 221.89501953125 174.8550262451171875 125.27501678466796875 54.88249969482421875 50.7624969482421875 36.462497711181640625 33.712497711181640625 30.667499542236328125 25.227499008178710938 19.5774993896484375 12.617499351501464844 4.0166273117065429688 -9999 -9999 -9999 -9999 -9999 -9999 -9999 
2527.359619140625 1379.45703125 959.9970703125 769.9970703125 627.257080078125 494.735015869140625 431.685028076171875 325.875030517578125 231.96502685546875 165.245025634765625 87.08249664306640625 65.00249481201171875 49.492496490478515625 36.88249969482421875 36.137500762939453125 29.527498245239257813 22.307498931884765625 15.727499008178710938 4.3366274833679199219 -9999 -9999 -9999 -9999 -9999 -9999 -9999 
2738.78857421875 2795.689453125 2880.599609375 2239.449462890625 1043.259521484375 902.03265380859375 798.86260986328125 610.97265625 432.0826416015625 280.292633056640625 170.579986572265625 81.81998443603515625 59.699985504150390625 44.889984130859375 41.8650054931640625 34.3350067138671875 26.5850067138671875 18.005006790161132813 5.6399974822998046875 -9999 -9999 -9999 -9999 -9999 -9999 -9999 
2826.55859375 2886.53955078125 2902.099609375 3000.20947265625 2884.7294921875 1962.0726318359375 1193.6826171875 777.922607421875 564.40264892578125 363.292633056640625 223.41998291015625 113.36998748779296875 66.3599853515625 49.309986114501953125 45.94500732421875 36.87500762939453125 28.605007171630859375 19.69500732421875 3.2399976253509521484 1.9199976921081542969 -9999 -9999 -9999 -9999 -9999 -9999 
2875.94873046875 2994.279541015625 3035.099609375 3068.199462890625 3098.74951171875 3185.822509765625 3205.812744140625 2327.1025390625 797.50262451171875 487.0826416015625 262.66998291015625 159.5299835205078125 83.47998809814453125 60.50998687744140625 52.345005035400390625 43.565006256103515625 33.995006561279296875 23.415006637573242188 10.12999725341796875 4.1799974441528320313 -9999 -9999 -9999 -9999 -9999 -9999 
2868.30859375 2938.049560546875 2993.16943359375 3082.49951171875 3164.699462890625 3178.70263671875 3202.522705078125 3228.792724609375 1370.3626708984375 686.76263427734375 298.65997314453125 166.639984130859375 108.03998565673828125 71.17998504638671875 61.48500823974609375 48.245006561279296875 41.225006103515625 29.275007247924804688 14.189997673034667969 -9999 -9999 -9999 -9999 -9999 -9999 -9999 
2879.7587890625 2956.009521484375 3004.089599609375 3076.849609375 3171.32958984375 3212.752685546875 3227.812744140625 3236.882568359375 3162.902587890625 1017.3326416015625 343.709991455078125 187.6499786376953125 133.2499847412109375 82.83998870849609375 70.90500640869140625 54.815006256103515625 44.76500701904296875 35.40500640869140625 24.229997634887695313 12.87999725341796875 -9999 -9999 -9999 -9999 -9999 -9999 
2850.752685546875 2860.867431640625 3018.267333984375 3123.787353515625 3165.347412109375 3215.63232421875 3220.8623046875 3247.592529296875 3260.1123046875 2711.262451171875 512.34478759765625 204.4748077392578125 154.8048095703125 97.40480804443359375 81.81249237060546875 61.50249481201171875 50.08249664306640625 39.72249603271484375 29.767498016357421875 20.197498321533203125 5.0374975204467773438 0.57749772071838378906 -9999 -9999 -9999 -9999 
2870.122802734375 2935.607421875 3033.9775390625 3112.41748046875 3170.617431640625 3200.3125 3218.232421875 3239.6123046875 3267.6123046875 3294.952392578125 857.5247802734375 211.5648040771484375 174.2248077392578125 130.7248077392578125 105.80249786376953125 66.22249603271484375 53.172496795654296875 42.062496185302734375 31.877498626708984375 23.087497711181640625 12.527497291564941406 -9999 -9999 -9999 -9999 -9999 
3013.22265625 3050.057373046875 3035.967529296875 3108.307373046875 3157.70751953125 3182.482421875 3201.952392578125 3245.262451171875 3276.182373046875 3298.9423828125 1396.2847900390625 227.0948028564453125 187.9748077392578125 138.24481201171875 120.66249847412109375 71.74249267578125 56.622493743896484375 45.982494354248046875 34.45749664306640625 26.727497100830078125 15.17749786376953125 10.037497520446777344 7.9574975967407226563 -9999 -9999 -9999 
3128.772705078125 3162.52734375 3167.577392578125 3164.12744140625 3150.037353515625 3235.0224609375 3249.90234375 3275.032470703125 3292.67236328125 3313.482421875 2014.144775390625 282.5648193359375 196.204803466796875 147.7947998046875 125.9324951171875 75.1824951171875 59.61249542236328125 50.692493438720703125 40.337497711181640625 29.67749786376953125 22.507497787475585938 14.597497940063476563 10.777497291564941406 -9999 -9999 -9999 
3187.570068359375 3222.335205078125 3216.3251953125 3214.115234375 3163.55517578125 3225.889892578125 3248.080078125 3263.81005859375 3285.340087890625 3311.6201171875 2239.062744140625 355.932647705078125 192.302642822265625 149.562652587890625 129.50250244140625 76.032501220703125 61.432498931884765625 51.99250030517578125 42.2599945068359375 34.069995880126953125 24.899995803833007813 17.1199951171875 12.899995803833007813 0.42500212788581848145 -9999 -9999 
3295.860107421875 3322.165283203125 3294.295166015625 3264.6953125 3212.6552734375 3210.89990234375 3232.320068359375 3264.60009765625 3293.85009765625 3324.239990234375 2157.252685546875 657.03265380859375 172.78265380859375 147.1726531982421875 129.3325042724609375 83.66249847412109375 64.032501220703125 56.432498931884765625 45.529994964599609375 34.4799957275390625 26.249996185302734375 18.68999481201171875 15.039995193481445313 7.0750021934509277344 3.5950021743774414063 -9999 
3378.60009765625 3377.09521484375 3310.2451171875 3271.28515625 3249.38525390625 3244.669921875 3242.760009765625 3276.070068359375 3296.139892578125 3328.25 3357.342529296875 1348.0526123046875 200.9526519775390625 142.5826416015625 127.07250213623046875 82.22249603271484375 66.8625030517578125 57.74250030517578125 48.04999542236328125 34.599994659423828125 27.679994583129882813 20.389995574951171875 16.379995346069335938 10.795001983642578125 7.1850023269653320313 0.55500215291976928711 
3387.090087890625 3369.985107421875 3328.92529296875 3302.525146484375 3290.185302734375 3284.5 3284.610107421875 3306.18994140625 3333 3348.43994140625 3374.45263671875 1972.942626953125 409.922637939453125 138.302642822265625 122.24250030517578125 79.092498779296875 66.37249755859375 58.432498931884765625 47.01999664306640625 37.779994964599609375 29.3699951171875 20.569995880126953125 18.379995346069335938 12.305002212524414063 7.475002288818359375 2.3150022029876708984 
