ncols        26
nrows        22
xllcorner    -87.500000000000
yllcorner    25.000000000000
cellsize     0.250000000000
NODATA_value -9999.00
385258.81 23820638.00 26274800.00 40046876.00 42629180.00 -9999.00 -9999.00 -9999.00 -9999.00 -9999.00 -9999.00 -9999.00 -9999.00 -9999.00 -9999.00 -9999.00 -9999.00 -9999.00 -9999.00 -9999.00 -9999.00 -9999.00 -9999.00 -9999.00 -9999.00 -9999.00 
84296448.00 217000704.00 117979408.00 124080312.00 193709840.00 152953904.00 133098008.00 16184383.00 -9999.00 -9999.00 -9999.00 -9999.00 -9999.00 -9999.00 -9999.00 -9999.00 -9999.00 -9999.00 -9999.00 -9999.00 -9999.00 -9999.00 -9999.00 -9999.00 -9999.00 -9999.00 
70040480.00 63487804.00 20470322.00 35679532.00 109856824.00 131892976.00 104341080.00 64615132.00 6012063.50 -9999.00 -9999.00 -9999.00 7355209.00 13876842.00 953071.38 -9999.00 -9999.00 -9999.00 -9999.00 -9999.00 -9999.00 -9999.00 -9999.00 -9999.00 -9999.00 -9999.00 
64694148.00 1161875.13 -9999.00 1608574.00 7242861.00 71032144.00 62539112.00 47727472.00 12100095.00 29851.00 18532576.00 55794136.00 45381740.00 83079152.00 38953556.00 8175897.00 -9999.00 -9999.00 -9999.00 -9999.00 -9999.00 -9999.00 -9999.00 -9999.00 -9999.00 -9999.00 
3255206.75 -9999.00 -9999.00 -9999.00 -9999.00 51026568.00 77227152.00 20217496.00 32648406.00 11211529.00 31353734.00 60828696.00 69974112.00 38021476.00 45684444.00 25586056.00 29927.74 -9999.00 -9999.00 -9999.00 -9999.00 -9999.00 -9999.00 -9999.00 -9999.00 -9999.00 
-9999.00 -9999.00 -9999.00 -9999.00 -9999.00 -9999.00 26534324.00 44122500.00 56716344.00 55732008.00 31612958.00 69460536.00 50466700.00 68282048.00 49377940.00 38420752.00 23836792.00 -9999.00 -9999.00 -9999.00 -9999.00 -9999.00 -9999.00 -9999.00 -9999.00 -9999.00 
-9999.00 -9999.00 -9999.00 -9999.00 -9999.00 -9999.00 -9999.00 2702329.25 55316032.00 49558556.00 41477616.00 51679460.00 54898728.00 34333696.00 33651156.00 32747934.00 38427904.00 5199092.50 -9999.00 -9999.00 -9999.00 -9999.00 -9999.00 -9999.00 -9999.00 -9999.00 
-9999.00 -9999.00 -9999.00 -9999.00 -9999.00 -9999.00 -9999.00 1082642.88 2435940.25 38208032.00 18873450.00 18963306.00 37144720.00 43494336.00 44413080.00 32357468.00 15358053.00 10750070.00 -9999.00 -9999.00 -9999.00 -9999.00 -9999.00 -9999.00 -9999.00 -9999.00 
-9999.00 -9999.00 -9999.00 -9999.00 -9999.00 -9999.00 -9999.00 -9999.00 -9999.00 14116449.00 26616846.00 13310454.00 24924648.00 36264216.00 32676324.00 40759736.00 36130460.00 13160464.00 -9999.00 -9999.00 -9999.00 -9999.00 -9999.00 -9999.00 -9999.00 -9999.00 
-9999.00 -9999.00 -9999.00 -9999.00 -9999.00 -9999.00 -9999.00 -9999.00 -9999.00 -9999.00 17424944.00 26042282.00 15784931.00 37950612.00 35172648.00 38414712.00 11637883.00 22295854.00 1725050.50 -9999.00 -9999.00 -9999.00 -9999.00 -9999.00 -9999.00 -9999.00 
-9999.00 -9999.00 -9999.00 -9999.00 -9999.00 -9999.00 -9999.00 -9999.00 -9999.00 -9999.00 1907826.25 32279562.00 44294268.00 134842672.00 50595672.00 50083656.00 83444288.00 81212168.00 41802288.00 -9999.00 -9999.00 -9999.00 -9999.00 -9999.00 -9999.00 -9999.00 
-9999.00 -9999.00 -9999.00 -9999.00 -9999.00 -9999.00 -9999.00 -9999.00 -9999.00 -9999.00 -9999.00 46035412.00 44839528.00 112177184.00 52417148.00 53730508.00 43872484.00 63310760.00 78874448.00 -9999.00 -9999.00 -9999.00 -9999.00 -9999.00 -9999.00 -9999.00 
-9999.00 -9999.00 -9999.00 -9999.00 -9999.00 -9999.00 -9999.00 -9999.00 -9999.00 -9999.00 -9999.00 20063196.00 59549896.00 59543916.00 54619668.00 58111312.00 80731624.00 38241580.00 34669808.00 -9999.00 -9999.00 -9999.00 -9999.00 -9999.00 -9999.00 -9999.00 
-9999.00 -9999.00 -9999.00 -9999.00 -9999.00 -9999.00 -9999.00 -9999.00 -9999.00 -9999.00 -9999.00 4303997.00 23534608.00 40012184.00 78078848.00 74213944.00 69850520.00 44396848.00 32464824.00 41459604.00 -9999.00 -9999.00 -9999.00 -9999.00 -9999.00 -9999.00 
-9999.00 -9999.00 -9999.00 -9999.00 -9999.00 -9999.00 -9999.00 -9999.00 -9999.00 -9999.00 -9999.00 -9999.00 29120702.00 12843458.00 51293864.00 68996656.00 65332024.00 97904264.00 45421624.00 30179016.00 14163625.00 -9999.00 -9999.00 -9999.00 -9999.00 -9999.00 
-9999.00 -9999.00 -9999.00 -9999.00 -9999.00 -9999.00 -9999.00 -9999.00 -9999.00 -9999.00 -9999.00 -9999.00 7079786.00 7262296.00 41649892.00 42009760.00 34096980.00 76304704.00 70795080.00 19704728.00 15298030.00 -9999.00 -9999.00 -9999.00 -9999.00 -9999.00 
-9999.00 -9999.00 -9999.00 -9999.00 -9999.00 -9999.00 -9999.00 -9999.00 -9999.00 -9999.00 -9999.00 -9999.00 -9999.00 5806454.50 44223804.00 73909336.00 29302002.00 47749496.00 91051160.00 7741584.50 66008512.00 6978683.50 -9999.00 -9999.00 -9999.00 -9999.00 
-9999.00 -9999.00 -9999.00 -9999.00 -9999.00 -9999.00 -9999.00 -9999.00 -9999.00 -9999.00 -9999.00 -9999.00 -9999.00 19580954.00 33143224.00 62315964.00 12282753.00 58265300.00 71641120.00 30097506.00 10429848.00 52832100.00 6307785.00 -9999.00 -9999.00 -9999.00 
-9999.00 -9999.00 -9999.00 -9999.00 -9999.00 -9999.00 -9999.00 -9999.00 -9999.00 -9999.00 -9999.00 -9999.00 8334308.00 31941476.00 4532289.00 22818594.00 5090036.00 14529304.00 30441648.00 11107229.00 7771294.00 2805019.75 1387614.50 -9999.00 -9999.00 -9999.00 
-9999.00 -9999.00 -9999.00 -9999.00 -9999.00 -9999.00 -9999.00 -9999.00 -9999.00 -9999.00 -9999.00 -9999.00 7133403.00 24097648.00 16599769.00 30413024.00 12323470.00 15485090.00 28743212.00 39124356.00 8810850.00 10850011.00 4544899.00 -9999.00 -9999.00 -9999.00 
-9999.00 -9999.00 -9999.00 -9999.00 -9999.00 -9999.00 -9999.00 -9999.00 -9999.00 -9999.00 -9999.00 -9999.00 -9999.00 8729233.00 36153760.00 30110288.00 10590851.00 36893000.00 41444272.00 19052312.00 22581366.00 22951272.00 29073362.00 4924721.00 -9999.00 -9999.00 
-9999.00 -9999.00 -9999.00 -9999.00 -9999.00 -9999.00 -9999.00 -9999.00 -9999.00 -9999.00 -9999.00 -9999.00 -9999.00 9311674.00 74842720.00 25892022.00 21505206.00 20474834.00 10889383.00 32669646.00 31186812.00 23184938.00 20672784.00 6144879.50 -9999.00 -9999.00 
