ncols        26
nrows        22
xllcorner    -87.500000000000
yllcorner    25.000000000000
cellsize     0.250000000000
NODATA_value -9999.000000
0.000071 0.000009 0.000000 0.001648 0.002020 -9999.000000 -9999.000000 -9999.000000 -9999.000000 -9999.000000 -9999.000000 -9999.000000 -9999.000000 -9999.000000 -9999.000000 -9999.000000 -9999.000000 -9999.000000 -9999.000000 -9999.000000 -9999.000000 -9999.000000 -9999.000000 -9999.000000 0.000000 0.000000 
0.000000 0.000775 0.004266 0.003899 0.000676 0.001815 0.001467 0.000000 -9999.000000 -9999.000000 -9999.000000 -9999.000000 -9999.000000 0.001055 -9999.000000 -9999.000000 -9999.000000 -9999.000000 -9999.000000 -9999.000000 -9999.000000 -9999.000000 -9999.000000 -9999.000000 -9999.000000 0.000000 
0.011227 0.005993 0.000000 0.001653 0.000755 0.000074 0.000122 0.000000 0.000000 -9999.000000 -9999.000000 -9999.000000 0.002830 0.006303 0.000000 -9999.000000 -9999.000000 -9999.000000 -9999.000000 -9999.000000 -9999.000000 -9999.000000 -9999.000000 -9999.000000 -9999.000000 0.000000 
0.072595 0.000000 0.000000 0.000000 0.000000 0.004562 0.003906 0.000000 0.000278 0.000000 0.000382 0.006382 0.002024 0.007864 0.000242 0.000000 -9999.000000 -9999.000000 -9999.000000 -9999.000000 -9999.000000 -9999.000000 -9999.000000 -9999.000000 -9999.000000 0.000000 
0.052137 0.000000 0.000000 0.000000 0.000000 0.002904 0.013158 0.001967 0.006806 0.000000 0.000319 0.000463 0.000439 0.000518 0.003189 0.008690 0.000000 -9999.000000 -9999.000000 -9999.000000 -9999.000000 -9999.000000 -9999.000000 -9999.000000 -9999.000000 -9999.000000 
0.000000 0.000000 0.000000 0.000000 0.000000 0.000000 0.003372 0.004061 0.000000 0.000007 0.000020 0.000011 0.000952 0.000063 0.000065 0.019713 0.050299 0.018740 0.001296 -9999.000000 -9999.000000 -9999.000000 -9999.000000 -9999.000000 -9999.000000 -9999.000000 
0.000000 0.000000 0.000000 0.000000 0.000000 0.000000 0.000000 0.000000 0.010018 0.012916 0.000010 0.000115 0.000000 0.000671 0.003049 0.001443 0.010266 0.000249 0.000530 -9999.000000 -9999.000000 -9999.000000 -9999.000000 -9999.000000 -9999.000000 -9999.000000 
0.000000 0.000000 0.000000 0.000000 0.000000 0.000000 0.000000 0.000000 0.000000 0.000001 0.000000 0.000000 0.113877 0.000374 0.000066 0.001268 0.014202 0.002950 0.001693 -9999.000000 -9999.000000 -9999.000000 -9999.000000 -9999.000000 -9999.000000 -9999.000000 
0.000000 0.000000 0.000000 0.000000 0.000000 0.000000 0.000000 0.000000 0.000000 0.000000 0.002229 0.000378 0.044719 0.062688 0.000003 0.000082 0.000301 0.005272 0.006673 -9999.000000 -9999.000000 -9999.000000 -9999.000000 -9999.000000 -9999.000000 -9999.000000 
0.000000 0.000000 0.000000 0.000000 0.000000 0.000000 0.000000 0.000000 0.000000 0.000000 0.000000 0.000000 0.000004 0.015437 0.000315 0.000505 0.000206 0.055959 0.010602 -9999.000000 -9999.000000 -9999.000000 -9999.000000 -9999.000000 -9999.000000 -9999.000000 
0.000000 0.000000 0.000000 0.000000 0.000000 0.000000 0.000000 0.000000 0.000000 0.000000 0.000000 0.000498 0.000051 0.004076 0.000000 0.000000 0.000399 0.058872 0.026420 0.009038 -9999.000000 -9999.000000 -9999.000000 -9999.000000 -9999.000000 -9999.000000 
0.000000 0.000000 0.000000 0.000000 0.000000 0.000000 0.000000 0.000000 0.000000 0.000000 0.000000 0.006908 0.001292 0.008130 0.000000 0.000019 0.000219 0.008134 0.013952 0.006265 -9999.000000 -9999.000000 -9999.000000 -9999.000000 -9999.000000 -9999.000000 
0.000000 0.000000 0.000000 0.000000 0.000000 0.000000 0.000000 0.000000 0.000000 0.000000 0.000000 0.000084 0.016490 0.000085 0.000024 0.000000 0.000174 0.002482 0.013292 -9999.000000 -9999.000000 -9999.000000 -9999.000000 -9999.000000 -9999.000000 -9999.000000 
0.000000 0.000000 0.000000 0.000000 0.000000 0.000000 0.000000 0.000000 0.000000 0.000000 0.000000 0.000000 0.000000 0.001501 0.000160 0.000111 0.001187 0.000010 0.002344 0.000875 -9999.000000 -9999.000000 -9999.000000 -9999.000000 -9999.000000 -9999.000000 
0.000000 0.000000 0.000000 0.000000 0.000000 0.000000 0.000000 0.000000 0.000000 0.000000 0.000000 0.000000 0.000020 0.000000 0.000006 0.000047 0.000988 0.000065 0.000626 0.001321 0.001082 0.000291 -9999.000000 -9999.000000 -9999.000000 -9999.000000 
0.000000 0.000000 0.000000 0.000000 0.000000 0.000000 0.000000 0.000000 0.000000 0.000000 0.000000 0.000000 0.000000 0.000000 0.001902 0.000002 0.000011 0.000596 0.000119 0.000147 0.000502 -9999.000000 -9999.000000 -9999.000000 -9999.000000 -9999.000000 
0.000000 0.000000 0.000000 0.000000 0.000000 0.000000 0.000000 0.000000 0.000000 0.000000 0.000000 0.000000 0.000007 0.000000 0.002207 0.000030 0.000000 0.000623 0.000003 0.000000 0.000117 0.000190 0.000054 -9999.000000 -9999.000000 -9999.000000 
0.000000 0.000000 0.000000 0.000000 0.000000 0.000000 0.000000 0.000000 0.000000 0.000000 0.000000 0.000000 0.001569 0.000128 0.007484 0.000479 0.000000 0.000010 0.000024 0.000035 0.000234 0.000160 0.000000 -9999.000000 -9999.000000 -9999.000000 
0.000000 0.000000 0.000000 0.000000 0.000000 0.000000 0.000000 0.000000 0.000000 0.000000 0.000000 0.000000 0.000000 0.026993 0.000000 0.000782 0.000000 0.000000 0.000000 0.000000 0.000032 0.000000 0.000000 0.000000 -9999.000000 -9999.000000 
0.000000 0.000000 0.000000 0.000000 0.000000 0.000000 0.000000 0.000000 0.000000 0.000000 0.000000 0.000000 0.000671 0.002246 0.000000 0.000081 0.000000 0.000000 0.000000 0.000011 0.000000 0.000000 0.000000 0.000348 0.000068 -9999.000000 
0.000000 0.000000 0.000000 0.000000 0.000000 0.000000 0.000000 0.000000 0.000000 0.000000 0.000000 0.000000 0.000000 0.002548 0.000000 0.002439 0.000000 0.000000 0.000003 0.000000 0.000000 0.000004 0.004215 0.000000 0.000163 0.000059 
0.000000 0.000000 0.000000 0.000000 0.000000 0.000000 0.000000 0.000000 0.000000 0.000000 0.000000 0.000000 0.000000 0.000000 0.000013 0.000100 0.000000 0.000000 0.000000 0.000000 0.000000 0.001824 0.000000 0.000000 0.000130 0.000220 
