ncols        26
nrows        22
xllcorner    -87.500000000000
yllcorner    25.000000000000
cellsize     0.250000000000
NODATA_value -9999.000000
0.000000 0.000184 0.000279 0.001256 0.021771 -9999.000000 -9999.000000 -9999.000000 -9999.000000 -9999.000000 -9999.000000 -9999.000000 -9999.000000 -9999.000000 -9999.000000 -9999.000000 -9999.000000 -9999.000000 -9999.000000 -9999.000000 -9999.000000 -9999.000000 -9999.000000 -9999.000000 0.000000 0.000000 
0.000086 0.000166 0.005977 0.003693 0.007812 0.030923 0.029949 0.000000 -9999.000000 -9999.000000 -9999.000000 -9999.000000 -9999.000000 0.038563 -9999.000000 -9999.000000 -9999.000000 -9999.000000 -9999.000000 -9999.000000 -9999.000000 -9999.000000 -9999.000000 -9999.000000 -9999.000000 0.000000 
0.004753 0.001550 0.000000 0.001080 0.006981 0.008193 0.003135 0.000062 0.000000 -9999.000000 -9999.000000 -9999.000000 0.042385 0.244138 0.018526 -9999.000000 -9999.000000 -9999.000000 -9999.000000 -9999.000000 -9999.000000 -9999.000000 -9999.000000 -9999.000000 -9999.000000 0.000000 
0.072484 0.000000 0.000000 0.000000 0.000000 0.011211 0.000888 0.000020 0.003113 0.000000 0.038820 0.081484 0.064406 0.221817 0.223045 0.085782 -9999.000000 -9999.000000 -9999.000000 -9999.000000 -9999.000000 -9999.000000 -9999.000000 -9999.000000 -9999.000000 0.000000 
0.056319 0.000000 0.000000 0.000000 0.000000 0.001107 0.010286 0.038294 0.001844 0.001256 0.003031 0.009032 0.052192 0.020906 0.164969 0.257648 0.000000 -9999.000000 -9999.000000 -9999.000000 -9999.000000 -9999.000000 -9999.000000 -9999.000000 -9999.000000 -9999.000000 
0.000000 0.000000 0.000000 0.000000 0.000000 0.000000 0.012832 0.005193 0.000013 0.000525 0.002065 0.020063 0.012068 0.024276 0.015694 0.058125 0.043889 0.035101 0.005763 -9999.000000 -9999.000000 -9999.000000 -9999.000000 -9999.000000 -9999.000000 -9999.000000 
0.000000 0.000000 0.000000 0.000000 0.000000 0.000000 0.000000 0.000000 0.008606 0.022018 0.018595 0.012458 0.013675 0.076582 0.008845 0.083576 0.091385 0.061043 0.033454 -9999.000000 -9999.000000 -9999.000000 -9999.000000 -9999.000000 -9999.000000 -9999.000000 
0.000000 0.000000 0.000000 0.000000 0.000000 0.000000 0.000000 0.000000 0.000000 0.000213 0.000474 0.063586 0.033148 0.024620 0.033652 0.037446 0.077989 0.130044 0.063430 -9999.000000 -9999.000000 -9999.000000 -9999.000000 -9999.000000 -9999.000000 -9999.000000 
0.000000 0.000000 0.000000 0.000000 0.000000 0.000000 0.000000 0.000000 0.000000 0.000536 0.007601 0.010278 0.009446 0.064547 0.001035 0.036715 0.047177 0.192260 0.074688 -9999.000000 -9999.000000 -9999.000000 -9999.000000 -9999.000000 -9999.000000 -9999.000000 
0.000000 0.000000 0.000000 0.000000 0.000000 0.000000 0.000000 0.000000 0.000000 0.000000 0.000127 0.001347 0.006307 0.104316 0.081121 0.010687 0.023822 0.057042 0.046550 -9999.000000 -9999.000000 -9999.000000 -9999.000000 -9999.000000 -9999.000000 -9999.000000 
0.000000 0.000000 0.000000 0.000000 0.000000 0.000000 0.000000 0.000000 0.000000 0.000000 0.000000 0.000871 0.000386 0.075709 0.020880 0.015656 0.010596 0.198720 0.158021 0.052436 -9999.000000 -9999.000000 -9999.000000 -9999.000000 -9999.000000 -9999.000000 
0.000000 0.000000 0.000000 0.000000 0.000000 0.000000 0.000000 0.000000 0.000000 0.000000 0.000000 0.000630 0.000766 0.053441 0.007487 0.032973 0.003631 0.105414 0.071300 0.035851 -9999.000000 -9999.000000 -9999.000000 -9999.000000 -9999.000000 -9999.000000 
0.000000 0.000000 0.000000 0.000000 0.000000 0.000000 0.000000 0.000000 0.000000 0.000000 0.000000 0.000383 0.001084 0.019143 0.006399 0.007604 0.010694 0.035956 0.113369 -9999.000000 -9999.000000 -9999.000000 -9999.000000 -9999.000000 -9999.000000 -9999.000000 
0.000000 0.000000 0.000000 0.000000 0.000000 0.000000 0.000000 0.000000 0.000000 0.000000 0.000000 0.000611 0.000162 0.003399 0.006571 0.015769 0.020295 0.006797 0.013219 0.039120 -9999.000000 -9999.000000 -9999.000000 -9999.000000 -9999.000000 -9999.000000 
0.000000 0.000000 0.000000 0.000000 0.000000 0.000000 0.000000 0.000000 0.000000 0.000000 0.000000 0.000000 0.000024 0.000000 0.003232 0.005092 0.006345 0.004919 0.005456 0.012805 0.028529 0.008455 -9999.000000 -9999.000000 -9999.000000 -9999.000000 
0.000000 0.000000 0.000000 0.000000 0.000000 0.000000 0.000000 0.000000 0.000000 0.000000 0.000000 0.000000 0.000241 0.000000 0.000937 0.000746 0.004362 0.021251 0.006582 0.023157 0.029528 -9999.000000 -9999.000000 -9999.000000 -9999.000000 -9999.000000 
0.000000 0.000000 0.000000 0.000000 0.000000 0.000000 0.000000 0.000000 0.000000 0.000000 0.000000 0.000000 0.000155 0.000000 0.006531 0.001771 0.000000 0.024196 0.013424 0.000210 0.044782 0.002742 0.001288 -9999.000000 -9999.000000 -9999.000000 
0.000000 0.000000 0.000000 0.000000 0.000000 0.000000 0.000000 0.000000 0.000000 0.000000 0.000000 0.000000 0.001509 0.001947 0.003071 0.002505 0.000565 0.008447 0.001508 0.005956 0.002251 0.006167 0.002014 -9999.000000 -9999.000000 -9999.000000 
0.000000 0.000000 0.000000 0.000000 0.000000 0.000000 0.000000 0.000000 0.000000 0.000000 0.000000 0.000000 0.004815 0.001033 0.004576 0.018171 0.000000 0.000106 0.000335 0.005141 0.000194 0.000968 0.000000 0.000211 -9999.000000 -9999.000000 
0.000000 0.000000 0.000000 0.000000 0.000000 0.000000 0.000000 0.000000 0.000000 0.000000 0.000000 0.000000 0.000702 0.003499 0.000007 0.000476 0.000000 0.000127 0.001319 0.000967 0.000325 0.000622 0.001238 0.000897 0.000120 -9999.000000 
0.000000 0.000000 0.000000 0.000000 0.000000 0.000000 0.000000 0.000000 0.000000 0.000000 0.000000 0.000000 0.000000 0.119265 0.000318 0.003700 0.000000 0.000524 0.001157 0.000072 0.000019 0.002916 0.003409 0.000338 0.000546 0.000170 
0.000000 0.000000 0.000000 0.000000 0.000000 0.000000 0.000000 0.000000 0.000000 0.000000 0.000000 0.000000 0.000000 0.000005 0.000176 0.004310 0.000000 0.000453 0.000015 0.000014 0.000004 0.002654 0.007747 0.000000 0.000553 0.000799 
