ncols        26
nrows        22
xllcorner    -87.500000000000
yllcorner    25.000000000000
cellsize     0.250000000000
NODATA_value -9999.000000
0.064403 0.000000 0.029158 0.016648 0.034305 -9999.000000 -9999.000000 -9999.000000 -9999.000000 -9999.000000 -9999.000000 -9999.000000 -9999.000000 -9999.000000 -9999.000000 -9999.000000 -9999.000000 -9999.000000 -9999.000000 -9999.000000 -9999.000000 -9999.000000 -9999.000000 -9999.000000 0.289628 0.014621 
0.000000 0.000069 0.213565 0.076402 0.000346 0.001179 0.003878 0.000000 -9999.000000 -9999.000000 -9999.000000 -9999.000000 -9999.000000 0.080601 -9999.000000 -9999.000000 -9999.000000 -9999.000000 -9999.000000 -9999.000000 -9999.000000 -9999.000000 -9999.000000 -9999.000000 -9999.000000 0.019911 
0.015388 0.200360 0.680032 0.599667 0.154276 0.137084 0.011631 0.005410 0.000000 -9999.000000 -9999.000000 -9999.000000 0.015239 0.016950 0.004743 -9999.000000 -9999.000000 -9999.000000 -9999.000000 -9999.000000 -9999.000000 -9999.000000 -9999.000000 -9999.000000 -9999.000000 0.156041 
0.065492 0.800878 0.821880 0.601822 0.684497 0.205851 0.071147 0.011244 0.013120 0.098971 0.079221 0.009611 0.016623 0.016970 0.008577 0.001489 -9999.000000 -9999.000000 -9999.000000 -9999.000000 -9999.000000 -9999.000000 -9999.000000 -9999.000000 -9999.000000 0.253256 
0.039331 0.549226 0.757733 0.315110 0.695995 0.436447 0.156112 0.025904 0.016568 0.366928 0.057131 0.027118 0.109625 0.000000 0.000408 0.000101 0.024605 -9999.000000 -9999.000000 -9999.000000 -9999.000000 -9999.000000 -9999.000000 -9999.000000 -9999.000000 -9999.000000 
0.718386 0.552267 0.682987 0.588656 0.779968 0.938158 0.606313 0.493029 0.019213 0.092127 0.013794 0.005506 0.141262 0.127346 0.008793 0.000129 0.026372 0.034707 0.000000 -9999.000000 -9999.000000 -9999.000000 -9999.000000 -9999.000000 -9999.000000 -9999.000000 
0.885574 0.698296 0.719327 0.841586 0.876841 0.874325 0.613722 0.768500 0.175582 0.005511 0.000964 0.080913 0.049202 0.072946 0.002913 0.000000 0.000000 0.000844 0.033999 -9999.000000 -9999.000000 -9999.000000 -9999.000000 -9999.000000 -9999.000000 -9999.000000 
0.586886 0.765407 0.696246 0.922969 0.751016 0.993646 0.679029 0.817939 0.831675 0.256225 0.035039 0.100339 0.064311 0.305772 0.080659 0.135476 0.074797 0.000000 0.000000 -9999.000000 -9999.000000 -9999.000000 -9999.000000 -9999.000000 -9999.000000 -9999.000000 
0.169289 0.590896 0.885708 0.931794 0.797926 0.999437 0.695722 0.542430 0.566447 0.325353 0.105220 0.033285 0.021277 0.069333 0.068199 0.084874 0.057964 0.000281 0.000431 -9999.000000 -9999.000000 -9999.000000 -9999.000000 -9999.000000 -9999.000000 -9999.000000 
0.000000 0.000000 0.000000 0.936089 0.856439 1.000000 0.815207 0.502120 0.633457 0.887514 0.421852 0.008691 0.063402 0.045940 0.435384 0.220017 0.052685 0.003031 0.054177 -9999.000000 -9999.000000 -9999.000000 -9999.000000 -9999.000000 -9999.000000 -9999.000000 
0.554180 0.935703 0.580763 0.620321 0.171000 0.235305 0.334770 0.341365 0.436635 0.673377 0.170354 0.043350 0.084266 0.158770 0.209060 0.223987 0.047055 0.017278 0.019900 0.000000 -9999.000000 -9999.000000 -9999.000000 -9999.000000 -9999.000000 -9999.000000 
0.500000 0.503253 0.536061 0.577459 0.900993 0.687996 0.149356 0.175903 0.692286 0.957326 0.188000 0.095665 0.000845 0.021167 0.039233 0.145059 0.105837 0.012119 0.012073 0.000000 -9999.000000 -9999.000000 -9999.000000 -9999.000000 -9999.000000 -9999.000000 
1.000000 0.673269 0.547758 0.670000 0.670000 0.418103 0.332318 0.630076 0.062623 0.000000 0.000000 0.001039 0.024194 0.010753 0.000801 0.000000 0.000000 0.002362 0.035079 -9999.000000 -9999.000000 -9999.000000 -9999.000000 -9999.000000 -9999.000000 -9999.000000 
1.000000 0.800000 0.500000 0.500000 0.500000 0.500000 0.500000 0.355806 0.842089 0.007932 0.018099 0.056641 0.119110 0.004890 0.006418 0.000000 0.001305 0.149105 0.047119 0.031508 -9999.000000 -9999.000000 -9999.000000 -9999.000000 -9999.000000 -9999.000000 
1.000000 0.800000 0.500000 0.364626 0.030552 0.500000 0.500000 0.637125 0.557125 0.413897 0.128166 0.001792 0.091935 0.013081 0.053743 0.041962 0.053423 0.011957 0.001579 0.005158 0.011268 0.000000 -9999.000000 -9999.000000 -9999.000000 -9999.000000 
1.000000 0.864693 0.636909 0.277354 0.413405 1.000000 0.737469 0.749425 0.759581 0.821211 0.141019 0.000000 0.139492 0.077968 0.100436 0.013437 0.019213 0.075227 0.154638 0.003085 0.018293 -9999.000000 -9999.000000 -9999.000000 -9999.000000 -9999.000000 
0.688333 1.000000 1.000000 0.676479 0.895609 0.950933 0.953513 0.907559 0.962730 0.832200 0.268386 0.000383 0.120956 0.102985 0.074485 0.048645 0.142676 0.178155 0.195451 0.056904 0.077188 0.225953 0.183987 -9999.000000 -9999.000000 -9999.000000 
0.670000 1.000000 1.000000 1.000000 0.916667 0.909208 0.645504 0.637432 0.986340 0.445868 0.138993 0.353213 0.070109 0.145367 0.101277 0.069748 0.155659 0.101440 0.634949 0.260789 0.051406 0.068149 0.128531 -9999.000000 -9999.000000 -9999.000000 
0.676744 1.000000 1.000000 0.983415 0.965330 0.696517 0.330000 0.395220 0.500000 0.231119 0.003345 0.280156 0.063460 0.097546 0.083515 0.060950 0.135369 0.070963 0.099013 0.064562 0.043655 0.060036 0.040753 0.148846 -9999.000000 -9999.000000 
0.885135 1.000000 0.894548 1.000000 1.000000 0.660056 0.330000 0.467993 0.500000 0.222451 0.439212 0.255657 0.248361 0.163770 0.085807 0.123760 0.130075 0.098614 0.162535 0.157703 0.092079 0.021219 0.050772 0.023774 0.101416 -9999.000000 
0.894481 0.818281 0.595546 0.950626 0.980956 0.747425 0.606245 0.623877 0.500000 0.719606 0.615378 0.413828 0.033706 0.093496 0.024428 0.057240 0.020270 0.186300 0.139642 0.135737 0.037744 0.044616 0.063726 0.098344 0.109866 0.630796 
0.698281 0.874273 0.682883 0.748380 0.793205 0.670118 0.711052 0.836794 0.671036 0.896111 0.587911 0.045331 0.001930 0.007245 0.069746 0.074387 0.043103 0.175582 0.197578 0.178698 0.163707 0.104956 0.169124 0.052979 0.099163 0.204940 
