ncols        26
nrows        22
xllcorner    -87.500000000000
yllcorner    25.000000000000
cellsize     0.250000000000
NODATA_value -9999.000000
0.000071 0.000251 0.001256 0.002188 0.003971 -9999.000000 -9999.000000 -9999.000000 -9999.000000 -9999.000000 -9999.000000 -9999.000000 -9999.000000 -9999.000000 -9999.000000 -9999.000000 -9999.000000 -9999.000000 -9999.000000 -9999.000000 -9999.000000 -9999.000000 -9999.000000 -9999.000000 0.001477 0.039633 
0.000000 0.001336 0.034130 0.019832 0.000971 0.007272 0.010772 0.000000 -9999.000000 -9999.000000 -9999.000000 -9999.000000 -9999.000000 0.001055 -9999.000000 -9999.000000 -9999.000000 -9999.000000 -9999.000000 -9999.000000 -9999.000000 -9999.000000 -9999.000000 -9999.000000 -9999.000000 0.012437 
0.019443 0.070639 0.019314 0.016719 0.058463 0.000074 0.000122 0.000000 0.000000 -9999.000000 -9999.000000 -9999.000000 0.004302 0.006317 0.000000 -9999.000000 -9999.000000 -9999.000000 -9999.000000 -9999.000000 -9999.000000 -9999.000000 -9999.000000 -9999.000000 -9999.000000 0.012415 
0.222772 0.004251 0.000000 0.000000 0.000000 0.007347 0.023395 0.000000 0.000278 0.000000 0.000382 0.006407 0.007128 0.007864 0.000242 0.000000 -9999.000000 -9999.000000 -9999.000000 -9999.000000 -9999.000000 -9999.000000 -9999.000000 -9999.000000 -9999.000000 0.003989 
0.091207 0.022126 0.019302 0.000000 0.000000 0.073302 0.028710 0.001967 0.006806 0.000000 0.000319 0.000463 0.000439 0.000518 0.003189 0.008690 0.000000 -9999.000000 -9999.000000 -9999.000000 -9999.000000 -9999.000000 -9999.000000 -9999.000000 -9999.000000 -9999.000000 
0.000000 0.000000 0.000000 0.000000 0.000000 0.000000 0.003372 0.004061 0.000219 0.000007 0.000020 0.000011 0.000952 0.000063 0.000065 0.019713 0.050299 0.018740 0.001296 -9999.000000 -9999.000000 -9999.000000 -9999.000000 -9999.000000 -9999.000000 -9999.000000 
0.000000 0.000000 0.000000 0.000000 0.000000 0.000000 0.000000 0.000000 0.021782 0.046899 0.000010 0.000115 0.000000 0.000671 0.003049 0.001443 0.010266 0.000249 0.000530 -9999.000000 -9999.000000 -9999.000000 -9999.000000 -9999.000000 -9999.000000 -9999.000000 
0.050755 0.000000 0.000000 0.000000 0.000000 0.000000 0.000000 0.000000 0.000000 0.000001 0.000000 0.011904 0.144006 0.000374 0.000066 0.010989 0.024284 0.002950 0.001693 -9999.000000 -9999.000000 -9999.000000 -9999.000000 -9999.000000 -9999.000000 -9999.000000 
0.105248 0.000000 0.000000 0.000000 0.000000 0.000000 0.000000 0.000000 0.000000 0.000000 0.002494 0.012725 0.090998 0.105459 0.000003 0.000082 0.000301 0.005272 0.006673 -9999.000000 -9999.000000 -9999.000000 -9999.000000 -9999.000000 -9999.000000 -9999.000000 
0.149485 0.149485 0.149485 0.000000 0.000000 0.000000 0.000000 0.000000 0.000000 0.000000 0.000000 0.000000 0.073920 0.099950 0.000315 0.000505 0.000206 0.056170 0.015535 -9999.000000 -9999.000000 -9999.000000 -9999.000000 -9999.000000 -9999.000000 -9999.000000 
0.000000 0.000000 0.042714 0.038881 0.122667 0.105657 0.081567 0.059675 0.030812 0.008155 0.000000 0.000498 0.000051 0.004076 0.000000 0.000000 0.000399 0.059860 0.027310 0.010493 -9999.000000 -9999.000000 -9999.000000 -9999.000000 -9999.000000 -9999.000000 
0.000000 0.000000 0.000000 0.000000 0.000000 0.000000 0.122424 0.113286 0.040773 0.000000 0.042714 0.006908 0.001292 0.008130 0.000000 0.000019 0.000219 0.008798 0.014218 0.009549 -9999.000000 -9999.000000 -9999.000000 -9999.000000 -9999.000000 -9999.000000 
0.000000 0.000000 0.000000 0.000000 0.000000 0.024485 0.050132 0.014950 0.133883 0.149485 0.149485 0.000084 0.024797 0.061285 0.034457 0.000572 0.000174 0.002482 0.013993 -9999.000000 -9999.000000 -9999.000000 -9999.000000 -9999.000000 -9999.000000 -9999.000000 
0.000000 0.000000 0.000000 0.000000 0.000000 0.000000 0.000000 0.043110 0.023605 0.147556 0.004145 0.000000 0.000000 0.001501 0.017870 0.000721 0.001187 0.000010 0.002344 0.000875 -9999.000000 -9999.000000 -9999.000000 -9999.000000 -9999.000000 -9999.000000 
0.000000 0.000000 0.000000 0.000000 0.000000 0.000000 0.000000 0.007868 0.042214 0.039908 0.112534 0.034593 0.000020 0.060735 0.098227 0.053442 0.035785 0.043278 0.003349 0.006815 0.001485 0.000616 -9999.000000 -9999.000000 -9999.000000 -9999.000000 
0.000000 0.000000 0.000000 0.000000 0.000000 0.000000 0.000000 0.000000 0.000000 0.000000 0.116964 0.000000 0.000000 0.000000 0.043707 0.000002 0.000011 0.000596 0.004271 0.000147 0.000502 -9999.000000 -9999.000000 -9999.000000 -9999.000000 -9999.000000 
0.000000 0.000000 0.000000 0.000000 0.000000 0.000000 0.000000 0.000000 0.000000 0.006126 0.099871 0.075183 0.015500 0.023572 0.039942 0.000030 0.033005 0.020663 0.026081 0.018243 0.012288 0.005927 0.000054 -9999.000000 -9999.000000 -9999.000000 
0.000000 0.000000 0.000000 0.000000 0.000000 0.000000 0.000000 0.000000 0.002042 0.073395 0.112345 0.000000 0.031681 0.000128 0.064993 0.000479 0.004283 0.057549 0.000024 0.000035 0.000234 0.010765 0.000665 -9999.000000 -9999.000000 -9999.000000 
0.000000 0.000000 0.000000 0.000000 0.000000 0.000000 0.000000 0.000000 0.000000 0.114936 0.148634 0.034385 0.060098 0.074081 0.041091 0.062403 0.017573 0.061246 0.012459 0.028708 0.032090 0.023754 0.020059 0.000000 -9999.000000 -9999.000000 
0.000000 0.000000 0.000000 0.000000 0.000000 0.000000 0.000000 0.000000 0.000000 0.116232 0.083829 0.022425 0.035294 0.030069 0.062592 0.047976 0.000000 0.011059 0.008072 0.000011 0.000000 0.006168 0.029639 0.004847 0.000068 -9999.000000 
0.000000 0.000000 0.000000 0.000000 0.000000 0.000000 0.000000 0.000000 0.000000 0.041915 0.057342 0.021357 0.087746 0.024057 0.079303 0.050138 0.031749 0.010077 0.026113 0.004945 0.011266 0.031867 0.033752 0.024885 0.000500 0.004658 
0.000000 0.000000 0.000000 0.000000 0.000000 0.000000 0.000000 0.000000 0.000000 0.000000 0.061556 0.101755 0.115733 0.091843 0.072283 0.017641 0.000000 0.006848 0.030618 0.000000 0.000000 0.001824 0.000000 0.000000 0.000130 0.002356 
