ncols        26
nrows        22
xllcorner    -87.500000000000
yllcorner    25.000000000000
cellsize     0.250000000000
NODATA_value -9999.000000
0.000000 0.000000 0.000000 0.000004 0.000000 -9999.000000 -9999.000000 -9999.000000 -9999.000000 -9999.000000 -9999.000000 -9999.000000 -9999.000000 -9999.000000 -9999.000000 -9999.000000 -9999.000000 -9999.000000 -9999.000000 -9999.000000 -9999.000000 -9999.000000 -9999.000000 -9999.000000 0.000000 0.000265 
0.000012 0.000049 0.004262 0.000408 0.000015 0.000070 0.000065 0.000000 -9999.000000 -9999.000000 -9999.000000 -9999.000000 -9999.000000 0.000001 -9999.000000 -9999.000000 -9999.000000 -9999.000000 -9999.000000 -9999.000000 -9999.000000 -9999.000000 -9999.000000 -9999.000000 -9999.000000 0.000000 
0.000548 0.009265 0.020672 0.002158 0.008141 0.000016 0.000002 0.000001 0.000000 -9999.000000 -9999.000000 -9999.000000 0.000020 0.000000 0.000000 -9999.000000 -9999.000000 -9999.000000 -9999.000000 -9999.000000 -9999.000000 -9999.000000 -9999.000000 -9999.000000 -9999.000000 0.000000 
0.021393 0.001488 0.000000 0.000000 0.000000 0.000090 0.000486 0.000000 0.000000 0.000000 0.000000 0.000000 0.000001 0.000001 0.000000 0.000000 -9999.000000 -9999.000000 -9999.000000 -9999.000000 -9999.000000 -9999.000000 -9999.000000 -9999.000000 -9999.000000 0.000000 
0.005033 0.002753 0.002401 0.000000 0.000000 0.009938 0.000414 0.000082 0.000004 0.000000 0.000000 0.000002 0.000001 0.000000 0.000002 0.000001 0.000000 -9999.000000 -9999.000000 -9999.000000 -9999.000000 -9999.000000 -9999.000000 -9999.000000 -9999.000000 -9999.000000 
0.000000 0.000000 0.000000 0.000000 0.000000 0.000000 0.000117 0.000057 0.000017 0.000009 0.000000 0.000000 0.000000 0.000001 0.000010 0.000009 0.000000 0.000000 0.000000 -9999.000000 -9999.000000 -9999.000000 -9999.000000 -9999.000000 -9999.000000 -9999.000000 
0.000000 0.000000 0.000000 0.000000 0.000000 0.000000 0.000000 0.000000 0.012647 0.004791 0.000009 0.000001 0.000000 0.000000 0.000005 0.000000 0.000001 0.000000 0.000000 -9999.000000 -9999.000000 -9999.000000 -9999.000000 -9999.000000 -9999.000000 -9999.000000 
0.006315 0.000000 0.000000 0.000000 0.000000 0.000000 0.000000 0.000000 0.000000 0.000031 0.000011 0.000318 0.000204 0.000004 0.000001 0.000065 0.000000 0.000004 0.000002 -9999.000000 -9999.000000 -9999.000000 -9999.000000 -9999.000000 -9999.000000 -9999.000000 
0.013094 0.000000 0.000000 0.000000 0.000000 0.000000 0.000000 0.000000 0.000000 0.000007 0.000037 0.001747 0.001213 0.000285 0.000000 0.000002 0.000000 0.000000 0.000000 -9999.000000 -9999.000000 -9999.000000 -9999.000000 -9999.000000 -9999.000000 -9999.000000 
0.018598 0.018598 0.018598 0.000000 0.000000 0.000000 0.000000 0.000000 0.000000 0.000000 0.000073 0.000067 0.001890 0.002103 0.000016 0.000087 0.000000 0.000000 0.000000 -9999.000000 -9999.000000 -9999.000000 -9999.000000 -9999.000000 -9999.000000 -9999.000000 
0.000000 0.000000 0.005314 0.004837 0.015262 0.013145 0.010148 0.007424 0.003833 0.001015 0.000000 0.002006 0.000703 0.000141 0.000036 0.000035 0.000006 0.000004 0.000001 0.000001 -9999.000000 -9999.000000 -9999.000000 -9999.000000 -9999.000000 -9999.000000 
0.000000 0.000000 0.000000 0.000000 0.000000 0.000000 0.015231 0.014094 0.005073 0.000000 0.005314 0.005200 0.001235 0.000370 0.000140 0.000450 0.000080 0.000033 0.000005 0.000002 -9999.000000 -9999.000000 -9999.000000 -9999.000000 -9999.000000 -9999.000000 
0.000000 0.000000 0.000000 0.000000 0.000000 0.003046 0.006237 0.001860 0.016657 0.018598 0.018598 0.010565 0.010106 0.009222 0.005193 0.000028 0.000078 0.000007 0.000000 -9999.000000 -9999.000000 -9999.000000 -9999.000000 -9999.000000 -9999.000000 -9999.000000 
0.000000 0.000000 0.000000 0.000000 0.000000 0.000000 0.000000 0.005363 0.002937 0.018358 0.000516 0.022652 0.001746 0.001037 0.004010 0.000171 0.000129 0.000091 0.000000 0.000000 -9999.000000 -9999.000000 -9999.000000 -9999.000000 -9999.000000 -9999.000000 
0.000000 0.000000 0.000000 0.000000 0.000000 0.000000 0.000000 0.000979 0.005252 0.004965 0.014001 0.004304 0.004716 0.009422 0.015058 0.007871 0.000964 0.000341 0.000028 0.000053 0.000000 0.000000 -9999.000000 -9999.000000 -9999.000000 -9999.000000 
0.000000 0.000000 0.000000 0.000000 0.000000 0.000000 0.000000 0.000000 0.000000 0.000000 0.014552 0.000000 0.002466 0.001309 0.045191 0.000585 0.000012 0.000067 0.000061 0.000000 0.000000 -9999.000000 -9999.000000 -9999.000000 -9999.000000 -9999.000000 
0.000000 0.000000 0.000000 0.000000 0.000000 0.000000 0.000000 0.000000 0.000000 0.000762 0.012425 0.009354 0.017746 0.027124 0.042356 0.000125 0.000852 0.000705 0.000202 0.000129 0.000000 0.000000 0.000000 -9999.000000 -9999.000000 -9999.000000 
0.000000 0.000000 0.000000 0.000000 0.000000 0.000000 0.000000 0.000000 0.000254 0.009131 0.013977 0.000000 0.033711 0.001917 0.062956 0.000173 0.000135 0.001469 0.000028 0.000001 0.000000 0.000000 0.000000 -9999.000000 -9999.000000 -9999.000000 
0.000000 0.000000 0.000000 0.000000 0.000000 0.000000 0.000000 0.000000 0.000000 0.014300 0.018492 0.004278 0.067073 0.056440 0.046809 0.011009 0.002506 0.001547 0.000320 0.000193 0.000214 0.000000 0.000000 0.000000 -9999.000000 -9999.000000 
0.000000 0.000000 0.000000 0.000000 0.000000 0.000000 0.000000 0.000000 0.000000 0.014461 0.010430 0.002790 0.042636 0.034696 0.068844 0.007539 0.000243 0.000326 0.000236 0.000004 0.000012 0.000000 0.000000 0.000001 0.000000 -9999.000000 
0.000000 0.000000 0.000000 0.000000 0.000000 0.000000 0.000000 0.000000 0.000000 0.005215 0.007134 0.002657 0.010917 0.025532 0.086007 0.007727 0.004465 0.000307 0.000704 0.000033 0.000075 0.000213 0.000009 0.000000 0.000000 0.000000 
0.000000 0.000000 0.000000 0.000000 0.000000 0.000000 0.000000 0.000000 0.000000 0.000000 0.007658 0.012660 0.014399 0.099569 0.078810 0.004813 0.000033 0.000307 0.000794 0.000000 0.000000 0.000300 0.000000 0.000000 0.000003 0.000000 
