ncols        26
nrows        22
xllcorner    -87.500000000000
yllcorner    25.000000000000
cellsize     0.250000000000
NODATA_value -9999.000000
0.000000 0.002342 0.011476 0.003713 0.039158 -9999.000000 -9999.000000 -9999.000000 -9999.000000 -9999.000000 -9999.000000 -9999.000000 -9999.000000 -9999.000000 -9999.000000 -9999.000000 -9999.000000 -9999.000000 -9999.000000 -9999.000000 -9999.000000 -9999.000000 -9999.000000 -9999.000000 0.013158 0.180529 
0.000086 0.002725 0.071418 0.103408 0.009662 0.055777 0.072334 0.000000 -9999.000000 -9999.000000 -9999.000000 -9999.000000 -9999.000000 0.038563 -9999.000000 -9999.000000 -9999.000000 -9999.000000 -9999.000000 -9999.000000 -9999.000000 -9999.000000 -9999.000000 -9999.000000 -9999.000000 0.110824 
0.042177 0.143208 0.040223 0.034093 0.133435 0.008193 0.003135 0.000062 0.000000 -9999.000000 -9999.000000 -9999.000000 0.055507 0.244263 0.018526 -9999.000000 -9999.000000 -9999.000000 -9999.000000 -9999.000000 -9999.000000 -9999.000000 -9999.000000 -9999.000000 -9999.000000 0.110628 
0.401564 0.023660 0.000000 0.000000 0.000000 0.028636 0.122856 0.000020 0.003113 0.000000 0.038820 0.081713 0.109890 0.221817 0.223045 0.085782 -9999.000000 -9999.000000 -9999.000000 -9999.000000 -9999.000000 -9999.000000 -9999.000000 -9999.000000 -9999.000000 0.035544 
0.273748 0.123136 0.107417 0.000000 0.000000 0.155369 0.107624 0.038294 0.001844 0.001256 0.003031 0.009032 0.052192 0.020906 0.164969 0.257648 0.000000 -9999.000000 -9999.000000 -9999.000000 -9999.000000 -9999.000000 -9999.000000 -9999.000000 -9999.000000 -9999.000000 
0.000000 0.000000 0.000000 0.000000 0.000000 0.000000 0.012832 0.005193 0.001382 0.000525 0.002065 0.020063 0.012068 0.024276 0.015694 0.058125 0.043889 0.035101 0.005763 -9999.000000 -9999.000000 -9999.000000 -9999.000000 -9999.000000 -9999.000000 -9999.000000 
0.000000 0.000000 0.000000 0.000000 0.000000 0.000000 0.000000 0.000000 0.033106 0.096484 0.018595 0.012458 0.013675 0.076582 0.008845 0.083576 0.091385 0.061043 0.033454 -9999.000000 -9999.000000 -9999.000000 -9999.000000 -9999.000000 -9999.000000 -9999.000000 
0.282464 0.000000 0.000000 0.000000 0.000000 0.000000 0.000000 0.000000 0.000000 0.000213 0.000474 0.138088 0.170386 0.024620 0.033652 0.081728 0.167828 0.130044 0.063430 -9999.000000 -9999.000000 -9999.000000 -9999.000000 -9999.000000 -9999.000000 -9999.000000 
0.585728 0.000000 0.000000 0.000000 0.000000 0.000000 0.000000 0.000000 0.000000 0.000536 0.008181 0.037334 0.299084 0.259369 0.001035 0.036715 0.047177 0.192260 0.074688 -9999.000000 -9999.000000 -9999.000000 -9999.000000 -9999.000000 -9999.000000 -9999.000000 
0.831917 0.831917 0.831917 0.000000 0.000000 0.000000 0.000000 0.000000 0.000000 0.000000 0.000127 0.001347 0.468916 0.633242 0.081121 0.010687 0.023822 0.058916 0.090506 -9999.000000 -9999.000000 -9999.000000 -9999.000000 -9999.000000 -9999.000000 -9999.000000 
0.000000 0.000000 0.237714 0.216381 0.682667 0.588003 0.453939 0.332104 0.171474 0.045382 0.000000 0.000871 0.000386 0.075709 0.020880 0.015656 0.010596 0.207521 0.165948 0.065397 -9999.000000 -9999.000000 -9999.000000 -9999.000000 -9999.000000 -9999.000000 
0.000000 0.000000 0.000000 0.000000 0.000000 0.000000 0.681316 0.630459 0.226909 0.000000 0.237714 0.000630 0.000766 0.053441 0.007487 0.032973 0.003631 0.108438 0.073666 0.065115 -9999.000000 -9999.000000 -9999.000000 -9999.000000 -9999.000000 -9999.000000 
0.000000 0.000000 0.000000 0.000000 0.000000 0.136263 0.278995 0.083200 0.745088 0.831917 0.831917 0.000383 0.018384 0.153250 0.081850 0.011184 0.010694 0.035956 0.119612 -9999.000000 -9999.000000 -9999.000000 -9999.000000 -9999.000000 -9999.000000 -9999.000000 
0.000000 0.000000 0.000000 0.000000 0.000000 0.000000 0.000000 0.239914 0.131368 0.821184 0.023069 0.000611 0.000162 0.003399 0.045380 0.019588 0.020295 0.006797 0.013219 0.039120 -9999.000000 -9999.000000 -9999.000000 -9999.000000 -9999.000000 -9999.000000 
0.000000 0.000000 0.000000 0.000000 0.000000 0.000000 0.000000 0.043789 0.234930 0.222095 0.626278 0.192516 0.000024 0.133086 0.218460 0.122096 0.224129 0.201757 0.017860 0.037830 0.032112 0.011355 -9999.000000 -9999.000000 -9999.000000 -9999.000000 
0.000000 0.000000 0.000000 0.000000 0.000000 0.000000 0.000000 0.000000 0.000000 0.000000 0.650928 0.000000 0.000241 0.000000 0.087999 0.000746 0.004362 0.021251 0.025494 0.023157 0.029528 -9999.000000 -9999.000000 -9999.000000 -9999.000000 -9999.000000 
0.000000 0.000000 0.000000 0.000000 0.000000 0.000000 0.000000 0.000000 0.000000 0.034092 0.555803 0.418408 0.032421 0.049090 0.085118 0.001771 0.206562 0.149615 0.132211 0.083309 0.153236 0.053866 0.001288 -9999.000000 -9999.000000 -9999.000000 
0.000000 0.000000 0.000000 0.000000 0.000000 0.000000 0.000000 0.000000 0.011364 0.408460 0.625224 0.000000 0.064221 0.001947 0.122840 0.002505 0.027372 0.368557 0.001508 0.005956 0.002251 0.100664 0.007937 -9999.000000 -9999.000000 -9999.000000 
0.000000 0.000000 0.000000 0.000000 0.000000 0.000000 0.000000 0.000000 0.000000 0.639645 0.827183 0.191360 0.129976 0.099099 0.090153 0.153198 0.038506 0.383420 0.078311 0.135908 0.146218 0.212631 0.178745 0.000211 -9999.000000 -9999.000000 
0.000000 0.000000 0.000000 0.000000 0.000000 0.000000 0.000000 0.000000 0.000000 0.646856 0.466529 0.124800 0.072807 0.061445 0.130363 0.105427 0.000000 0.069343 0.051833 0.000967 0.000325 0.055586 0.265348 0.040986 0.000120 -9999.000000 
0.000000 0.000000 0.000000 0.000000 0.000000 0.000000 0.000000 0.000000 0.000000 0.233264 0.319119 0.118857 0.488327 0.164060 0.165476 0.108220 0.069570 0.063591 0.164566 0.022595 0.051334 0.148055 0.266610 0.222084 0.003543 0.041143 
0.000000 0.000000 0.000000 0.000000 0.000000 0.000000 0.000000 0.000000 0.000000 0.000000 0.342573 0.566288 0.644077 0.191278 0.150686 0.042746 0.000000 0.043313 0.191639 0.000014 0.000004 0.002654 0.007747 0.000000 0.000553 0.019831 
