ncols        26
nrows        22
xllcorner    -87.500000000000
yllcorner    25.000000000000
cellsize     0.250000000000
NODATA_value -9999.000000
0.010759 0.000000 0.020743 0.053195 0.021407 -9999.000000 -9999.000000 -9999.000000 -9999.000000 -9999.000000 -9999.000000 -9999.000000 -9999.000000 -9999.000000 -9999.000000 -9999.000000 -9999.000000 -9999.000000 -9999.000000 -9999.000000 -9999.000000 -9999.000000 -9999.000000 -9999.000000 0.050976 0.047341 
0.169739 0.274971 0.195648 0.260675 0.395684 0.313994 0.169681 0.000000 -9999.000000 -9999.000000 -9999.000000 -9999.000000 -9999.000000 0.027667 -9999.000000 -9999.000000 -9999.000000 -9999.000000 -9999.000000 -9999.000000 -9999.000000 -9999.000000 -9999.000000 -9999.000000 -9999.000000 0.118541 
0.227791 0.222283 0.115117 0.042652 0.270629 0.281842 0.319690 0.150324 0.000000 -9999.000000 -9999.000000 -9999.000000 0.033296 0.046491 0.060853 -9999.000000 -9999.000000 -9999.000000 -9999.000000 -9999.000000 -9999.000000 -9999.000000 -9999.000000 -9999.000000 -9999.000000 0.127602 
0.072121 0.005864 0.000703 0.000636 0.005711 0.172991 0.207677 0.172110 0.059337 0.028281 0.043693 0.225844 0.271246 0.392697 0.175501 0.054499 -9999.000000 -9999.000000 -9999.000000 -9999.000000 -9999.000000 -9999.000000 -9999.000000 -9999.000000 -9999.000000 0.128807 
0.304890 0.109594 0.099538 0.000000 0.001689 0.036849 0.088877 0.103888 0.278727 0.022644 0.203482 0.329949 0.020053 0.426185 0.298146 0.241126 0.050786 -9999.000000 -9999.000000 -9999.000000 -9999.000000 -9999.000000 -9999.000000 -9999.000000 -9999.000000 -9999.000000 
0.112000 0.182074 0.284350 0.000000 0.000000 0.000491 0.046970 0.082625 0.134841 0.061418 0.126050 0.544847 0.138741 0.081038 0.152672 0.362583 0.312880 0.026961 0.000000 -9999.000000 -9999.000000 -9999.000000 -9999.000000 -9999.000000 -9999.000000 -9999.000000 
0.000000 0.000000 0.000000 0.000000 0.000000 0.000000 0.002175 0.077308 0.099285 0.252262 0.408452 0.341655 0.289164 0.240033 0.382381 0.345259 0.309476 0.201188 0.011850 -9999.000000 -9999.000000 -9999.000000 -9999.000000 -9999.000000 -9999.000000 -9999.000000 
0.000000 0.000000 0.000000 0.000000 0.000000 0.000000 0.203378 0.115934 0.068150 0.072815 0.353437 0.091614 0.084784 0.302620 0.459872 0.192552 0.194063 0.223797 0.000000 -9999.000000 -9999.000000 -9999.000000 -9999.000000 -9999.000000 -9999.000000 -9999.000000 
0.000000 0.000000 0.000000 0.000000 0.000000 0.000000 0.028096 0.003215 0.000560 0.013166 0.208487 0.282824 0.067194 0.278315 0.290846 0.355509 0.161415 0.281078 0.000934 -9999.000000 -9999.000000 -9999.000000 -9999.000000 -9999.000000 -9999.000000 -9999.000000 
0.000000 0.000000 0.000000 0.000000 0.000000 0.000000 0.000000 0.000000 0.000000 0.000979 0.091395 0.318353 0.126835 0.144595 0.287455 0.329087 0.283318 0.265208 0.077042 -9999.000000 -9999.000000 -9999.000000 -9999.000000 -9999.000000 -9999.000000 -9999.000000 
0.000000 0.000000 0.000000 0.000000 0.000000 0.000000 0.000000 0.000000 0.000000 0.000000 0.008262 0.242603 0.419037 0.224778 0.130903 0.170034 0.292201 0.180037 0.097968 0.000000 -9999.000000 -9999.000000 -9999.000000 -9999.000000 -9999.000000 -9999.000000 
0.000000 0.000000 0.000000 0.000000 0.000000 0.000000 0.000000 0.000000 0.000000 0.000000 0.000000 0.455344 0.668363 0.296795 0.272400 0.215955 0.348911 0.298209 0.118585 0.000000 -9999.000000 -9999.000000 -9999.000000 -9999.000000 -9999.000000 -9999.000000 
0.000000 0.000000 0.000000 0.000000 0.000000 0.418103 0.332318 0.169232 0.000000 0.000000 0.000000 0.636834 0.230013 0.173849 0.301805 0.448770 0.279238 0.416465 0.252090 -9999.000000 -9999.000000 -9999.000000 -9999.000000 -9999.000000 -9999.000000 -9999.000000 
0.000000 0.000000 0.000000 0.000000 0.000000 0.500000 0.500000 0.355806 0.000000 0.003085 0.492374 0.439780 0.320416 0.247658 0.438090 0.477329 0.581043 0.402067 0.182040 0.243426 -9999.000000 -9999.000000 -9999.000000 -9999.000000 -9999.000000 -9999.000000 
0.000000 0.000000 0.000000 0.000000 0.000000 0.500000 0.500000 0.237171 0.000000 0.105691 0.058006 0.291282 0.229908 0.167414 0.142828 0.206591 0.198384 0.235155 0.268032 0.300908 0.079916 0.000000 -9999.000000 -9999.000000 -9999.000000 -9999.000000 
0.000000 0.000000 0.040698 0.106022 0.161502 0.000000 0.250310 0.125382 0.000000 0.000000 0.043585 0.467653 0.289584 0.352403 0.152945 0.375872 0.430038 0.352781 0.240563 0.414635 0.288116 -9999.000000 -9999.000000 -9999.000000 -9999.000000 -9999.000000 
0.000000 0.000000 0.000000 0.139617 0.054443 0.000000 0.000000 0.000000 0.000000 0.000000 0.019541 0.037941 0.073482 0.168596 0.251703 0.236127 0.060581 0.103072 0.154525 0.155775 0.061025 0.161256 0.199239 -9999.000000 -9999.000000 -9999.000000 
0.000000 0.000000 0.000000 0.000000 0.000000 0.000000 0.000000 0.000000 0.000000 0.000000 0.042392 0.000210 0.150014 0.176617 0.140912 0.299783 0.287774 0.104945 0.168618 0.105366 0.000560 0.057031 0.156031 -9999.000000 -9999.000000 -9999.000000 
0.000000 0.000000 0.000000 0.000000 0.000000 0.000000 0.000000 0.000000 0.000000 0.000000 0.000086 0.000000 0.006779 0.112257 0.094114 0.136333 0.247060 0.108472 0.281358 0.129301 0.001326 0.141283 0.292939 0.098269 -9999.000000 -9999.000000 
0.000000 0.000000 0.000000 0.000000 0.000000 0.000000 0.000000 0.000000 0.000000 0.000000 0.000000 0.000000 0.027523 0.271740 0.090279 0.369387 0.460159 0.343852 0.296933 0.355113 0.000421 0.012454 0.025634 0.063598 0.067455 -9999.000000 
0.000000 0.000000 0.000000 0.000000 0.000000 0.000000 0.000000 0.000000 0.000000 0.000000 0.000000 0.000060 0.000116 0.219671 0.066634 0.325103 0.530486 0.243859 0.115183 0.341330 0.048631 0.035748 0.009258 0.034937 0.088019 0.054373 
0.000000 0.000000 0.000000 0.000000 0.000000 0.000000 0.000000 0.000000 0.000000 0.000000 0.000000 0.020830 0.001861 0.074204 0.157418 0.339410 0.317983 0.250926 0.047665 0.216222 0.068250 0.035043 0.047770 0.060888 0.131295 0.092711 
