ncols        26
nrows        22
xllcorner    -87.500000000000
yllcorner    25.000000000000
cellsize     0.250000000000
NODATA_value -9999.000000
0.162459 0.000000 0.180786 0.423257 0.144869 -9999.000000 -9999.000000 -9999.000000 -9999.000000 -9999.000000 -9999.000000 -9999.000000 -9999.000000 -9999.000000 -9999.000000 -9999.000000 -9999.000000 -9999.000000 -9999.000000 -9999.000000 -9999.000000 -9999.000000 -9999.000000 -9999.000000 0.644762 0.717613 
0.825169 0.715932 0.480816 0.538858 0.592835 0.621634 0.486500 0.000000 -9999.000000 -9999.000000 -9999.000000 -9999.000000 -9999.000000 0.325793 -9999.000000 -9999.000000 -9999.000000 -9999.000000 -9999.000000 -9999.000000 -9999.000000 -9999.000000 -9999.000000 -9999.000000 -9999.000000 0.738287 
0.694419 0.353766 0.122943 0.304572 0.374886 0.572684 0.663340 0.587722 0.000000 -9999.000000 -9999.000000 -9999.000000 0.135504 0.185929 0.327574 -9999.000000 -9999.000000 -9999.000000 -9999.000000 -9999.000000 -9999.000000 -9999.000000 -9999.000000 -9999.000000 -9999.000000 0.593313 
0.216588 0.163858 0.177417 0.397543 0.309783 0.585033 0.574339 0.816343 0.423894 0.100456 0.081833 0.420002 0.594718 0.360648 0.581393 0.347039 -9999.000000 -9999.000000 -9999.000000 -9999.000000 -9999.000000 -9999.000000 -9999.000000 -9999.000000 -9999.000000 0.578404 
0.285688 0.193165 0.013609 0.684890 0.302316 0.288086 0.618247 0.829821 0.696051 0.608580 0.733706 0.633407 0.817683 0.552389 0.533281 0.481898 0.167069 -9999.000000 -9999.000000 -9999.000000 -9999.000000 -9999.000000 -9999.000000 -9999.000000 -9999.000000 -9999.000000 
0.169614 0.265659 0.032664 0.411344 0.220032 0.061351 0.330383 0.415009 0.844319 0.845907 0.858070 0.429574 0.706977 0.767276 0.822766 0.559292 0.555686 0.128912 0.000000 -9999.000000 -9999.000000 -9999.000000 -9999.000000 -9999.000000 -9999.000000 -9999.000000 
0.114426 0.301704 0.280673 0.158414 0.123159 0.125675 0.384103 0.154193 0.657275 0.594041 0.571970 0.564860 0.647960 0.609768 0.602807 0.569722 0.588861 0.723666 0.095605 -9999.000000 -9999.000000 -9999.000000 -9999.000000 -9999.000000 -9999.000000 -9999.000000 
0.073580 0.234593 0.303754 0.077031 0.248984 0.006354 0.117593 0.066127 0.100114 0.669548 0.611029 0.657731 0.536310 0.366611 0.425750 0.579189 0.539027 0.621567 0.000000 -9999.000000 -9999.000000 -9999.000000 -9999.000000 -9999.000000 -9999.000000 -9999.000000 
0.126640 0.409104 0.114292 0.068206 0.202074 0.000563 0.276182 0.454355 0.432993 0.660563 0.675456 0.632085 0.520146 0.287199 0.639917 0.522815 0.733143 0.519452 0.010173 -9999.000000 -9999.000000 -9999.000000 -9999.000000 -9999.000000 -9999.000000 -9999.000000 
0.000000 0.000000 0.000000 0.063911 0.143561 0.000000 0.184793 0.497880 0.366543 0.111507 0.486553 0.671541 0.264837 0.074140 0.195710 0.439617 0.639969 0.616263 0.251262 -9999.000000 -9999.000000 -9999.000000 -9999.000000 -9999.000000 -9999.000000 -9999.000000 
0.445820 0.064297 0.133494 0.119580 0.008405 0.057890 0.119576 0.259432 0.357247 0.272072 0.821384 0.710671 0.495557 0.536099 0.636957 0.589473 0.649737 0.534180 0.177601 0.000000 -9999.000000 -9999.000000 -9999.000000 -9999.000000 -9999.000000 -9999.000000 
0.500000 0.496747 0.463939 0.422541 0.099007 0.312004 0.031673 0.066258 0.034959 0.042674 0.526257 0.436253 0.327488 0.620097 0.680720 0.605069 0.540749 0.570325 0.268110 0.000000 -9999.000000 -9999.000000 -9999.000000 -9999.000000 -9999.000000 -9999.000000 
0.000000 0.326731 0.452242 0.330000 0.330000 0.000000 0.000000 0.100681 0.041749 0.000000 0.000000 0.351097 0.692506 0.591634 0.575894 0.539439 0.709816 0.542687 0.543811 -9999.000000 -9999.000000 -9999.000000 -9999.000000 -9999.000000 -9999.000000 -9999.000000 
0.000000 0.200000 0.500000 0.500000 0.500000 0.000000 0.000000 0.000000 0.000000 0.001884 0.461797 0.480316 0.558566 0.741514 0.488232 0.502191 0.396041 0.441861 0.754590 0.392049 -9999.000000 -9999.000000 -9999.000000 -9999.000000 -9999.000000 -9999.000000 
0.000000 0.200000 0.500000 0.635374 0.969448 0.000000 0.000000 0.073067 0.160480 0.213444 0.061014 0.475513 0.673397 0.616264 0.471684 0.568038 0.487316 0.507509 0.709053 0.637065 0.105716 0.000000 -9999.000000 -9999.000000 -9999.000000 -9999.000000 
0.000000 0.135307 0.322393 0.616624 0.425093 0.000000 0.012221 0.125193 0.240419 0.178789 0.032952 0.532347 0.568217 0.568291 0.569715 0.609358 0.546365 0.550079 0.574974 0.558606 0.541725 -9999.000000 -9999.000000 -9999.000000 -9999.000000 -9999.000000 
0.311667 0.000000 0.000000 0.183905 0.049947 0.049067 0.046487 0.092441 0.037270 0.126820 0.043974 0.458732 0.739894 0.628633 0.506395 0.713301 0.556256 0.547788 0.491530 0.685639 0.695868 0.426780 0.493145 -9999.000000 -9999.000000 -9999.000000 
0.330000 0.000000 0.000000 0.000000 0.083333 0.090792 0.354496 0.362568 0.000000 0.063145 0.067069 0.646578 0.650264 0.674025 0.507018 0.627312 0.524777 0.366038 0.194872 0.627853 0.945549 0.762887 0.684058 -9999.000000 -9999.000000 -9999.000000 
0.323256 0.000000 0.000000 0.016585 0.034670 0.303483 0.670000 0.604780 0.500000 0.000000 0.002259 0.489821 0.672613 0.560578 0.644317 0.576108 0.558986 0.374350 0.528538 0.641327 0.776498 0.561533 0.461661 0.686007 -9999.000000 -9999.000000 
0.114865 0.000000 0.105452 0.000000 0.000000 0.339944 0.670000 0.532007 0.500000 0.000000 0.000000 0.594328 0.573380 0.438279 0.562114 0.345912 0.409523 0.476806 0.480389 0.486203 0.907163 0.904565 0.628552 0.866794 0.784738 -9999.000000 
0.105519 0.181719 0.404454 0.049374 0.019044 0.252575 0.393755 0.376123 0.500000 0.000000 0.001028 0.443241 0.379188 0.473185 0.578152 0.451572 0.343460 0.495866 0.553788 0.495302 0.850950 0.739501 0.626645 0.619750 0.798072 0.256164 
0.301719 0.125727 0.317117 0.251620 0.206795 0.329882 0.288948 0.163206 0.328964 0.103889 0.000302 0.253137 0.222001 0.535861 0.471056 0.521003 0.638881 0.523024 0.531707 0.605067 0.768040 0.855213 0.775359 0.886133 0.768857 0.584255 
