ncols        26
nrows        22
xllcorner    -87.500000000000
yllcorner    25.000000000000
cellsize     0.250000000000
NODATA_value -9999.000000
0.000000 0.002400 0.012453 0.003000 0.019338 -9999.000000 -9999.000000 -9999.000000 -9999.000000 -9999.000000 -9999.000000 -9999.000000 -9999.000000 -9999.000000 -9999.000000 -9999.000000 -9999.000000 -9999.000000 -9999.000000 -9999.000000 -9999.000000 -9999.000000 -9999.000000 -9999.000000 0.014634 0.220426 
0.000000 0.003125 0.099514 0.116042 0.002153 0.030347 0.051752 0.000000 -9999.000000 -9999.000000 -9999.000000 -9999.000000 -9999.000000 0.000000 -9999.000000 -9999.000000 -9999.000000 -9999.000000 -9999.000000 -9999.000000 -9999.000000 -9999.000000 -9999.000000 -9999.000000 -9999.000000 0.123261 
0.045694 0.215417 0.080174 0.050202 0.192296 0.000000 0.000000 0.000000 0.000000 -9999.000000 -9999.000000 -9999.000000 0.014595 0.000139 0.000000 -9999.000000 -9999.000000 -9999.000000 -9999.000000 -9999.000000 -9999.000000 -9999.000000 -9999.000000 -9999.000000 -9999.000000 0.123043 
0.500426 0.028438 0.000000 0.000000 0.000000 0.020278 0.141938 0.000000 0.000000 0.000000 0.000000 0.000254 0.050588 0.000000 0.000000 0.000000 -9999.000000 -9999.000000 -9999.000000 -9999.000000 -9999.000000 -9999.000000 -9999.000000 -9999.000000 -9999.000000 0.039533 
0.261333 0.148000 0.129107 0.000000 0.000000 0.234583 0.113276 0.000000 0.000000 0.000000 0.000000 0.000000 0.000000 0.000000 0.000000 0.000000 0.000000 -9999.000000 -9999.000000 -9999.000000 -9999.000000 -9999.000000 -9999.000000 -9999.000000 -9999.000000 -9999.000000 
0.000000 0.000000 0.000000 0.000000 0.000000 0.000000 0.000000 0.000000 0.001593 0.000000 0.000000 0.000000 0.000000 0.000000 0.000000 0.000000 0.000000 0.000000 0.000000 -9999.000000 -9999.000000 -9999.000000 -9999.000000 -9999.000000 -9999.000000 -9999.000000 
0.000000 0.000000 0.000000 0.000000 0.000000 0.000000 0.000000 0.000000 0.048833 0.113239 0.000000 0.000000 0.000000 0.000000 0.000000 0.000000 0.000000 0.000000 0.000000 -9999.000000 -9999.000000 -9999.000000 -9999.000000 -9999.000000 -9999.000000 -9999.000000 
0.339500 0.000000 0.000000 0.000000 0.000000 0.000000 0.000000 0.000000 0.000000 0.000000 0.000000 0.086700 0.167568 0.000000 0.000000 0.054068 0.099922 0.000000 0.000000 -9999.000000 -9999.000000 -9999.000000 -9999.000000 -9999.000000 -9999.000000 -9999.000000 
0.704000 0.000000 0.000000 0.000000 0.000000 0.000000 0.000000 0.000000 0.000000 0.000000 0.000882 0.041143 0.337063 0.237879 0.000000 0.000000 0.000000 0.000000 0.000000 -9999.000000 -9999.000000 -9999.000000 -9999.000000 -9999.000000 -9999.000000 -9999.000000 
1.000000 1.000000 1.000000 0.000000 0.000000 0.000000 0.000000 0.000000 0.000000 0.000000 0.000000 0.000000 0.538356 0.615532 0.000000 0.000000 0.000000 0.002083 0.048889 -9999.000000 -9999.000000 -9999.000000 -9999.000000 -9999.000000 -9999.000000 -9999.000000 
0.000000 0.000000 0.285714 0.260073 0.820513 0.706735 0.545600 0.399163 0.206098 0.054545 0.000000 0.000000 0.000000 0.000000 0.000000 0.000000 0.000000 0.009789 0.008817 0.014416 -9999.000000 -9999.000000 -9999.000000 -9999.000000 -9999.000000 -9999.000000 
0.000000 0.000000 0.000000 0.000000 0.000000 0.000000 0.818889 0.757763 0.272727 0.000000 0.285714 0.000000 0.000000 0.000000 0.000000 0.000000 0.000000 0.003692 0.002632 0.032549 -9999.000000 -9999.000000 -9999.000000 -9999.000000 -9999.000000 -9999.000000 
0.000000 0.000000 0.000000 0.000000 0.000000 0.163778 0.335330 0.100000 0.895538 1.000000 1.000000 0.000000 0.034483 0.203934 0.114737 0.004167 0.000000 0.000000 0.006944 -9999.000000 -9999.000000 -9999.000000 -9999.000000 -9999.000000 -9999.000000 -9999.000000 
0.000000 0.000000 0.000000 0.000000 0.000000 0.000000 0.000000 0.288358 0.157895 0.987000 0.027727 0.000000 0.000000 0.000000 0.059016 0.004444 0.000000 0.000000 0.000000 0.000000 -9999.000000 -9999.000000 -9999.000000 -9999.000000 -9999.000000 -9999.000000 
0.000000 0.000000 0.000000 0.000000 0.000000 0.000000 0.000000 0.052632 0.282367 0.266941 0.752738 0.231389 0.000000 0.202381 0.327294 0.177925 0.253443 0.240339 0.015145 0.030556 0.003985 0.003226 -9999.000000 -9999.000000 -9999.000000 -9999.000000 
0.000000 0.000000 0.000000 0.000000 0.000000 0.000000 0.000000 0.000000 0.000000 0.000000 0.782366 0.000000 0.000000 0.000000 0.173534 0.000000 0.000000 0.000000 0.023091 0.000000 0.000000 -9999.000000 -9999.000000 -9999.000000 -9999.000000 -9999.000000 
0.000000 0.000000 0.000000 0.000000 0.000000 0.000000 0.000000 0.000000 0.000000 0.040976 0.668033 0.502895 0.064314 0.097848 0.156641 0.000000 0.240385 0.145955 0.145039 0.101463 0.120625 0.056861 0.000000 -9999.000000 -9999.000000 -9999.000000 
0.000000 0.000000 0.000000 0.000000 0.000000 0.000000 0.000000 0.000000 0.013659 0.490938 0.751471 0.000000 0.125000 0.000000 0.238725 0.000000 0.031196 0.419074 0.000000 0.000000 0.000000 0.105102 0.006588 -9999.000000 -9999.000000 -9999.000000 
0.000000 0.000000 0.000000 0.000000 0.000000 0.000000 0.000000 0.000000 0.000000 0.768804 0.994211 0.230000 0.249474 0.195467 0.170574 0.205333 0.058556 0.446077 0.090744 0.159667 0.178295 0.235417 0.198804 0.000000 -9999.000000 -9999.000000 
0.000000 0.000000 0.000000 0.000000 0.000000 0.000000 0.000000 0.000000 0.000000 0.777471 0.560732 0.150000 0.143721 0.115500 0.259828 0.159597 0.000000 0.080549 0.058785 0.000000 0.000000 0.061132 0.293750 0.044588 0.000000 -9999.000000 
0.000000 0.000000 0.000000 0.000000 0.000000 0.000000 0.000000 0.000000 0.000000 0.280366 0.383556 0.142857 0.586932 0.089286 0.329196 0.158942 0.105794 0.073393 0.190165 0.027500 0.062656 0.177215 0.292738 0.246630 0.003333 0.045571 
0.000000 0.000000 0.000000 0.000000 0.000000 0.000000 0.000000 0.000000 0.000000 0.000000 0.411746 0.680635 0.774130 0.381250 0.300000 0.058448 0.000000 0.049878 0.223000 0.000000 0.000000 0.000000 0.000000 0.000000 0.000000 0.021169 
