ncols        78
nrows        66
xllcorner    -87.500000000000
yllcorner    25.000000000000
cellsize     0.083333333333
NODATA_value -9999
-9999.0 -9999 -9999 -9999 2.8896079063415527344 2.9196078777313232422 -9999 -9999 -9999 -9999 -9999 0.22148948907852172852 5.4314894676208496094 5.6514892578125 3.9614894390106201172 2.7914896011352539063 -9999 -9999 -9999 -9999 -9999 -9999 -9999 -9999 -9999 -9999 -9999 -9999 -9999 -9999 -9999 -9999 -9999 -9999 -9999 -9999 -9999 -9999 -9999 -9999 -9999 -9999 -9999 -9999 -9999 -9999 -9999 -9999 -9999 -9999 -9999 -9999 -9999 -9999 -9999 -9999 -9999 -9999 -9999 -9999 -9999 -9999 -9999 -9999 -9999 -9999 -9999 -9999 -9999 -9999 -9999 -9999 0.28707790374755859375 12.617077827453613281 18.7192535400390625 19.389253616333007813 20.309253692626953125 22.729253768920898438 
-9999 -9999 -9999 6.4894928932189941406 1.0596078634262084961 3.0196077823638916016 7.0296077728271484375 10.999608039855957031 15.979607582092285156 17.5196075439453125 17.731489181518554688 14.851489067077636719 12.721489906311035156 10.851489067077636719 5.8514895439147949219 -9999 -9999 -9999 -9999 -9999 -9999 -9999 -9999 -9999 -9999 -9999 -9999 -9999 -9999 -9999 -9999 -9999 -9999 -9999 -9999 -9999 -9999 -9999 -9999 -9999 -9999 -9999 -9999 -9999 -9999 -9999 -9999 -9999 -9999 -9999 -9999 -9999 -9999 -9999 -9999 -9999 -9999 -9999 -9999 -9999 -9999 -9999 -9999 -9999 -9999 -9999 -9999 -9999 -9999 -9999 -9999 -9999 -9999 11.157077789306640625 17.53925323486328125 18.39925384521484375 23.4692535400390625 24.599254608154296875 
2.9094927310943603516 5.7194929122924804688 7.929492950439453125 11.669492721557617188 18.749607086181640625 20.479608535766601563 23.419607162475585938 23.899608612060546875 23.94960784912109375 23.399608612060546875 23.931489944458007813 24.411489486694335938 23.83148956298828125 24.161489486694335938 24.311489105224609375 22.451490402221679688 6.8632059097290039063 -9999 -9999 -9999 -9999 -9999 -9999 -9999 -9999 -9999 -9999 -9999 -9999 -9999 -9999 -9999 -9999 -9999 -9999 -9999 -9999 -9999 -9999 -9999 -9999 -9999 -9999 -9999 -9999 -9999 -9999 -9999 -9999 -9999 -9999 -9999 -9999 -9999 -9999 -9999 -9999 -9999 -9999 -9999 -9999 -9999 -9999 -9999 -9999 -9999 -9999 -9999 -9999 -9999 -9999 -9999 -9999 10.947077751159667969 17.089254379272460938 17.929254531860351563 24.229253768920898438 23.949253082275390625 
13.637500762939453125 16.627500534057617188 19.11750030517578125 21.44750213623046875 23.810688018798828125 26.960687637329101563 26.910686492919921875 25.450687408447265625 26.620687484741210938 25.57068634033203125 27.180589675903320313 26.520589828491210938 28.310588836669921875 29.860589981079101563 30.750589370727539063 29.950590133666992188 24.41001129150390625 22.180011749267578125 15.030011177062988281 1.3100112676620483398 1.1500113010406494141 1.030011296272277832 -9999 -9999 -9999 -9999 -9999 -9999 -9999 -9999 -9999 -9999 -9999 -9999 -9999 -9999 -9999 -9999 -9999 -9999 -9999 -9999 -9999 -9999 -9999 -9999 -9999 -9999 -9999 -9999 -9999 -9999 -9999 -9999 -9999 -9999 -9999 -9999 -9999 -9999 -9999 -9999 -9999 -9999 -9999 -9999 -9999 -9999 -9999 -9999 -9999 -9999 -9999 6.7050561904907226563 16.541088104248046875 17.781087875366210938 22.821088790893554688 24.981088638305664063 
23.757501602172851563 26.94750213623046875 28.58750152587890625 30.067501068115234375 28.880687713623046875 34.770687103271484375 55.410686492919921875 79.2506866455078125 65.6606903076171875 52.300685882568359375 47.310588836669921875 43.490589141845703125 42.630588531494140625 39.920589447021484375 37.04058837890625 35.04058837890625 31.680011749267578125 29.02001190185546875 28.760011672973632813 26.95001220703125 18.140010833740234375 6.7700114250183105469 0.24001128971576690674 0.68964034318923950195 -9999 -9999 -9999 -9999 -9999 -9999 -9999 -9999 -9999 -9999 -9999 -9999 -9999 -9999 -9999 -9999 -9999 0.12312187254428863525 -9999 -9999 -9999 -9999 -9999 -9999 -9999 -9999 -9999 -9999 -9999 -9999 -9999 -9999 -9999 -9999 -9999 -9999 -9999 -9999 -9999 -9999 -9999 -9999 -9999 -9999 -9999 -9999 -9999 -9999 -9999 -9999 15.511088371276855469 15.111087799072265625 19.67108917236328125 21.371088027954101563 
27.247501373291015625 28.787500381469726563 30.5175018310546875 33.87750244140625 39.630687713623046875 55.96068572998046875 95.1906890869140625 116.21068572998046875 100.96068572998046875 85.39068603515625 62.1805877685546875 52.94058990478515625 49.200588226318359375 48.29058837890625 42.9305877685546875 39.670589447021484375 33.1200103759765625 30.920011520385742188 31.980010986328125 29.45001220703125 22.820011138916015625 20.710010528564453125 14.220011711120605469 1.0596404075622558594 -9999 -9999 -9999 -9999 -9999 -9999 -9999 -9999 -9999 -9999 -9999 -9999 -9999 -9999 2.3831219673156738281 3.7231218814849853516 3.4331219196319580078 3.5431218147277832031 1.5955942869186401367 0.015594329684972763062 -9999 -9999 -9999 -9999 -9999 -9999 -9999 -9999 -9999 -9999 -9999 -9999 -9999 -9999 -9999 -9999 -9999 -9999 -9999 -9999 -9999 -9999 -9999 -9999 -9999 -9999 -9999 -9999 -9999 -9999 12.70108795166015625 16.781087875366210938 20.371088027954101563 22.791088104248046875 
33.1875 29.757501602172851563 30.557500839233398438 35.97750091552734375 57.6906890869140625 91.9706878662109375 138.8806915283203125 141.26068115234375 121.32068634033203125 111.04068756103515625 96.200592041015625 82.320587158203125 62.29058837890625 59.490589141845703125 54.66059112548828125 49.000591278076171875 37.3400115966796875 33.44001007080078125 33.760009765625 32.19001007080078125 26.890010833740234375 23.650011062622070313 22.220010757446289063 14.849639892578125 -9999 -9999 -9999 -9999 -9999 -9999 -9999 -9999 -9999 -9999 -9999 -9999 -9999 -9999 3.7531218528747558594 5.7131218910217285156 6.993122100830078125 4.8431220054626464844 3.0855944156646728516 2.5455942153930664063 0.38559433817863464355 -9999 -9999 -9999 -9999 -9999 -9999 -9999 -9999 -9999 -9999 -9999 -9999 -9999 -9999 -9999 -9999 -9999 -9999 -9999 -9999 -9999 -9999 -9999 -9999 -9999 -9999 -9999 -9999 -9999 7.5710883140563964844 17.541088104248046875 19.06108856201171875 21.771087646484375 
32.25749969482421875 32.527500152587890625 43.457500457763671875 62.61750030517578125 129.8306884765625 164.5006866455078125 166.1506805419921875 156.77069091796875 135.490692138671875 124.3306884765625 111.79058837890625 93.54058837890625 73.950592041015625 71.52059173583984375 65.8705902099609375 55.950588226318359375 39.400012969970703125 38.8400115966796875 37.55001068115234375 35.83000946044921875 30.600011825561523438 26.350011825561523438 24.560010910034179688 21.27964019775390625 7.3796405792236328125 0.92964035272598266602 -9999 -9999 -9999 -9999 -9999 -9999 -9999 -9999 -9999 -9999 2.2631218433380126953 0.46312186121940612793 4.9531216621398925781 4.9031219482421875 8.063121795654296875 6.8631219863891601563 5.6555943489074707031 4.8655943870544433594 3.0055942535400390625 1.6155943870544433594 -9999 -9999 -9999 -9999 -9999 -9999 -9999 -9999 -9999 -9999 -9999 -9999 -9999 -9999 -9999 -9999 -9999 -9999 -9999 -9999 -9999 -9999 -9999 -9999 -9999 -9999 -9999 -9999 0.6310882568359375 15.111087799072265625 19.8810882568359375 21.9910888671875 
47.8274993896484375 68.67749786376953125 114.17749786376953125 149.407501220703125 223.860687255859375 205.680694580078125 196.26068115234375 185.980682373046875 164.610687255859375 153.3306884765625 141.760589599609375 130.5605926513671875 108.04058837890625 96.010589599609375 80.9005889892578125 61.420589447021484375 45.16001129150390625 43.000011444091796875 41.350009918212890625 38.44001007080078125 34.0900115966796875 30.150011062622070313 27.850011825561523438 24.119640350341796875 9.619640350341796875 6.5196404457092285156 -9999 -9999 -9999 -9999 -9999 -9999 1.6871647834777832031 4.4871649742126464844 6.1571645736694335938 9.457164764404296875 10.733121871948242188 12.193121910095214844 13.483121871948242188 12.243122100830078125 11.113121986389160156 10.863121986389160156 10.925594329833984375 10.135594367980957031 7.765594482421875 6.6255941390991210938 3.0055942535400390625 -9999 -9999 -9999 -9999 -9999 -9999 -9999 -9999 -9999 -9999 -9999 -9999 -9999 -9999 -9999 -9999 -9999 -9999 -9999 -9999 -9999 -9999 -9999 -9999 -9999 -9999 -9999 -9999 10.161087989807128906 19.331089019775390625 20.081089019775390625 
57.5345458984375 72.374542236328125 145.874542236328125 210.85455322265625 234.195098876953125 226.0950927734375 217.7650909423828125 208.0950927734375 184.465087890625 172.5450897216796875 159.6379852294921875 148.0779876708984375 122.54798126220703125 109.57798004150390625 87.9779815673828125 60.807979583740234375 47.306232452392578125 44.20623016357421875 41.866230010986328125 39.846233367919921875 32.096233367919921875 30.336231231689453125 28.326231002807617188 25.341321945190429688 12.541321754455566406 3.3613219261169433594 0.29132202267646789551 -9999 -9999 -9999 1.6499999761581420898 2.25 3.9200000762939453125 9.3699998855590820313 12.609999656677246094 14.640000343322753906 15.383076667785644531 17.493076324462890625 17.023077011108398438 15.913076400756835938 13.2630767822265625 13.573076248168945313 13.827498435974121094 13.077498435974121094 9.8374986648559570313 7.8274984359741210938 5.0274982452392578125 2.5174984931945800781 -9999 -9999 -9999 -9999 -9999 -9999 -9999 -9999 -9999 -9999 -9999 -9999 -9999 -9999 -9999 -9999 -9999 -9999 -9999 -9999 -9999 -9999 -9999 -9999 -9999 -9999 -9999 2.7686274051666259766 19.8586273193359375 19.978628158569335938 
67.59454345703125 78.01454925537109375 168.374542236328125 256.7845458984375 263.78509521484375 259.15509033203125 248.0550994873046875 237.7050933837890625 212.6750946044921875 199.2350921630859375 183.397979736328125 169.4079742431640625 137.24798583984375 121.57798004150390625 98.37798309326171875 66.82798004150390625 59.336231231689453125 45.4662322998046875 42.82623291015625 40.116230010986328125 30.03623199462890625 30.636232376098632813 29.78623199462890625 26.22132110595703125 12.721322059631347656 7.351322174072265625 10.041321754455566406 9.5613222122192382813 1.8013219833374023438 2.5399999618530273438 3.1800000667572021484 5.7699999809265136719 10.189999580383300781 15.170000076293945313 16.70999908447265625 18.059999465942382813 18.823076248168945313 19.7930755615234375 19.713075637817382813 18.823076248168945313 16.243076324462890625 16.483076095581054688 16.137498855590820313 15.017498016357421875 12.057498931884765625 9.7574987411499023438 8.1174983978271484375 6.4074983596801757813 2.3181836605072021484 -9999 -9999 -9999 -9999 -9999 -9999 -9999 -9999 -9999 -9999 -9999 -9999 -9999 -9999 -9999 -9999 -9999 -9999 -9999 -9999 -9999 -9999 -9999 -9999 -9999 -9999 -9999 20.298627853393554688 21.17862701416015625 
76.15454864501953125 104.90454864501953125 243.21453857421875 300.304534912109375 316.445098876953125 314.465087890625 302.715087890625 286.555084228515625 253.28509521484375 235.065093994140625 215.9179840087890625 197.6979827880859375 158.337982177734375 140.3779754638671875 124.68798065185546875 105.84798431396484375 75.4062347412109375 58.356231689453125 43.56623077392578125 41.78623199462890625 31.506231307983398438 31.42623138427734375 29.956232070922851563 23.761322021484375 12.44132232666015625 11.69132232666015625 12.391322135925292969 11.511322021484375 8.33132171630859375 4.9499998092651367188 8.8699998855590820313 11.989999771118164063 16.719999313354492188 18.729999542236328125 19.75 21.350000381469726563 21.463075637817382813 22.08307647705078125 21.863077163696289063 20.83307647705078125 19.163076400756835938 19.5430755615234375 18.597497940063476563 16.627498626708984375 13.187498092651367188 11.03749847412109375 9.217498779296875 7.8174986839294433594 2.2981836795806884766 -9999 -9999 -9999 -9999 -9999 -9999 -9999 -9999 -9999 -9999 -9999 -9999 -9999 -9999 -9999 -9999 -9999 -9999 -9999 -9999 -9999 -9999 -9999 -9999 -9999 -9999 -9999 19.048627853393554688 21.558628082275390625 
302.47454833984375 369.58453369140625 410.754547119140625 450.83453369140625 501.04510498046875 556.7451171875 619.215087890625 520.41510009765625 394.0950927734375 349.77508544921875 317.61798095703125 278.827972412109375 222.49798583984375 197.86798095703125 173.48797607421875 147.467987060546875 92.32623291015625 74.7162322998046875 60.116230010986328125 47.9662322998046875 38.13623046875 34.406230926513671875 27.266231536865234375 23.231321334838867188 28.071321487426757813 28.22132110595703125 27.33132171630859375 25.47132110595703125 18.701322555541992188 14.539999961853027344 17.229999542236328125 21.590000152587890625 26.43000030517578125 27.200000762939453125 26.600000381469726563 27.299999237060546875 24.823076248168945313 24.203075408935546875 23.073076248168945313 22.373075485229492188 20.753076553344726563 19.453075408935546875 18.39749908447265625 17.627498626708984375 14.977498054504394531 14.587498664855957031 13.017498016357421875 10.947498321533203125 4.1181836128234863281 2.3981835842132568359 0.86818367242813110352 -9999 -9999 -9999 -9999 -9999 -9999 -9999 -9999 -9999 -9999 -9999 -9999 -9999 -9999 -9999 -9999 -9999 -9999 -9999 -9999 -9999 -9999 -9999 -9999 -9999 7.6186275482177734375 20.128627777099609375 
444.0445556640625 501.58453369140625 548.7845458984375 568.884521484375 598.6151123046875 673.03509521484375 673.65509033203125 528.88507080078125 429.995086669921875 396.8350830078125 362.087982177734375 329.61798095703125 265.537994384765625 237.967987060546875 213.48797607421875 188.43798828125 128.94622802734375 93.92623138427734375 68.5562286376953125 59.106231689453125 49.086231231689453125 47.726230621337890625 44.2162322998046875 37.91132354736328125 30.771322250366210938 29.72132110595703125 28.881322860717773438 27.761322021484375 25.011322021484375 24.670000076293945313 25.549999237060546875 26.350000381469726563 28.260000228881835938 30.3899993896484375 30.399999618530273438 30.629999160766601563 26.903076171875 25.533077239990234375 24.913076400756835938 23.673076629638671875 21.2630767822265625 20.653076171875 18.807498931884765625 18.547498703002929688 16.347497940063476563 15.577498435974121094 14.007498741149902344 12.8574981689453125 5.9881834983825683594 4.3481836318969726563 2.6481835842132568359 2.0881836414337158203 -9999 -9999 -9999 -9999 -9999 -9999 -9999 -9999 -9999 -9999 -9999 -9999 -9999 -9999 -9999 -9999 -9999 -9999 -9999 -9999 -9999 -9999 -9999 -9999 -9999 17.848627090454101563 
752.9345703125 739.84454345703125 710.2545166015625 684.33453369140625 685.5750732421875 746.06512451171875 727.705078125 554.715087890625 452.565093994140625 417.465087890625 385.657989501953125 357.427978515625 303.177978515625 275.16796875 249.337982177734375 225.3579864501953125 176.5162353515625 147.5262298583984375 115.69622802734375 84.19622802734375 68.22623443603515625 60.796230316162109375 55.416233062744140625 52.2313232421875 41.4313201904296875 34.751323699951171875 30.521322250366210938 29.991321563720703125 29.031322479248046875 28.350000381469726563 26.659999847412109375 27.3600006103515625 30.579999923706054688 32.75 32.520000457763671875 31.510000228881835938 27.863077163696289063 26.423076629638671875 25.463075637817382813 24.383075714111328125 22.403076171875 21.19307708740234375 19.377498626708984375 18.487499237060546875 17.377498626708984375 16.717498779296875 15.057498931884765625 13.367498397827148438 7.9081835746765136719 6.1281838417053222656 4.8281836509704589844 3.9681837558746337891 -9999 -9999 -9999 -9999 -9999 -9999 -9999 -9999 -9999 -9999 -9999 -9999 -9999 -9999 -9999 -9999 -9999 -9999 0.42874789237976074219 1.7787479162216186523 -9999 -9999 -9999 -9999 -9999 8.378627777099609375 
1036.2845458984375 951.32452392578125 861.08453369140625 803.57452392578125 773.1151123046875 819.53509521484375 682.465087890625 571.68511962890625 468.465087890625 432.805084228515625 401.61798095703125 376.75799560546875 328.087982177734375 304.197967529296875 278.41796875 254.267974853515625 210.606231689453125 189.8762359619140625 167.0962371826171875 144.7462310791015625 95.2462310791015625 79.9062347412109375 72.39623260498046875 68.261322021484375 45.22132110595703125 40.97132110595703125 34.83132171630859375 32.021320343017578125 31.561321258544921875 30.030000686645507813 28.489999771118164063 29.280000686645507813 32.70999908447265625 33.25 32.229999542236328125 31.239999771118164063 28.623075485229492188 27.493076324462890625 26.313076019287109375 25.273077011108398438 23.813076019287109375 22.393075942993164063 21.78749847412109375 20.277498245239257813 17.977499008178710938 17.387498855590820313 14.817498207092285156 12.127498626708984375 9.8081836700439453125 8.548183441162109375 6.4381837844848632813 4.7781834602355957031 1.6681836843490600586 -9999 -9999 -9999 -9999 -9999 -9999 -9999 -9999 -9999 -9999 -9999 -9999 -9999 -9999 -9999 -9999 -9999 -9999 2.1787478923797607422 -9999 -9999 -9999 -9999 -9999 -9999 
1420.8853759765625 1255.17529296875 1093.725341796875 1010.15533447265625 855.95166015625 761.3216552734375 662.671630859375 589.76165771484375 491.5516357421875 454.751617431640625 423.87042236328125 397.48040771484375 352.48040771484375 332.840423583984375 314.530426025390625 295.72039794921875 254.530487060546875 231.770477294921875 211.1004791259765625 194.55047607421875 169.8704833984375 149.5704803466796875 129.4804840087890625 108.3423004150390625 53.882297515869140625 45.602298736572265625 40.052295684814453125 37.1822967529296875 35.25229644775390625 34.713649749755859375 34.063648223876953125 34.963649749755859375 35.68364715576171875 35.40364837646484375 34.713649749755859375 32.883647918701171875 29.922498703002929688 29.372499465942382813 27.802499771118164063 26.942499160766601563 26.52249908447265625 25.422498703002929688 24.214998245239257813 23.074998855590820313 19.44499969482421875 18.144998550415039063 15.894999504089355469 13.294999122619628906 12.362499237060546875 10.27249908447265625 8.9624986648559570313 7.6624989509582519531 2.7824988365173339844 2.3924989700317382813 2.7124989032745361328 2.4950459003448486328 -9999 -9999 -9999 -9999 -9999 -9999 -9999 -9999 -9999 -9999 -9999 -9999 -9999 -9999 -9999 -9999 0.07517096400260925293 -9999 -9999 -9999 -9999 -9999 
1559.015380859375 1358.025390625 1160.685302734375 1048.79541015625 837.71160888671875 748.0516357421875 659.75164794921875 593.671630859375 501.951629638671875 465.0616455078125 433.72039794921875 406.42041015625 361.500396728515625 342.2904052734375 324.85040283203125 307.450408935546875 272.50048828125 250.7504730224609375 228.460479736328125 208.6004791259765625 181.1304779052734375 167.93048095703125 150.0404815673828125 119.36229705810546875 58.1522979736328125 48.4622955322265625 46.592296600341796875 45.19229888916015625 38.522296905517578125 40.04364776611328125 40.103649139404296875 40.4736480712890625 38.083648681640625 37.103649139404296875 35.673648834228515625 34.213649749755859375 30.52249908447265625 29.02249908447265625 28.442499160766601563 28.672498703002929688 28.362499237060546875 26.592498779296875 25.344999313354492188 23.984998703002929688 20.894998550415039063 19.33499908447265625 17.914999008178710938 15.114998817443847656 14.092498779296875 11.822499275207519531 10.27249908447265625 9.0824985504150390625 4.8224987983703613281 4.9224987030029296875 4.0724987983703613281 3.0750458240509033203 0.16504587233066558838 -9999 -9999 -9999 -9999 -9999 -9999 -9999 -9999 -9999 -9999 -9999 -9999 -9999 -9999 -9999 -9999 -9999 -9999 -9999 -9999 -9999 
1634.775390625 1367.96533203125 1177.1553955078125 1039.9053955078125 825.23162841796875 738.01165771484375 656.33160400390625 595.74163818359375 508.841644287109375 473.011627197265625 441.590423583984375 412.200408935546875 367.900421142578125 348.73040771484375 331.260406494140625 315.440399169921875 282.93048095703125 264.830474853515625 243.7204742431640625 221.780487060546875 187.990478515625 175.9204864501953125 163.340484619140625 145.7722930908203125 97.2322998046875 75.61229705810546875 62.322296142578125 58.812297821044921875 50.912296295166015625 45.6636505126953125 41.023647308349609375 41.6936492919921875 40.23365020751953125 38.503650665283203125 37.29364776611328125 35.353649139404296875 32.2324981689453125 30.932498931884765625 29.99250030517578125 29.02249908447265625 29.372499465942382813 27.722499847412109375 25.954999923706054688 24.574998855590820313 22.58499908447265625 21.394998550415039063 19.404998779296875 17.884998321533203125 16.012498855590820313 13.382498741149902344 12.282499313354492188 9.842498779296875 7.3724989891052246094 7.2124991416931152344 6.4124989509582519531 5.2750458717346191406 1.2950458526611328125 -9999 -9999 -9999 -9999 -9999 -9999 -9999 -9999 -9999 -9999 -9999 -9999 -9999 -9999 -9999 -9999 -9999 -9999 -9999 -9999 -9999 
1615.7353515625 1348.0753173828125 1158.71533203125 1016.975341796875 817.34161376953125 738.691650390625 665.83160400390625 607.09161376953125 520.34161376953125 483.7816162109375 451.61041259765625 421.950408935546875 376.5504150390625 356.640411376953125 339.49041748046875 324.070404052734375 292.010467529296875 275.910491943359375 257.73046875 236.150482177734375 197.31048583984375 183.840484619140625 172.18048095703125 158.9622955322265625 112.3722991943359375 92.54229736328125 81.05229949951171875 72.81229400634765625 56.242298126220703125 50.703647613525390625 45.893650054931640625 44.283649444580078125 41.79364776611328125 40.023647308349609375 39.7236480712890625 38.533649444580078125 34.462497711181640625 33.60250091552734375 31.532499313354492188 30.482500076293945313 29.962499618530273438 28.682498931884765625 27.804998397827148438 27.0149993896484375 22.604999542236328125 21.914999008178710938 21.784999847412109375 19.344999313354492188 18.042499542236328125 15.712498664855957031 13.792498588562011719 11.512498855590820313 10.012498855590820313 8.9924993515014648438 7.1324987411499023438 5.1750459671020507813 2.9450459480285644531 0.84504586458206176758 -9999 -9999 -9999 -9999 -9999 -9999 -9999 -9999 -9999 -9999 -9999 -9999 -9999 -9999 -9999 -9999 -9999 -9999 -9999 -9999 
1435.775390625 1277.1953125 1135.275390625 1011.32537841796875 820.16162109375 758.931640625 699.50164794921875 647.41162109375 558.63165283203125 521.5516357421875 487.180419921875 453.940399169921875 400.0604248046875 377.250396728515625 358.000396728515625 340.910400390625 311.010467529296875 294.1104736328125 277.830474853515625 259.50048828125 217.7904815673828125 199.30047607421875 186.8804779052734375 175.132293701171875 139.3123016357421875 117.7422943115234375 121.02230072021484375 111.4322967529296875 83.58229827880859375 63.1636505126953125 51.893650054931640625 49.213649749755859375 47.90364837646484375 47.083648681640625 44.453647613525390625 42.55364990234375 37.8125 35.55249786376953125 35.77249908447265625 34.892498016357421875 31.432498931884765625 31.342498779296875 29.625 28.344999313354492188 25.0149993896484375 23.554998397827148438 22.174999237060546875 20.934999465942382813 19.992498397827148438 19.292499542236328125 16.872499465942382813 13.632498741149902344 10.482499122619628906 8.1924991607666015625 5.8024988174438476563 3.6550459861755371094 1.2250459194183349609 0.35504588484764099121 -9999 -9999 -9999 -9999 -9999 -9999 -9999 -9999 -9999 -9999 -9999 -9999 -9999 -9999 -9999 -9999 -9999 -9999 -9999 0.11868163943290710449 
1434.3853759765625 1278.92529296875 1136.6353759765625 1018.92535400390625 839.74163818359375 775.66162109375 722.5616455078125 673.76165771484375 584.46160888671875 545.58160400390625 510.640411376953125 475.830413818359375 417.880401611328125 394.340423583984375 370.67041015625 352.0604248046875 319.210479736328125 304.720489501953125 288.44049072265625 270.460479736328125 230.8704833984375 212.2604827880859375 197.3204803466796875 186.04229736328125 166.2722930908203125 152.882293701171875 139.1822967529296875 126.92229461669921875 97.7122955322265625 75.26364898681640625 56.703647613525390625 51.253650665283203125 51.40364837646484375 50.8636474609375 47.7236480712890625 44.743648529052734375 38.55249786376953125 35.722499847412109375 35.752498626708984375 36.212497711181640625 34.262500762939453125 32.192501068115234375 30.254999160766601563 29.284999847412109375 25.914999008178710938 24.69499969482421875 23.44499969482421875 22.0149993896484375 20.932498931884765625 18.492498397827148438 16.972499847412109375 13.492499351501464844 10.152499198913574219 7.8024988174438476563 6.3324990272521972656 3.9750459194183349609 1.9750459194183349609 0.80504584312438964844 -9999 -9999 -9999 -9999 -9999 -9999 -9999 -9999 -9999 -9999 -9999 -9999 -9999 -9999 -9999 -9999 -9999 -9999 -9999 -9999 
1457.2447509765625 1300.314697265625 1167.2747802734375 1049.874755859375 871.55438232421875 806.484375 747.8843994140625 701.724365234375 615.68438720703125 579.20440673828125 543.630859375 505.790863037109375 439.890869140625 412.590850830078125 390.960845947265625 371.100860595703125 332.93499755859375 315.105010986328125 299.024993896484375 282.385009765625 244.57501220703125 224.3650054931640625 207.625 196.5449676513671875 176.174957275390625 165.15496826171875 153.7349700927734375 141.744964599609375 112.14496612548828125 88.86249542236328125 63.902500152587890625 55.102497100830078125 53.432498931884765625 52.5124969482421875 50.44249725341796875 48.152500152587890625 40.93000030517578125 34.710002899169921875 36.37000274658203125 35.030002593994140625 34.470001220703125 32.600002288818359375 30.337497711181640625 29.957498550415039063 27.197498321533203125 25.447498321533203125 24.14749908447265625 23.007497787475585938 20.760000228881835938 18.420000076293945313 16.149999618530273438 14.920000076293945313 11.489999771118164063 8.6999998092651367188 7.4999995231628417969 4.6591272354125976563 2.7491273880004882813 1.5491274595260620117 -9999 -9999 -9999 -9999 -9999 -9999 -9999 -9999 -9999 -9999 -9999 -9999 -9999 -9999 -9999 -9999 -9999 -9999 -9999 -9999 
1505.86474609375 1347.4647216796875 1214.5447998046875 1097.2947998046875 907.4044189453125 839.68438720703125 780.284423828125 729.96441650390625 658.6444091796875 621.4044189453125 581.2708740234375 543.57086181640625 473.030853271484375 443.710845947265625 418.0008544921875 393.31085205078125 348.415008544921875 329.70501708984375 312.024993896484375 295.32501220703125 259.355010986328125 237.7550048828125 217.8350067138671875 203.8549652099609375 184.0149688720703125 174.0849609375 163.0649566650390625 151.744964599609375 122.364959716796875 103.902496337890625 76.3125 58.37249755859375 56.792499542236328125 55.402500152587890625 53.602497100830078125 50.852497100830078125 43.280002593994140625 37.140003204345703125 37.640003204345703125 33.880001068115234375 34.780002593994140625 32.990001678466796875 31.617498397827148438 30.757497787475585938 28.137498855590820313 26.567499160766601563 24.757497787475585938 23.837497711181640625 20.049999237060546875 19.079999923706054688 17.279998779296875 15.579999923706054688 12.259999275207519531 9.5799999237060546875 7.5999994277954101563 4.4591274261474609375 2.8291273117065429688 1.8691273927688598633 -9999 -9999 -9999 -9999 -9999 -9999 -9999 -9999 -9999 -9999 -9999 -9999 -9999 -9999 -9999 -9999 -9999 -9999 -9999 -9999 
2306.134765625 1648.65478515625 1385.86474609375 1264.1947021484375 1049.46435546875 968.04437255859375 901.1243896484375 845.45440673828125 756.8944091796875 721.41436767578125 689.140869140625 649.0008544921875 577.68084716796875 542.96087646484375 511.2608642578125 480.32086181640625 418.295013427734375 390.045013427734375 364.485015869140625 342.08502197265625 301.89501953125 281.19500732421875 260.4949951171875 238.4549560546875 200.6949615478515625 188.7049560546875 178.7549591064453125 169.5349578857421875 141.9549560546875 120.30249786376953125 100.16249847412109375 81.842498779296875 61.902500152587890625 63.49250030517578125 60.9225006103515625 58.722499847412109375 49.520000457763671875 43.29000091552734375 37.8300018310546875 37.23000335693359375 37 36.44000244140625 34.3574981689453125 32.6875 30.527498245239257813 28.937498092651367188 27.237499237060546875 25.157497406005859375 21.779998779296875 19.629999160766601563 18.619998931884765625 18.239999771118164063 13.329999923706054688 11.579999923706054688 8.0999994277954101563 4.3391275405883789063 2.5891273021697998047 0.62912738323211669922 -9999 -9999 -9999 -9999 -9999 -9999 -9999 -9999 -9999 -9999 -9999 -9999 -9999 -9999 -9999 -9999 -9999 -9999 -9999 -9999 
2573.03466796875 2334.24462890625 1606.2447509765625 1395.2747802734375 1163.5943603515625 1067.304443359375 987.29437255859375 926.00439453125 830.9044189453125 788.3743896484375 752.69085693359375 718.36083984375 645.45086669921875 608.4908447265625 574.0108642578125 542.2808837890625 477.175018310546875 445.975006103515625 415.69500732421875 386.2650146484375 338.165008544921875 316.58502197265625 294.7449951171875 273.2149658203125 226.3249664306640625 205.2849578857421875 189.0749664306640625 176.5449676513671875 152.8549652099609375 130.8325042724609375 110.13249969482421875 91.52249908447265625 64.63249969482421875 65.66249847412109375 64.7624969482421875 61.9225006103515625 54.87000274658203125 46.960002899169921875 48.380001068115234375 43.090000152587890625 36.6100006103515625 37.970001220703125 36.8574981689453125 34.24749755859375 31.587497711181640625 29.847497940063476563 27.827497482299804688 26.197498321533203125 22.739999771118164063 21.670000076293945313 19.68000030517578125 18.840000152587890625 14.189999580383300781 12.119999885559082031 8.6799993515014648438 5.1791272163391113281 2.2791273593902587891 -9999 -9999 -9999 -9999 -9999 -9999 -9999 -9999 -9999 -9999 -9999 -9999 -9999 -9999 -9999 -9999 -9999 -9999 -9999 -9999 -9999 
2596.954833984375 2605.21484375 2350.3447265625 1976.164794921875 1397.6644287109375 1238.25439453125 1135.6844482421875 1051.96435546875 922.3543701171875 867.6544189453125 822.34088134765625 786.59088134765625 721.04083251953125 681.7808837890625 644.7608642578125 611.7408447265625 544.55499267578125 511.225006103515625 478.58502197265625 446.214996337890625 385.7449951171875 357.725006103515625 334.44500732421875 312.814971923828125 260.924957275390625 235.3249664306640625 212.2149658203125 192.554962158203125 164.1049652099609375 147.6324920654296875 124.7624969482421875 102.21250152587890625 68.75250244140625 67.69249725341796875 68.30249786376953125 65.032501220703125 58.44000244140625 51.130001068115234375 51.48000335693359375 46.090000152587890625 36.390003204345703125 36.560001373291015625 37.487499237060546875 35.967498779296875 32.4375 31.087497711181640625 29.3574981689453125 26.637498855590820313 22.909999847412109375 21.899999618530273438 20.549999237060546875 20.06999969482421875 14.420000076293945313 11.739999771118164063 8.9899997711181640625 5.039127349853515625 1.909127354621887207 -9999 -9999 -9999 -9999 -9999 -9999 -9999 -9999 -9999 -9999 -9999 -9999 -9999 -9999 -9999 -9999 -9999 -9999 -9999 -9999 -9999 
2602.884765625 2631.604736328125 2657.48486328125 2686.914794921875 2635.96435546875 2427.38427734375 2103.494384765625 1770.304443359375 1126.744384765625 995.5244140625 913.40087890625 861.2308349609375 801.05084228515625 765.870849609375 728.600830078125 696.31085205078125 629.0350341796875 591.39501953125 556.89501953125 523.46502685546875 455.964996337890625 421.865020751953125 389.985015869140625 361.234954833984375 304.244964599609375 275.314971923828125 249.7649688720703125 224.8149566650390625 180.6349639892578125 164.0724945068359375 144.6824951171875 119.9225006103515625 79.41249847412109375 70.7924957275390625 70.37249755859375 68.032501220703125 60.76000213623046875 53.640003204345703125 53.15000152587890625 45.990001678466796875 38.740001678466796875 37.880001068115234375 38.627498626708984375 37.5774993896484375 34.6074981689453125 32.407497406005859375 30.087497711181640625 27.557498931884765625 24.359998703002929688 23.309999465942382813 22.299999237060546875 20.600000381469726563 15.049999237060546875 11.649999618530273438 9.0899991989135742188 5.8891272544860839844 0.30912742018699645996 -9999 -9999 -9999 -9999 -9999 -9999 -9999 -9999 -9999 -9999 -9999 -9999 -9999 -9999 -9999 -9999 -9999 -9999 -9999 -9999 -9999 
2707.8466796875 2723.506591796875 2754.796630859375 2769.32666015625 2767.754638671875 2791.754638671875 2833.49462890625 2869.454833984375 2893.4248046875 2879.334716796875 2168.997314453125 1210.447265625 986.3773193359375 942.3873291015625 912.04730224609375 877.29730224609375 840.24053955078125 807.39056396484375 766.37054443359375 717.6705322265625 629.6605224609375 582.86053466796875 540.11053466796875 501.32086181640625 416.4908447265625 375.870849609375 340.18084716796875 305.520843505859375 245.6408538818359375 219.6754913330078125 194.19549560546875 169.345489501953125 114.385498046875 90.20549774169921875 81.2754974365234375 74.42549896240234375 66.76749420166015625 60.797496795654296875 55.907497406005859375 49.977497100830078125 45.03749847412109375 43.087497711181640625 41.02500152587890625 40.31500244140625 37.02500152587890625 35.365001678466796875 33.075000762939453125 30.7350006103515625 26.542497634887695313 25.812498092651367188 24.2324981689453125 21.962497711181640625 16.592498779296875 13.862498283386230469 10.362498283386230469 7.6594796180725097656 -9999 -9999 -9999 -9999 -9999 -9999 -9999 -9999 -9999 -9999 -9999 -9999 -9999 -9999 -9999 -9999 -9999 -9999 -9999 -9999 -9999 -9999 
2755.486572265625 2768.32666015625 2783.5966796875 2805.4765625 2825.834716796875 2822.1748046875 2821.24462890625 2864.90478515625 2923.86474609375 2936.334716796875 2943.75732421875 2634.577392578125 1402.037353515625 1196.267333984375 1122.3272705078125 1074.207275390625 1009.6705322265625 950.820556640625 886.90057373046875 824.49053955078125 724.570556640625 681.9105224609375 639.02056884765625 591.140869140625 490.950836181640625 445.0108642578125 400.290863037109375 358.380859375 282.05084228515625 252.1454925537109375 226.475494384765625 201.295501708984375 142.1454925537109375 115.89550018310546875 92.3054962158203125 79.2754974365234375 68.81749725341796875 63.74749755859375 58.337497711181640625 51.98749542236328125 46.007495880126953125 45.42749786376953125 43.9250030517578125 42.215000152587890625 38.02500152587890625 35.77500152587890625 33.125 31.465002059936523438 27.812498092651367188 26.182498931884765625 24.762498855590820313 22.852497100830078125 17.362497329711914063 14.852498054504394531 11.55249786376953125 8.7394800186157226563 -9999 -9999 -9999 -9999 -9999 -9999 -9999 -9999 -9999 -9999 -9999 -9999 -9999 -9999 -9999 -9999 -9999 -9999 -9999 -9999 -9999 -9999 
2800.87646484375 2824.366455078125 2838.82666015625 2846.886474609375 2871.96484375 2871.974853515625 2871.974853515625 2874.8046875 2929.44482421875 2969.61474609375 2983.977294921875 2986.807373046875 2986.0673828125 2801.1171875 2566.79736328125 2280.327392578125 1376.8905029296875 1191.840576171875 1057.570556640625 942.75054931640625 806.590576171875 757.530517578125 713.340576171875 665.0908203125 560.630859375 505.220855712890625 456.530853271484375 408.840850830078125 320.080841064453125 281.485504150390625 252.975494384765625 227.3054962158203125 173.8954925537109375 141.035491943359375 112.9654998779296875 93.79549407958984375 76.00749969482421875 66.3074951171875 62.777496337890625 53.877498626708984375 47.6374969482421875 47.627498626708984375 45.625 43.10500335693359375 40.005001068115234375 36.725002288818359375 35.06500244140625 32.625 28.462497711181640625 27.55249786376953125 25.782497406005859375 23.91249847412109375 17.94249725341796875 14.30249786376953125 11.112498283386230469 7.8094797134399414063 -9999 -9999 3.0594794750213623047 0.30947956442832946777 -9999 -9999 -9999 -9999 -9999 -9999 -9999 -9999 -9999 -9999 -9999 -9999 -9999 -9999 -9999 -9999 -9999 -9999 
2831.62646484375 2849.37646484375 2870.20654296875 2886.16650390625 2913.24462890625 2912.96484375 2920.474853515625 2926.754638671875 2915.524658203125 2958.61474609375 2999.207275390625 3030.83740234375 3048.167236328125 3078.79736328125 3092.207275390625 3102.75732421875 2933.310546875 2346.23046875 1574.4505615234375 1199.9405517578125 932.89056396484375 852.7105712890625 788.090576171875 734.4908447265625 623.40087890625 568.3408203125 517.2308349609375 459.410858154296875 360.42083740234375 316.215484619140625 275.785491943359375 245.4654998779296875 195.4954986572265625 169.2454986572265625 136.975494384765625 109.7454986572265625 80.6974945068359375 72.8274993896484375 63.527496337890625 58.397495269775390625 50.877498626708984375 51.077495574951171875 48.375 46.66500091552734375 40.545001983642578125 38.905002593994140625 36.80500030517578125 34.095001220703125 29.752498626708984375 28.66249847412109375 26.602497100830078125 24.9824981689453125 17.952497482299804688 13.712497711181640625 10.002497673034667969 6.6694793701171875 -9999 -9999 0.77947956323623657227 3.5294795036315917969 1.7194795608520507813 -9999 -9999 -9999 -9999 -9999 -9999 -9999 -9999 -9999 -9999 -9999 -9999 -9999 -9999 -9999 -9999 -9999 
2871.276611328125 2899.3466796875 2934.366455078125 2962.196533203125 2984.5146484375 2978.454833984375 2984.49462890625 2986.78466796875 3011.32470703125 3012.314697265625 3000.33740234375 3000.597412109375 3069.077392578125 3103.5673828125 3129.167236328125 3143.79736328125 3177.96044921875 3182.320556640625 3187.810546875 3170.880615234375 2010.280517578125 1222.310546875 1038.4805908203125 911.140869140625 736.32086181640625 669.0108642578125 603.890869140625 539.20086669921875 404.950836181640625 352.4954833984375 304.2554931640625 267.93548583984375 214.295501708984375 192.2054901123046875 168.82550048828125 138.5155029296875 94.65749359130859375 79.39749908447265625 69.48749542236328125 64.87749481201171875 59.74749755859375 56.227497100830078125 52.375 48.94499969482421875 44.715000152587890625 42.085002899169921875 39.49500274658203125 36.9550018310546875 33.212497711181640625 31.41249847412109375 28.702497482299804688 26.092498779296875 19.722497940063476563 15.072498321533203125 11.522498130798339844 9.3794794082641601563 1.4294795989990234375 -9999 -9999 5.6394796371459960938 0.5394795536994934082 -9999 -9999 -9999 -9999 -9999 -9999 -9999 -9999 -9999 -9999 -9999 -9999 -9999 -9999 -9999 -9999 -9999 
2849.2265625 2896.03662109375 2938.526611328125 2967.466552734375 3000.40478515625 3019.69482421875 3017.204833984375 3016.82470703125 3043.544677734375 3051.854736328125 3058.287353515625 3040.707275390625 3037.7373046875 3089.54736328125 3135.9873046875 3154.79736328125 3184.720458984375 3189.1904296875 3200.560546875 3207.560546875 3021.240478515625 2119.990478515625 1439.6805419921875 1092.07080078125 801.16082763671875 725.81085205078125 657.42083740234375 587.61083984375 429.790863037109375 370.45550537109375 318.905487060546875 273.5155029296875 219.4654998779296875 197.1855010986328125 174.385498046875 144.345489501953125 104.06749725341796875 84.59749603271484375 76.24749755859375 67.26749420166015625 61.53749847412109375 58.027496337890625 53.255001068115234375 50.865001678466796875 46.875 44.225002288818359375 41.1750030517578125 39.06500244140625 34.58249664306640625 32.44249725341796875 30.242498397827148438 27.852497100830078125 20.87249755859375 16.812498092651367188 13.182497978210449219 10.989480018615722656 5.6294794082641601563 0.76947957277297973633 2.1494796276092529297 5.6494793891906738281 -9999 -9999 -9999 -9999 -9999 -9999 -9999 -9999 -9999 -9999 -9999 -9999 -9999 -9999 -9999 -9999 -9999 -9999 
2855.886474609375 2902.646484375 2945.78662109375 2967.7265625 3002.36474609375 3029.544677734375 3038.624755859375 3042.07470703125 3064.044677734375 3077.11474609375 3084.8671875 3088.917236328125 3054.447265625 3055.827392578125 3113.63720703125 3151.4873046875 3181.860595703125 3187.50048828125 3205.37060546875 3209.740478515625 3204.4306640625 3104.810546875 2643.9404296875 1548.120849609375 878.95086669921875 784.100830078125 713.16082763671875 640.5008544921875 456.93084716796875 389.415496826171875 333.345489501953125 285.43548583984375 222.045501708984375 199.5554962158203125 175.4355010986328125 143.9355010986328125 112.65749359130859375 93.0475006103515625 80.027496337890625 70.3574981689453125 63.937496185302734375 58.517498016357421875 54.27500152587890625 50.975002288818359375 48.284999847412109375 45.645000457763671875 43.2350006103515625 40.185001373291015625 35.142498016357421875 33.822498321533203125 31.342498779296875 28.922498703002929688 22.012498855590820313 17.752498626708984375 14.12249755859375 11.969479560852050781 5.6294794082641601563 4.0594797134399414063 6.9094796180725097656 2.009479522705078125 -9999 -9999 -9999 -9999 -9999 -9999 -9999 -9999 -9999 -9999 -9999 -9999 -9999 -9999 -9999 -9999 -9999 -9999 
2862.278564453125 2917.588623046875 2957.32861328125 2974.1884765625 3002.18505859375 3022.125 3032.175048828125 3029.764892578125 3056.69482421875 3068.31494140625 3083.417236328125 3104.877197265625 3108.63720703125 3087.987060546875 3091.1171875 3135.1171875 3182.91259765625 3191.91259765625 3204.3525390625 3211.46240234375 3214.012451171875 3211.2724609375 3137.482421875 2309.1201171875 977.96002197265625 854.67999267578125 770.70001220703125 697.27001953125 490.040008544921875 407.995025634765625 347.14501953125 298.135040283203125 223.565032958984375 201.1950225830078125 173.7250213623046875 145.3250274658203125 118.86749267578125 99.98748779296875 83.207489013671875 75.5074920654296875 65.7574920654296875 61.837490081787109375 55.80500030517578125 53.02500152587890625 48.295001983642578125 46.575000762939453125 43.88500213623046875 41.795001983642578125 37.45999908447265625 35.1699981689453125 33.119998931884765625 30.489999771118164063 23.999998092651367188 18.739999771118164063 15.659998893737792969 13.375 5.1349997520446777344 5.6849994659423828125 2.5649995803833007813 -9999 -9999 -9999 -9999 -9999 -9999 -9999 -9999 -9999 -9999 -9999 -9999 -9999 -9999 -9999 -9999 -9999 -9999 -9999 
2874.5185546875 2912.978515625 2937.888671875 2949.11865234375 2958.044921875 2968.044921875 2983.204833984375 2987.074951171875 3021.5849609375 3047.14501953125 3062.917236328125 3085.667236328125 3132.877197265625 3148.96728515625 3156.737060546875 3159.937255859375 3154.12255859375 3185.5224609375 3190.742431640625 3199.70263671875 3218.922607421875 3219.492431640625 3218.262451171875 3163.4599609375 1321.1199951171875 1046.75 903.20001220703125 810.15997314453125 579.28997802734375 458.83502197265625 383.59503173828125 322.1650390625 230.305023193359375 205.2050323486328125 179.2550201416015625 151.0450286865234375 125.7574920654296875 114.16748809814453125 94.13748931884765625 79.41748809814453125 74.32749176025390625 65.18749237060546875 61.4250030517578125 59.075000762939453125 50.965000152587890625 48.445003509521484375 46.74500274658203125 44.77500152587890625 41.37999725341796875 39.729999542236328125 36.200000762939453125 32.93000030517578125 27.45999908447265625 22.299999237060546875 18.339998245239257813 14.69499969482421875 10.234999656677246094 6.354999542236328125 -9999 -9999 -9999 -9999 -9999 -9999 -9999 -9999 -9999 -9999 -9999 -9999 -9999 -9999 -9999 -9999 -9999 -9999 -9999 -9999 
2831.258544921875 2854.49853515625 2881.82861328125 2900.678466796875 2928.175048828125 2949.625 2967.954833984375 2983.094970703125 3009.44482421875 3068.135009765625 3083.38720703125 3098.01708984375 3132.687255859375 3168.05712890625 3185.01708984375 3189.6171875 3181.672607421875 3193.50244140625 3202.862548828125 3216.802490234375 3238.092529296875 3239.722412109375 3237.70263671875 3235.739990234375 1920.219970703125 1193.3499755859375 997.760009765625 884.96002197265625 658.07000732421875 517.32501220703125 421.96502685546875 339.135040283203125 233.7750244140625 207.185028076171875 177.9550323486328125 158.315032958984375 131.397491455078125 121.51749420166015625 102.337493896484375 82.71749114990234375 76.2874908447265625 68.927490234375 64.72499847412109375 60.715000152587890625 51.9850006103515625 49.66500091552734375 48.145000457763671875 46.505001068115234375 43.649997711181640625 40.149997711181640625 37.30999755859375 34.950000762939453125 28.09999847412109375 24.229999542236328125 20.879999160766601563 16.534999847412109375 12.284999847412109375 10.69499969482421875 5.3649997711181640625 -9999 -9999 -9999 -9999 -9999 -9999 -9999 -9999 -9999 -9999 -9999 -9999 -9999 -9999 -9999 -9999 -9999 -9999 -9999 
2811.428466796875 2833.30859375 2862.668701171875 2889.048583984375 2938.44482421875 2957.14501953125 2968.324951171875 2982.534912109375 3002.56494140625 3057.514892578125 3077.547119140625 3090.97705078125 3124.817138671875 3156.087158203125 3181.917236328125 3195.1171875 3213.612548828125 3190.79248046875 3212.54248046875 3211.672607421875 3244.322509765625 3240.322509765625 3239.00244140625 3238.93994140625 2262.409912109375 1309.6199951171875 1103.699951171875 967.15997314453125 733.80999755859375 568.74505615234375 452.70501708984375 354.6650390625 236.0350341796875 208.1050262451171875 175.7650299072265625 164.9250335693359375 140.9174957275390625 127.96749114990234375 112.3474884033203125 94.41748809814453125 79.18749237060546875 72.2874908447265625 68.7050018310546875 62.9850006103515625 53.4250030517578125 50.9850006103515625 50.2050018310546875 48.005001068115234375 44.9199981689453125 41.84999847412109375 39.34999847412109375 36.219997406005859375 29.339998245239257813 25.859998703002929688 23.199998855590820313 18.94499969482421875 13.69499969482421875 11.924999237060546875 10.004999160766601563 2.2949995994567871094 -9999 -9999 -9999 -9999 -9999 -9999 -9999 -9999 -9999 -9999 -9999 -9999 -9999 -9999 -9999 -9999 -9999 -9999 
2828.258544921875 2852.228515625 2881.048583984375 2907.55859375 2948.844970703125 2962.43505859375 2966.35498046875 2978.46484375 3004.474853515625 3042.81494140625 3076.817138671875 3088.397216796875 3126.46728515625 3144.707275390625 3179.627197265625 3198.587158203125 3213.0625 3221.04248046875 3217.79248046875 3219.6025390625 3250.33251953125 3248.25244140625 3242.5224609375 3244.489990234375 2901.300048828125 1691.6800537109375 1246.1800537109375 1071.239990234375 809.719970703125 625.2650146484375 480.71502685546875 370.155029296875 238.565032958984375 210.1950225830078125 188.3850250244140625 171.3850250244140625 147.23748779296875 133.8874969482421875 118.7274932861328125 102.61749267578125 80.5974884033203125 76.2874908447265625 71.05500030517578125 64.93500518798828125 54.10500335693359375 52.825000762939453125 51.7350006103515625 50.2050018310546875 45.329998016357421875 43.579998016357421875 40.649997711181640625 37.6399993896484375 31.06999969482421875 27.469999313354492188 24.839998245239257813 21.05500030517578125 15.844999313354492188 13.184999465942382813 11.234999656677246094 8.4749994277954101563 -9999 -9999 -9999 -9999 -9999 -9999 -9999 -9999 -9999 -9999 -9999 -9999 -9999 -9999 -9999 -9999 -9999 -9999 
2875.82861328125 2894.28857421875 2916.55859375 2935.148681640625 2954.794921875 2961.494873046875 2977.19482421875 3000.27490234375 3031.284912109375 3035.96484375 3068.2470703125 3083.8271484375 3138.38720703125 3171.88720703125 3180.47705078125 3183.30712890625 3208.71240234375 3213.4326171875 3222.0625 3231.70263671875 3231.692626953125 3239.04248046875 3236.04248046875 3249.530029296875 3260.75 3255.719970703125 2710.419921875 1455.0699462890625 972.3699951171875 792.46502685546875 561.5150146484375 401.59503173828125 237.2750244140625 216.805023193359375 197.125030517578125 179.2950286865234375 152.8574981689453125 139.327484130859375 131.9774932861328125 119.897491455078125 88.49748992919921875 81.65749359130859375 75.7050018310546875 69.68500518798828125 56.785003662109375 57.655002593994140625 54.865001678466796875 52.6750030517578125 46.869998931884765625 43.719997406005859375 42.23999786376953125 39.979999542236328125 35.219997406005859375 31.549999237060546875 28.369998931884765625 26.854999542236328125 21.795000076293945313 19.094999313354492188 14.964999198913574219 12.564999580383300781 -9999 -9999 -9999 -9999 -9999 -9999 -9999 -9999 -9999 -9999 -9999 -9999 -9999 -9999 -9999 -9999 -9999 -9999 
2872.86767578125 2873.317626953125 2889.09765625 2915.6474609375 2939.9951171875 2949.01513671875 2969.875 2994.76513671875 3032.114990234375 3035.9951171875 3063.6650390625 3083.125 3146.514892578125 3162.324951171875 3180.155029296875 3181.39501953125 3198.590087890625 3213.230224609375 3219.64013671875 3225.91015625 3230.070068359375 3244.750244140625 3241.820068359375 3235.894775390625 3267.24462890625 3268.46484375 3145.3447265625 1874.11474609375 1110.11474609375 903.38751220703125 637.0875244140625 424.5875244140625 240.4775238037109375 221.9175262451171875 204.9975128173828125 184.107513427734375 158.285003662109375 146.31500244140625 136.2550048828125 123.44500732421875 95.37500762939453125 85.70500946044921875 77.8899993896484375 72.34999847412109375 58.79999542236328125 59.01999664306640625 56.969997406005859375 53.599994659423828125 47.1875 45.42749786376953125 43.22750091552734375 41.207500457763671875 37.087497711181640625 34.137500762939453125 30.027500152587890625 28.822500228881835938 22.9225006103515625 20.8125 17.182500839233398438 13.552500724792480469 3.6025006771087646484 -9999 -9999 -9999 -9999 -9999 -9999 -9999 -9999 -9999 -9999 -9999 -9999 -9999 -9999 -9999 -9999 -9999 
2875.36767578125 2874.53759765625 2870.9775390625 2884.267578125 2915.655029296875 2942.4951171875 2967.7451171875 2987.175048828125 3028.135009765625 3054.715087890625 3072.675048828125 3109.014892578125 3151.1650390625 3165.794921875 3176.625 3188.52490234375 3193.380126953125 3203.840087890625 3217.820068359375 3225.8701171875 3237.610107421875 3240.900146484375 3253.690185546875 3242.684814453125 3268.11474609375 3271.894775390625 3274.2646484375 2803.894775390625 1342.0546875 1066.5775146484375 759.26751708984375 459.38751220703125 248.3375244140625 224.6975250244140625 208.4675140380859375 189.427520751953125 160.975006103515625 153.06500244140625 142.4650115966796875 128.4950103759765625 98.65500640869140625 87.06501007080078125 81.1699981689453125 74.87999725341796875 60.489994049072265625 61.839996337890625 58.18999481201171875 55.4499969482421875 49.657501220703125 46.747501373291015625 45.0774993896484375 42.75749969482421875 37.597499847412109375 34.497501373291015625 31.847499847412109375 29.49250030517578125 24.532501220703125 22.502500534057617188 19.292501449584960938 16.152500152587890625 9.6825008392333984375 -9999 -9999 -9999 -9999 -9999 -9999 -9999 -9999 -9999 -9999 -9999 -9999 -9999 -9999 -9999 -9999 -9999 
2858.59765625 2856.1875 2867.4375 2862.84765625 2886.175048828125 2934.64501953125 2963.385009765625 2995.1650390625 3071.155029296875 3096.445068359375 3096.635009765625 3138.405029296875 3141.98486328125 3159.705078125 3183.465087890625 3205.905029296875 3205.500244140625 3205.730224609375 3218.26025390625 3228.440185546875 3239.7900390625 3243.380126953125 3248.7900390625 3261.374755859375 3249.954833984375 3275.294677734375 3280.354736328125 3252.884765625 1713.6846923828125 1397.0574951171875 1040.3375244140625 542.41754150390625 258.13751220703125 232.20751953125 214.297515869140625 192.1875152587890625 164.6150054931640625 158.605010986328125 144.9550018310546875 132.0150146484375 101.96500396728515625 86.94500732421875 83.73999786376953125 76.85999298095703125 63.649993896484375 62.039997100830078125 58.9799957275390625 56.279994964599609375 51.277500152587890625 47.087497711181640625 45.697498321533203125 44.197498321533203125 38.417499542236328125 35.387500762939453125 32.987499237060546875 30.692501068115234375 25.622501373291015625 23.862501144409179688 20.942501068115234375 18.272500991821289063 11.822501182556152344 6.9522938728332519531 -9999 -9999 2.3222939968109130859 -9999 -9999 -9999 -9999 -9999 -9999 -9999 -9999 -9999 -9999 -9999 -9999 -9999 
2812.1875 2808.8974609375 2831.777587890625 2853.527587890625 2871.2451171875 2894.72509765625 2928.955078125 2988.28515625 3087.135009765625 3115.485107421875 3115.264892578125 3144.125 3170.994873046875 3180.445068359375 3172.494873046875 3170.81494140625 3198.090087890625 3208.7900390625 3219.080078125 3224.5302734375 3239.93017578125 3253.41015625 3253.1201171875 3251.564697265625 3269.7646484375 3254.234619140625 3275.6748046875 3289.90478515625 3289.814697265625 3030.6875 2084.447509765625 1156.407470703125 278.02752685546875 245.0675201416015625 215.867523193359375 198.367523193359375 181.9550018310546875 170.3350067138671875 156.4550018310546875 142.3050079345703125 120.5850067138671875 104.0050048828125 88.30999755859375 84.62999725341796875 71.60999298095703125 67.59999847412109375 62.2599945068359375 59.029994964599609375 53.47750091552734375 50.39749908447265625 47.987499237060546875 44.4375 38.947498321533203125 36.11750030517578125 33.747501373291015625 31.862501144409179688 26.402500152587890625 25.24250030517578125 22.972499847412109375 20.322500228881835938 15.082500457763671875 12.682293891906738281 8.7622938156127929688 1.9222940206527709961 3.8622939586639404297 -9999 -9999 -9999 -9999 -9999 -9999 -9999 -9999 -9999 -9999 -9999 -9999 -9999 
2814.777587890625 2820.66748046875 2841.4775390625 2860.6474609375 2876.0849609375 2905.195068359375 2930.054931640625 2968.965087890625 3083.695068359375 3112.804931640625 3121.965087890625 3139.344970703125 3147.695068359375 3160.18505859375 3169.0048828125 3171.294921875 3203.4501953125 3216.2802734375 3220.5302734375 3219.080078125 3238.460205078125 3246.020263671875 3254.91015625 3253.44482421875 3263.684814453125 3275.584716796875 3262.61474609375 3286.0546875 3298.604736328125 3284.1875 2295.507568359375 1069.177490234375 291.727508544921875 249.797515869140625 213.057525634765625 196.14752197265625 189.875 173.69500732421875 160.105010986328125 147.2650146484375 128.1150054931640625 116.3050079345703125 101.09999847412109375 88.32999420166015625 74.45999908447265625 67.42999267578125 63.30999755859375 59.219997406005859375 52.64749908447265625 52.487499237060546875 47.887500762939453125 44.527500152587890625 38.86750030517578125 36.657501220703125 34.2975006103515625 31.862501144409179688 28.182500839233398438 25.762500762939453125 23.582500457763671875 21.032501220703125 16.282501220703125 13.662294387817382813 6.972293853759765625 2.7622940540313720703 1.3622939586639404297 -9999 -9999 -9999 -9999 -9999 -9999 -9999 -9999 -9999 -9999 -9999 -9999 -9999 
2848.197509765625 2858.627685546875 2875.267578125 2900.4375 2933.7451171875 2947.275146484375 2968.375 3000.89501953125 3078.985107421875 3098.72509765625 3109.364990234375 3123.8349609375 3152.925048828125 3166.114990234375 3170.925048828125 3173.48486328125 3195.5400390625 3206.8701171875 3212.070068359375 3217.91015625 3234.43017578125 3239.41015625 3245.16015625 3257.044677734375 3259.5546875 3277.7646484375 3284.15478515625 3287.3046875 3295.07470703125 3291.20751953125 2393.967529296875 1157.8475341796875 310.237518310546875 255.02752685546875 215.3775177001953125 203.4175262451171875 192.3350067138671875 179.345001220703125 163.7050018310546875 149.4950103759765625 134.385009765625 122.0850067138671875 108.09999847412109375 93.07999420166015625 78.5099945068359375 67.8699951171875 62.819995880126953125 59.529994964599609375 54.61750030517578125 51.847499847412109375 46.807498931884765625 45.207500457763671875 40.247501373291015625 38.217498779296875 34.3274993896484375 32.9225006103515625 28.452501296997070313 26.1725006103515625 23.942501068115234375 21.862501144409179688 16.942501068115234375 14.002293586730957031 9.81229400634765625 3.4022939205169677734 -9999 -9999 -9999 -9999 -9999 -9999 -9999 -9999 -9999 -9999 -9999 -9999 -9999 -9999 
2885.407470703125 2888.257568359375 2920.717529296875 2932.517578125 2952.775146484375 2969.965087890625 2997.78515625 3030.64501953125 3089.614990234375 3096.255126953125 3098.955078125 3117.5048828125 3153.594970703125 3167.264892578125 3178.175048828125 3184.875 3191.91015625 3206.940185546875 3217.1201171875 3225.820068359375 3232.570068359375 3233.14013671875 3240.730224609375 3250.40478515625 3266.474853515625 3266.65478515625 3290.19482421875 3293.004638671875 3295.334716796875 3186.7275390625 2103.74755859375 1191.0975341796875 335.877532958984375 261.90753173828125 221.4475250244140625 206.0075225830078125 195.795013427734375 184.4850006103515625 169.355010986328125 153.6750030517578125 139.1550140380859375 127.2750091552734375 119.7299957275390625 102.29999542236328125 80.399993896484375 70.09999847412109375 64.10999298095703125 61.30999755859375 55.417499542236328125 50.78749847412109375 47.9375 45.987499237060546875 41.0774993896484375 38.39749908447265625 35.307498931884765625 33.762500762939453125 27.802501678466796875 26.632501602172851563 24.342500686645507813 22.192501068115234375 18.222499847412109375 15.56229400634765625 10.732294082641601563 6.1622939109802246094 -9999 -9999 -9999 -9999 -9999 -9999 -9999 -9999 -9999 -9999 -9999 -9999 -9999 -9999 
2967.857421875 2973.817626953125 2978.82763671875 2993.887451171875 3013.425048828125 3009.52490234375 3004.114990234375 3037.5849609375 3097.405029296875 3109.0849609375 3129.177490234375 3145.9375 3156.547607421875 3177.867431640625 3187.08740234375 3195.24755859375 3196.48486328125 3193.604736328125 3193.124755859375 3196.454833984375 3213.474853515625 3222.394775390625 3236.184814453125 3245.532470703125 3272.882568359375 3283.142578125 3288.302490234375 3295.952392578125 3297.79248046875 3295.005126953125 2744.705078125 1657.7850341796875 445.43499755859375 281.44500732421875 226.3050079345703125 212.3950042724609375 200.4824981689453125 190.37249755859375 178.6725006103515625 155.282501220703125 146.662506103515625 134.38250732421875 124.05750274658203125 113.09749603271484375 83.717498779296875 74.94750213623046875 70.0475006103515625 63.8574981689453125 55.524997711181640625 54.00499725341796875 52.344997406005859375 50.134998321533203125 42.80500030517578125 39.47499847412109375 37.5449981689453125 35.502498626708984375 29.892498016357421875 28.132497787475585938 26.69249725341796875 24.712497711181640625 19.432497024536132813 15.457805633544921875 12.817805290222167969 10.537805557250976563 1.9778053760528564453 3.1178052425384521484 3.6978054046630859375 0.89780533313751220703 -9999 -9999 -9999 -9999 -9999 -9999 -9999 -9999 -9999 -9999 
2972.95751953125 2985.177490234375 2993.8974609375 3007.78759765625 3017.02490234375 3022.794921875 3025.175048828125 3010.0849609375 3078.864990234375 3097.304931640625 3110.797607421875 3129.32763671875 3157.1875 3158.927490234375 3173.9775390625 3189.28759765625 3190.144775390625 3188.084716796875 3193.084716796875 3209.07470703125 3232.40478515625 3237.90478515625 3247.5146484375 3250.8525390625 3269.612548828125 3279.722412109375 3287.29248046875 3297.62255859375 3293.472412109375 3234.68505859375 2905.514892578125 1768.0849609375 534.58502197265625 299.625 230.2550048828125 215.1450042724609375 204.3125 193.592498779296875 180.1825103759765625 169.4524993896484375 136.75250244140625 134.1425018310546875 126.62750244140625 114.50749969482421875 84.92749786376953125 75.50749969482421875 68.9174957275390625 65.527496337890625 57.164997100830078125 55.414997100830078125 53.914997100830078125 50.43499755859375 43.564998626708984375 39.715000152587890625 39.00499725341796875 36.02249908447265625 29.792497634887695313 29.37249755859375 28.132497787475585938 25.462497711181640625 18.202497482299804688 15.157805442810058594 14.217804908752441406 12.077805519104003906 8.5878057479858398438 8.3078050613403320313 7.9878053665161132813 5.527805328369140625 -9999 -9999 -9999 -9999 -9999 -9999 -9999 -9999 -9999 -9999 
3044.66748046875 3050.097412109375 3058.517578125 3074.177490234375 3076.114990234375 3072.135009765625 3071.175048828125 3057.0849609375 3057.724853515625 3081.7548828125 3085.277587890625 3107.817626953125 3129.817626953125 3147.777587890625 3150.157470703125 3147.5576171875 3170.724853515625 3180.974853515625 3197.134765625 3208.524658203125 3230.65478515625 3242.874755859375 3252.7646484375 3259.092529296875 3273.322509765625 3282.072509765625 3288.402587890625 3293.322509765625 3298.6923828125 2642.344970703125 2034.3150634765625 1591.655029296875 654.80499267578125 327.635009765625 237.70501708984375 225.285003662109375 206.7725067138671875 195.102508544921875 183.00250244140625 171.592498779296875 148.4425048828125 133.62249755859375 125.70749664306640625 115.81749725341796875 84.6674957275390625 74.967498779296875 67.58750152587890625 64.44750213623046875 58.484996795654296875 55.424999237060546875 53.465000152587890625 50.55500030517578125 45.034999847412109375 41.86499786376953125 39.715000152587890625 36.19249725341796875 31.252496719360351563 30.112497329711914063 28.112497329711914063 25.212497711181640625 18.702497482299804688 16.457805633544921875 14.86780548095703125 13.177804946899414063 11.737805366516113281 11.517805099487304688 10.017805099487304688 8.277805328369140625 -9999 -9999 -9999 -9999 -9999 -9999 -9999 -9999 -9999 -9999 
3073.157470703125 3080.967529296875 3092.857421875 3100.617431640625 3105.5048828125 3103.324951171875 3102.455078125 3094.43505859375 3041.054931640625 3030.52490234375 3067.887451171875 3090.07763671875 3119.137451171875 3126.1875 3139.8076171875 3174.267578125 3186.564697265625 3206.69482421875 3219.73486328125 3230.544677734375 3247.974853515625 3258.03466796875 3269.23486328125 3276.21240234375 3287.732421875 3289.87255859375 3293.71240234375 3303.21240234375 3314.992431640625 3294.43505859375 2154.905029296875 1586.375 791.7349853515625 373.5150146484375 248.8650054931640625 222.235015869140625 208.4325103759765625 197.1825103759765625 185.5424957275390625 172.0525054931640625 149.00250244140625 139.8925018310546875 129.907501220703125 116.33750152587890625 86.9375 75.17749786376953125 70.277496337890625 64.45749664306640625 58.904998779296875 56.58499908447265625 54.5749969482421875 51.30500030517578125 46.19499969482421875 43.00499725341796875 39.904998779296875 37.58249664306640625 33.55249786376953125 30.972497940063476563 28.322496414184570313 25.44249725341796875 20.592496871948242188 18.707805633544921875 16.837804794311523438 16.057806015014648438 14.827805519104003906 13.467804908752441406 11.2978057861328125 9.00780487060546875 -9999 -9999 -9999 -9999 -9999 -9999 -9999 -9999 -9999 -9999 
3111.7275390625 3120.177490234375 3132.0576171875 3136.4775390625 3152.155029296875 3155.364990234375 3155.544921875 3152.294921875 3152.5849609375 3148.27490234375 3148.217529296875 3147.317626953125 3151.49755859375 3148.677490234375 3152.6875 3190.267578125 3229.7548828125 3244.4248046875 3240.084716796875 3239.65478515625 3271.40478515625 3275.44482421875 3280.884765625 3276.632568359375 3293.182373046875 3294.892578125 3301.5625 3311.8125 3316.642578125 3315.68505859375 3304.10498046875 2479.9150390625 1129.1650390625 535.55499267578125 306.14501953125 234.9650115966796875 214.00250244140625 202.152496337890625 190.152496337890625 176.6425018310546875 152.972503662109375 143.572509765625 133.3274993896484375 119.6374969482421875 93.99749755859375 77.8574981689453125 71.72750091552734375 68.00749969482421875 60.33499908447265625 58.704998016357421875 55.18499755859375 53.854999542236328125 49.05500030517578125 45.164997100830078125 41.344997406005859375 40.52249908447265625 34.892498016357421875 32.822498321533203125 30.342496871948242188 26.672496795654296875 23.742496490478515625 22.917804718017578125 21.037805557250976563 19.677804946899414063 14.907805442810058594 12.977805137634277344 11.217804908752441406 9.3178052902221679688 -9999 -9999 -9999 -9999 -9999 -9999 -9999 -9999 -9999 -9999 
3139.777587890625 3143.3974609375 3154.087646484375 3170.467529296875 3177.554931640625 3184.445068359375 3183.10498046875 3175.405029296875 3189.0849609375 3183.0849609375 3179.66748046875 3181.3076171875 3169.067626953125 3148.4775390625 3150.317626953125 3188.027587890625 3227.224853515625 3238.6748046875 3255.7646484375 3264.104736328125 3261.8046875 3267.084716796875 3276.73486328125 3278.092529296875 3291.092529296875 3291.512451171875 3296.912353515625 3307.42236328125 3314.79248046875 3319.135009765625 3308.77490234375 2499.695068359375 1124.2049560546875 609.2850341796875 347.845001220703125 241.295013427734375 213.072509765625 203.662506103515625 188.842498779296875 176.972503662109375 152.7425079345703125 141.902496337890625 132.6475067138671875 118.11750030517578125 95.49749755859375 80.9174957275390625 70.22750091552734375 69.33750152587890625 61.064998626708984375 58.344997406005859375 56.244998931884765625 54.43499755859375 49.5749969482421875 45.69499969482421875 43.484996795654296875 42.44249725341796875 36.562496185302734375 34.47249603271484375 31.792497634887695313 29.892498016357421875 25.852497100830078125 24.027805328369140625 22.0478057861328125 19.667804718017578125 16.267805099487304688 14.227805137634277344 12.307805061340332031 10.247805595397949219 2.2709071636199951172 -9999 -9999 -9999 -9999 -9999 -9999 -9999 -9999 -9999 
3166.469970703125 3174.0400390625 3190.400146484375 3200.179931640625 3208.60986328125 3211.4599609375 3209.929931640625 3208.119873046875 3219.47998046875 3208.22998046875 3211.39013671875 3203.16015625 3165.000244140625 3160.8701171875 3156.5302734375 3185.790283203125 3220.072509765625 3237.362548828125 3252.29248046875 3260.672607421875 3269.232421875 3257.3125 3266.91259765625 3280.56298828125 3284.222900390625 3292.182861328125 3293.242919921875 3300.262939453125 3315.02294921875 3316.2373046875 3315.88720703125 2949.63720703125 1136.767333984375 713.21728515625 398.747283935546875 258.6173095703125 214.3849945068359375 203.1649932861328125 184.5349884033203125 175.3149871826171875 153.9049835205078125 143.3849945068359375 137.035003662109375 121.4850006103515625 93.90500640869140625 80.5850067138671875 70.16500091552734375 70.30500030517578125 62.309993743896484375 58.699993133544921875 56.949993133544921875 55.199993133544921875 49.749996185302734375 47.07999420166015625 45.069995880126953125 43.61249542236328125 37.522495269775390625 35.662494659423828125 34.742496490478515625 32.302494049072265625 27.36249542236328125 25.3899993896484375 23.559999465942382813 21.229999542236328125 17.840000152587890625 15.600000381469726563 13.560000419616699219 11.399999618530273438 4.69499969482421875 0.24499993026256561279 -9999 -9999 -9999 -9999 -9999 -9999 -9999 -9999 
3205.02001953125 3204.75 3216.400146484375 3221.300048828125 3242.39990234375 3237.6298828125 3223.81982421875 3217.97998046875 3234.280029296875 3228.469970703125 3220.770263671875 3221.16015625 3186.68017578125 3174.270263671875 3162.56005859375 3169.7802734375 3217.6826171875 3228.4326171875 3237.8125 3241.532470703125 3252.342529296875 3272.382568359375 3258.642578125 3269.44287109375 3273.10302734375 3291.8330078125 3295.383056640625 3300.802978515625 3314.0830078125 3322.057373046875 3318.0673828125 2872.52734375 1139.8773193359375 797.1273193359375 475.3572998046875 290.997283935546875 213.114990234375 201.92498779296875 179.574981689453125 168.60498046875 154.80499267578125 146.17498779296875 135.285003662109375 124.21500396728515625 94.7050018310546875 83.21500396728515625 70.1750030517578125 70.785003662109375 63.4799957275390625 61.2299957275390625 58.519992828369140625 56.60999298095703125 50.639995574951171875 48.649993896484375 46.1199951171875 43.89249420166015625 38.11249542236328125 36.922496795654296875 35.6824951171875 33.5424957275390625 28.512495040893554688 26.409999847412109375 24.219999313354492188 22.219999313354492188 18.530000686645507813 16.5 14.270000457763671875 12.380000114440917969 7.465000152587890625 0.86499994993209838867 1.0249999761581420898 0.65499991178512573242 -9999 -9999 -9999 -9999 -9999 -9999 
3252.419921875 3257.360107421875 3265.590087890625 3275.130126953125 3291.56982421875 3279.419921875 3268.119873046875 3259.83984375 3255.780029296875 3254.659912109375 3252.10009765625 3250.80029296875 3213.650146484375 3187.090087890625 3203.6201171875 3173.920166015625 3197.422607421875 3212.972412109375 3216.41259765625 3227.592529296875 3240.37255859375 3247.842529296875 3253.91259765625 3274.892822265625 3284.04296875 3291.532958984375 3297.712890625 3304.593017578125 3329.892822265625 3336.807373046875 3325.187255859375 2435.8173828125 1265.71728515625 956.26727294921875 614.457275390625 382.8673095703125 210.2449951171875 186.7549896240234375 166.394989013671875 166.204986572265625 151.114990234375 144.204986572265625 136.214996337890625 124.1450042724609375 101.04500579833984375 90.8650054931640625 76.68500518798828125 71.9250030517578125 64.51999664306640625 62.599994659423828125 59.249996185302734375 57.85999298095703125 52.949993133544921875 50.919994354248046875 48.069995880126953125 46.1824951171875 39.372493743896484375 37.162494659423828125 35.902496337890625 35.522495269775390625 29.512495040893554688 27.3600006103515625 25.700000762939453125 23.299999237060546875 19.79000091552734375 18.420000076293945313 15.529999732971191406 13.890000343322753906 9.1549997329711914063 5.4149999618530273438 3.7649998664855957031 4.1149997711181640625 2.4749999046325683594 1.0649999380111694336 -9999 -9999 -9999 -9999 
3286.469970703125 3290.3701171875 3297.679931640625 3303.820068359375 3306.25 3301.510009765625 3289.58984375 3285.559814453125 3273.4599609375 3270.2099609375 3262.710205078125 3256.01025390625 3221.520263671875 3190.5302734375 3217.650146484375 3195.320068359375 3199.882568359375 3213.08251953125 3226.91259765625 3231.232421875 3245.112548828125 3258.092529296875 3268.402587890625 3274.762939453125 3298.392822265625 3295.31298828125 3300.77294921875 3311.222900390625 3332.052978515625 3330.097412109375 3331.4072265625 2601.197265625 1236.267333984375 988.8472900390625 711.96728515625 441.877288818359375 215.3449859619140625 181.60498046875 165.394989013671875 165.584991455078125 151.2249908447265625 143.4949951171875 135.3950042724609375 124.54500579833984375 100.90500640869140625 90.345001220703125 77.6450042724609375 73.05500030517578125 65.339996337890625 62.489994049072265625 59.629993438720703125 58.7899932861328125 55.099994659423828125 52.029994964599609375 48.999996185302734375 47.03249359130859375 39.7924957275390625 35.912494659423828125 34.852497100830078125 35.11249542236328125 29.652496337890625 26.870000839233398438 24.909999847412109375 22.659999847412109375 19.559999465942382813 17.340000152587890625 15.630000114440917969 14.060000419616699219 9.4750003814697265625 7.125 5.6349997520446777344 5.2550001144409179688 3.6949999332427978516 1.9349999427795410156 0.37580332159996032715 -9999 -9999 -9999 
3300.43994140625 3306.179931640625 3321.47998046875 3332.260009765625 3334.199951171875 3326.719970703125 3315.06982421875 3310.75 3287.889892578125 3281.199951171875 3274.960205078125 3265.1201171875 3233.31005859375 3214.0302734375 3228.39013671875 3204.020263671875 3209.512451171875 3221.12255859375 3230.79248046875 3240.362548828125 3256.8525390625 3263.66259765625 3268.242431640625 3276.182861328125 3280.90283203125 3300.79296875 3313.162841796875 3307.532958984375 3329.0830078125 3338.50732421875 3346.0673828125 2886.437255859375 1390.5772705078125 1248.727294921875 928.53729248046875 545.75732421875 232.10498046875 181.9749908447265625 162.1649932861328125 166.6549835205078125 151.084991455078125 142.8749847412109375 133.385009765625 123.99500274658203125 100.06500244140625 89.285003662109375 77.3650054931640625 72.15500640869140625 66.18999481201171875 62.1199951171875 60.019992828369140625 59.349994659423828125 55.4799957275390625 52.10999298095703125 49.85999298095703125 48.0124969482421875 40.0424957275390625 36.50249481201171875 34.492496490478515625 33.452495574951171875 30.012495040893554688 27.3899993896484375 25.809999465942382813 23.969999313354492188 19.70999908447265625 18.129999160766601563 16.770000457763671875 13.68000030517578125 10.074999809265136719 8.2550001144409179688 7.2950000762939453125 6.6349997520446777344 5.125 3.625 2.0258033275604248047 -9999 -9999 -9999 
3327.280029296875 3327.760009765625 3338.880126953125 3351 3356.989990234375 3349.669921875 3346.25 3330.219970703125 3303.429931640625 3295.530029296875 3284.090087890625 3272.01025390625 3237.290283203125 3228.190185546875 3229.10009765625 3218.400146484375 3217.152587890625 3224.16259765625 3233.54248046875 3244.482421875 3259.172607421875 3262.8125 3269.302490234375 3277.182861328125 3284.512939453125 3290.2529296875 3308.343017578125 3326.162841796875 3327.40283203125 3342.477294921875 3351.17724609375 3349.127197265625 1769.267333984375 1533.3973388671875 1104.437255859375 676.40728759765625 257.9949951171875 187.9649810791015625 165.084991455078125 162.704986572265625 149.2549896240234375 143.7349853515625 133.7649993896484375 123.41500091552734375 99.35500335693359375 85.90500640869140625 76.9250030517578125 73.04500579833984375 66.40999603271484375 62.399993896484375 60.589996337890625 59.809993743896484375 55.249996185302734375 52.60999298095703125 51.239994049072265625 48.86249542236328125 41.152496337890625 36.732494354248046875 34.5424957275390625 33.00249481201171875 30.652496337890625 29.159999847412109375 26.700000762939453125 25.829999923706054688 20.920000076293945313 18.739999771118164063 17.469999313354492188 14.520000457763671875 10.524999618530273438 9.0050001144409179688 8.125 7.6449999809265136719 6.215000152587890625 5.0650000572204589844 3.4558033943176269531 0.87580329179763793945 0.13580331206321716309 -9999 
3374.53759765625 3372.777587890625 3375.757568359375 3374.99755859375 3376.6650390625 3364.52490234375 3344.294921875 3324.155029296875 3304.925048828125 3294.4951171875 3285.6376953125 3278.017578125 3268.647705078125 3250.917724609375 3235.57763671875 3232.357666015625 3244.852294921875 3232.90234375 3237.9423828125 3246.972412109375 3262.222412109375 3272.732421875 3284.3623046875 3293.107421875 3291.947509765625 3301.447509765625 3309.777587890625 3323.53759765625 3329.657470703125 3347.802734375 3352.82275390625 3351.6328125 2475.622802734375 1886.312744140625 1400.832763671875 1009.302734375 341.217742919921875 202.9677581787109375 158.547760009765625 159.297760009765625 146.69775390625 142.097747802734375 132.5150146484375 123.05501556396484375 100.64501190185546875 88.00501251220703125 76.1550140380859375 74.24501800537109375 68.85250091552734375 64.9524993896484375 61.52249908447265625 60.252498626708984375 57.222499847412109375 54.5625 51.352497100830078125 49.6399993896484375 43.439998626708984375 37.59999847412109375 35.23999786376953125 32.62999725341796875 30.219997406005859375 29.067501068115234375 27.967500686645507813 25.94750213623046875 21.487501144409179688 19.0475006103515625 17.557500839233398438 14.947501182556152344 11.897500991821289063 10.897500991821289063 9.8675012588500976563 8.497501373291015625 7.3675012588500976563 6.5375013351440429688 5.2476105690002441406 3.4776105880737304688 -9999 -9999 
3384.567626953125 3382.527587890625 3382.4775390625 3379.82763671875 3372.22509765625 3350.02490234375 3326.77490234375 3304.925048828125 3293.405029296875 3280.625 3265.547607421875 3255.94775390625 3260.3876953125 3256.8076171875 3254.24755859375 3255.4677734375 3261.282470703125 3239.662353515625 3239.602294921875 3246.532470703125 3261.162353515625 3271.15234375 3276.032470703125 3290.3076171875 3297.0576171875 3294.107421875 3316.4775390625 3327.41748046875 3327.867431640625 3340.36279296875 3356.872802734375 3368.78271484375 3089.752685546875 2422.102783203125 1761.2027587890625 1220.8726806640625 395.14776611328125 267.64776611328125 174.6477508544921875 157.2477569580078125 144.01776123046875 137.51776123046875 130.2450103759765625 122.47501373291015625 100.8750152587890625 87.58501434326171875 77.1550140380859375 74.08501434326171875 68.99250030517578125 64.66249847412109375 60.832500457763671875 61.24250030517578125 56.642498016357421875 54.642498016357421875 52.44249725341796875 49.539997100830078125 43.48999786376953125 38.4499969482421875 37.279998779296875 33.249996185302734375 29.749998092651367188 27.157501220703125 26.507501602172851563 25.287502288818359375 21.897500991821289063 19.137500762939453125 17.44750213623046875 15.567501068115234375 12.757501602172851563 11.887501716613769531 10.537501335144042969 9.1375017166137695313 8.0275011062622070313 6.8075013160705566406 5.4476103782653808594 3.7776105403900146484 0.027610549703240394592 -9999 
3388.53759765625 3383.36767578125 3382.74755859375 3378.317626953125 3364.264892578125 3339.764892578125 3327.544921875 3310.945068359375 3293.844970703125 3288.2451171875 3286.237548828125 3289.2177734375 3265.86767578125 3258.8876953125 3251.927734375 3276.59765625 3275.58251953125 3264.762451171875 3265.072509765625 3267.8125 3268.802490234375 3274.0625 3278.372314453125 3291.99755859375 3312.45751953125 3315.867431640625 3330.33740234375 3327.95751953125 3334.66748046875 3342.2626953125 3353.372802734375 3356.47265625 3347.772705078125 3007.41259765625 2144.70263671875 1446.1226806640625 454.867767333984375 325.457763671875 206.1477508544921875 156.167755126953125 142.6777496337890625 134.9077606201171875 127.91501617431640625 121.55501556396484375 101.105010986328125 86.80501556396484375 75.70501708984375 72.44501495361328125 68.13249969482421875 64.55249786376953125 62.0625 60.6725006103515625 56.932498931884765625 53.822498321533203125 51.972499847412109375 49.829998016357421875 43.329998016357421875 40.429996490478515625 37.659999847412109375 35.34999847412109375 30.62999725341796875 27.867502212524414063 27.2675018310546875 26.117502212524414063 21.647500991821289063 18.537502288818359375 17.367502212524414063 16.0475006103515625 13.497501373291015625 12.58750152587890625 11.467501640319824219 9.7775011062622070313 7.8275012969970703125 6.8275012969970703125 5.6276106834411621094 3.7176105976104736328 -9999 0.64761054515838623047 
3387.737548828125 3383.4375 3382.49755859375 3376.1474609375 3361.64501953125 3342.125 3332.594970703125 3325.574951171875 3312.705078125 3310.764892578125 3307.03759765625 3292.94775390625 3276.19775390625 3282.237548828125 3267.027587890625 3279.517578125 3280.08251953125 3277.852294921875 3276.00244140625 3286.00244140625 3295.702392578125 3293.972412109375 3296.38232421875 3306.777587890625 3315.757568359375 3330.157470703125 3331.387451171875 3332.117431640625 3342.527587890625 3348.57275390625 3358.332763671875 3365.352783203125 3359.70263671875 2711.65283203125 1895.332763671875 1465.1827392578125 556.44775390625 369.0677490234375 239.597747802734375 159.26776123046875 141.9277496337890625 134.3377532958984375 125.985015869140625 121.5650177001953125 101.39501190185546875 86.105010986328125 73.78501129150390625 74.27501678466796875 69.342498779296875 65.5625 64.032501220703125 59.19249725341796875 58.0625 55.342498779296875 51.55249786376953125 48.8899993896484375 41.429996490478515625 39.4199981689453125 37.429996490478515625 36.189998626708984375 31.479997634887695313 29.757501602172851563 28.507501602172851563 26.2975006103515625 21.367502212524414063 18.97750091552734375 17.327501296997070313 16.207500457763671875 14.197501182556152344 13.58750152587890625 11.967501640319824219 10.037501335144042969 7.4175014495849609375 6.7775015830993652344 5.6776103973388671875 3.8276104927062988281 -9999 -9999 
3389.717529296875 3381.047607421875 3382.1474609375 3372.637451171875 3365.344970703125 3355.294921875 3348.1650390625 3334.804931640625 3317.695068359375 3313.77490234375 3303.09765625 3296.61767578125 3291.677734375 3291.897705078125 3288.6376953125 3286.087646484375 3284.982421875 3283.052490234375 3283.15234375 3286.972412109375 3292.482421875 3298.232421875 3306.8125 3321.927490234375 3333.78759765625 3333.597412109375 3332.947509765625 3334.83740234375 3355.327392578125 3351.61279296875 3371.2626953125 3377.49267578125 3371.49267578125 2639.642822265625 2411.302734375 2038.002685546875 1131.997802734375 532.2977294921875 369.227752685546875 249.1577606201171875 144.0577545166015625 133.4077606201171875 125.66501617431640625 118.89501190185546875 98.355010986328125 83.39501190185546875 74.63501739501953125 73.53501129150390625 66.99250030517578125 65.9324951171875 64.0424957275390625 61.332500457763671875 57.69249725341796875 54.032497406005859375 51.87249755859375 48.359996795654296875 42.609996795654296875 40.95999908447265625 38.9499969482421875 37.439998626708984375 32.729999542236328125 29.707500457763671875 27.967500686645507813 25.757501602172851563 21.0175018310546875 19.597501754760742188 19.2975006103515625 17.497501373291015625 14.667501449584960938 12.987501144409179688 11.177501678466796875 10.077501296997070313 8.2075014114379882813 7.1275014877319335938 6.2676105499267578125 4.9076104164123535156 3.0176105499267578125 1.9176105260848999023 
3392.607666015625 3387.337646484375 3386.257568359375 3380.927490234375 3368.425048828125 3366.0849609375 3348.544921875 3324.175048828125 3312.6650390625 3305.93505859375 3297.877685546875 3292.937744140625 3293.5576171875 3292.147705078125 3288.8076171875 3297.11767578125 3287.372314453125 3287.04248046875 3287.1123046875 3288.8125 3291.38232421875 3294.642333984375 3297.482421875 3319.197509765625 3330.99755859375 3342.83740234375 3348.387451171875 3350.03759765625 3359.3173828125 3360.252685546875 3370.892822265625 3375.442626953125 3384.062744140625 3305.82275390625 3202.8828125 2624.872802734375 1413.147705078125 818.0777587890625 419.037750244140625 323.167755126953125 138.6877593994140625 130.7377471923828125 126.8450164794921875 118.0650177001953125 94.27501678466796875 82.36501312255859375 72.8750152587890625 73.1550140380859375 67.36249542236328125 64.902496337890625 63.582500457763671875 61.962497711181640625 57.082500457763671875 52.41249847412109375 50.212497711181640625 46.729999542236328125 42.259998321533203125 39.8899993896484375 38.179996490478515625 36.539997100830078125 31.59999847412109375 28.83750152587890625 26.497501373291015625 25.647500991821289063 21.857501983642578125 20.357501983642578125 19.637500762939453125 18.717500686645507813 15.47750091552734375 13.357501029968261719 11.027501106262207031 9.6475009918212890625 8.47750091552734375 7.5675015449523925781 6.2476105690002441406 4.9076104164123535156 3.6376104354858398438 2.6276104450225830078 
