ncols        78
nrows        66
xllcorner    -87.500000000000
yllcorner    25.000000000000
cellsize     0.083333333333
NODATA_value -9999.000000
-9999.000000 -9999.000000 -9999.000000 -9999.000000 0.000000 0.000000 -9999.000000 -9999.000000 -9999.000000 -9999.000000 -9999.000000 0.000000 0.000000 0.000000 0.000000 0.000000 -9999.000000 -9999.000000 -9999.000000 -9999.000000 -9999.000000 -9999.000000 -9999.000000 -9999.000000 -9999.000000 -9999.000000 -9999.000000 -9999.000000 -9999.000000 -9999.000000 -9999.000000 -9999.000000 -9999.000000 -9999.000000 -9999.000000 -9999.000000 -9999.000000 -9999.000000 -9999.000000 -9999.000000 -9999.000000 -9999.000000 -9999.000000 -9999.000000 -9999.000000 -9999.000000 -9999.000000 -9999.000000 -9999.000000 -9999.000000 -9999.000000 -9999.000000 -9999.000000 -9999.000000 -9999.000000 -9999.000000 -9999.000000 -9999.000000 -9999.000000 -9999.000000 -9999.000000 -9999.000000 -9999.000000 -9999.000000 -9999.000000 -9999.000000 -9999.000000 -9999.000000 -9999.000000 -9999.000000 -9999.000000 -9999.000000 0.616162 0.076424 0.069987 0.112641 0.035143 0.027494 
-9999.000000 -9999.000000 -9999.000000 0.000000 0.000000 0.000000 0.000000 0.005152 0.008928 0.042965 0.049476 0.051999 0.028270 0.026828 0.000000 -9999.000000 -9999.000000 -9999.000000 -9999.000000 -9999.000000 -9999.000000 -9999.000000 -9999.000000 -9999.000000 -9999.000000 -9999.000000 -9999.000000 -9999.000000 -9999.000000 -9999.000000 -9999.000000 -9999.000000 -9999.000000 -9999.000000 -9999.000000 -9999.000000 -9999.000000 -9999.000000 -9999.000000 -9999.000000 -9999.000000 -9999.000000 -9999.000000 -9999.000000 -9999.000000 -9999.000000 -9999.000000 -9999.000000 -9999.000000 -9999.000000 -9999.000000 -9999.000000 -9999.000000 -9999.000000 -9999.000000 -9999.000000 -9999.000000 -9999.000000 -9999.000000 -9999.000000 -9999.000000 -9999.000000 -9999.000000 -9999.000000 -9999.000000 -9999.000000 -9999.000000 -9999.000000 -9999.000000 -9999.000000 -9999.000000 -9999.000000 -9999.000000 0.068618 0.021971 0.024656 0.075164 0.057717 
0.000000 0.000000 0.000000 0.000000 0.000000 0.000000 0.000000 0.068844 0.169800 0.077191 0.234093 0.125605 0.252131 0.106090 0.000000 0.000000 0.000000 -9999.000000 -9999.000000 -9999.000000 -9999.000000 -9999.000000 -9999.000000 -9999.000000 -9999.000000 -9999.000000 -9999.000000 -9999.000000 -9999.000000 -9999.000000 -9999.000000 -9999.000000 -9999.000000 -9999.000000 -9999.000000 -9999.000000 -9999.000000 -9999.000000 -9999.000000 -9999.000000 -9999.000000 -9999.000000 -9999.000000 -9999.000000 -9999.000000 -9999.000000 -9999.000000 -9999.000000 -9999.000000 -9999.000000 -9999.000000 -9999.000000 -9999.000000 -9999.000000 -9999.000000 -9999.000000 -9999.000000 -9999.000000 -9999.000000 -9999.000000 -9999.000000 -9999.000000 -9999.000000 -9999.000000 -9999.000000 -9999.000000 -9999.000000 -9999.000000 -9999.000000 -9999.000000 -9999.000000 -9999.000000 -9999.000000 0.016908 0.011094 0.002947 0.017747 0.050396 
0.095908 0.124745 0.151083 0.123675 0.193733 0.135533 0.134923 0.208214 0.127122 0.087660 0.157974 0.098256 0.261801 0.212019 0.205710 0.326086 0.196015 0.293988 0.266417 0.031055 0.000000 0.000000 -9999.000000 -9999.000000 -9999.000000 -9999.000000 -9999.000000 -9999.000000 -9999.000000 -9999.000000 -9999.000000 -9999.000000 -9999.000000 -9999.000000 -9999.000000 -9999.000000 -9999.000000 -9999.000000 -9999.000000 -9999.000000 -9999.000000 -9999.000000 -9999.000000 -9999.000000 -9999.000000 -9999.000000 -9999.000000 -9999.000000 -9999.000000 -9999.000000 -9999.000000 -9999.000000 -9999.000000 -9999.000000 -9999.000000 -9999.000000 -9999.000000 -9999.000000 -9999.000000 -9999.000000 -9999.000000 -9999.000000 -9999.000000 -9999.000000 -9999.000000 -9999.000000 -9999.000000 -9999.000000 -9999.000000 -9999.000000 -9999.000000 -9999.000000 -9999.000000 0.074982 0.049343 0.007706 0.133333 0.117998 
0.114051 0.224536 0.143527 0.182784 0.195764 0.350320 0.490280 0.301069 0.226337 0.341699 0.478682 0.483230 0.431231 0.221749 0.198961 0.129955 0.158123 0.220065 0.201109 0.225481 0.079433 0.000000 0.000000 0.000000 -9999.000000 -9999.000000 -9999.000000 -9999.000000 -9999.000000 -9999.000000 -9999.000000 -9999.000000 -9999.000000 -9999.000000 -9999.000000 -9999.000000 -9999.000000 -9999.000000 -9999.000000 -9999.000000 -9999.000000 0.021317 -9999.000000 -9999.000000 -9999.000000 -9999.000000 -9999.000000 -9999.000000 -9999.000000 -9999.000000 -9999.000000 -9999.000000 -9999.000000 -9999.000000 -9999.000000 -9999.000000 -9999.000000 -9999.000000 -9999.000000 -9999.000000 -9999.000000 -9999.000000 -9999.000000 -9999.000000 -9999.000000 -9999.000000 -9999.000000 -9999.000000 -9999.000000 -9999.000000 -9999.000000 -9999.000000 -9999.000000 -9999.000000 0.090909 0.024480 0.142439 0.155205 
0.262236 0.183686 0.230935 0.302370 0.404927 0.570515 0.167160 0.022317 0.011212 0.196854 0.693646 0.689015 0.712404 0.471470 0.817293 0.516035 0.354586 0.233849 0.224776 0.188064 0.317449 0.000000 0.000000 0.000000 -9999.000000 -9999.000000 -9999.000000 -9999.000000 -9999.000000 -9999.000000 -9999.000000 -9999.000000 -9999.000000 -9999.000000 -9999.000000 -9999.000000 -9999.000000 -9999.000000 0.000000 0.000000 0.000000 0.000000 0.000000 0.000000 -9999.000000 -9999.000000 -9999.000000 -9999.000000 -9999.000000 -9999.000000 -9999.000000 -9999.000000 -9999.000000 -9999.000000 -9999.000000 -9999.000000 -9999.000000 -9999.000000 -9999.000000 -9999.000000 -9999.000000 -9999.000000 -9999.000000 -9999.000000 -9999.000000 -9999.000000 -9999.000000 -9999.000000 -9999.000000 -9999.000000 -9999.000000 -9999.000000 -9999.000000 -9999.000000 0.110362 0.062510 0.212947 0.154619 
0.209470 0.259575 0.295208 0.461759 0.511951 0.345362 0.348290 0.041298 0.000000 0.015186 0.217810 0.125876 0.323514 0.542911 0.625836 0.552431 0.295644 0.414477 0.339778 0.160934 0.164378 0.291878 0.124924 0.000000 -9999.000000 -9999.000000 -9999.000000 -9999.000000 -9999.000000 -9999.000000 -9999.000000 -9999.000000 -9999.000000 -9999.000000 -9999.000000 -9999.000000 -9999.000000 -9999.000000 0.000000 0.000000 0.000000 0.000000 0.000000 0.000000 0.000000 -9999.000000 -9999.000000 -9999.000000 -9999.000000 -9999.000000 -9999.000000 -9999.000000 -9999.000000 -9999.000000 -9999.000000 -9999.000000 -9999.000000 -9999.000000 -9999.000000 -9999.000000 -9999.000000 -9999.000000 -9999.000000 -9999.000000 -9999.000000 -9999.000000 -9999.000000 -9999.000000 -9999.000000 -9999.000000 -9999.000000 -9999.000000 -9999.000000 -9999.000000 0.179372 0.113305 0.100437 0.149986 
0.433857 0.205000 0.177090 0.225053 0.163660 0.081150 0.310803 0.008212 0.000637 0.006988 0.048252 0.114497 0.301654 0.293146 0.031027 0.168929 0.382717 0.402390 0.238160 0.242691 0.122064 0.128781 0.188899 0.069447 0.000000 0.000000 -9999.000000 -9999.000000 -9999.000000 -9999.000000 -9999.000000 -9999.000000 -9999.000000 -9999.000000 -9999.000000 -9999.000000 0.000000 0.031117 0.073121 0.041594 0.036329 0.053711 0.064886 0.047764 0.000000 0.000000 -9999.000000 -9999.000000 -9999.000000 -9999.000000 -9999.000000 -9999.000000 -9999.000000 -9999.000000 -9999.000000 -9999.000000 -9999.000000 -9999.000000 -9999.000000 -9999.000000 -9999.000000 -9999.000000 -9999.000000 -9999.000000 -9999.000000 -9999.000000 -9999.000000 -9999.000000 -9999.000000 -9999.000000 -9999.000000 -9999.000000 -9999.000000 -9999.000000 0.000000 0.026184 0.020925 0.157063 
0.220754 0.235201 0.059635 0.069591 0.129565 0.006971 0.004436 0.005688 0.000000 0.001272 0.006980 0.095556 0.099867 0.072271 0.030451 0.173531 0.278766 0.447813 0.326264 0.296629 0.241755 0.244871 0.098723 0.162366 0.000000 0.000000 -9999.000000 -9999.000000 -9999.000000 -9999.000000 -9999.000000 -9999.000000 0.000000 0.000000 0.000000 0.000000 0.000000 0.113097 0.279373 0.293106 0.126748 0.308147 0.231272 0.111752 0.074596 0.000000 0.000000 -9999.000000 -9999.000000 -9999.000000 -9999.000000 -9999.000000 -9999.000000 -9999.000000 -9999.000000 -9999.000000 -9999.000000 -9999.000000 -9999.000000 -9999.000000 -9999.000000 -9999.000000 -9999.000000 -9999.000000 -9999.000000 -9999.000000 -9999.000000 -9999.000000 -9999.000000 -9999.000000 -9999.000000 -9999.000000 -9999.000000 -9999.000000 -9999.000000 0.008545 0.074706 0.508155 
0.073518 0.014587 0.072161 0.000000 0.020087 0.002528 0.000000 0.003802 0.002541 0.000000 0.003171 0.011392 0.003807 0.011428 0.074143 0.135994 0.265126 0.296548 0.332080 0.443805 0.306422 0.290296 0.229216 0.247473 0.000000 0.000000 0.000000 -9999.000000 -9999.000000 -9999.000000 0.000000 0.000000 0.000000 0.000000 0.089285 0.280604 0.236351 0.276527 0.110823 0.170461 0.370706 0.402491 0.199777 0.152432 0.111689 0.000000 0.000000 0.000000 -9999.000000 -9999.000000 -9999.000000 -9999.000000 -9999.000000 -9999.000000 -9999.000000 -9999.000000 -9999.000000 -9999.000000 -9999.000000 -9999.000000 -9999.000000 -9999.000000 -9999.000000 -9999.000000 -9999.000000 -9999.000000 -9999.000000 -9999.000000 -9999.000000 -9999.000000 -9999.000000 -9999.000000 -9999.000000 -9999.000000 -9999.000000 0.222426 0.077779 0.213291 
0.000000 0.000000 0.011354 0.000000 0.000000 0.000000 0.000000 0.000000 0.000000 0.000637 0.000637 0.002543 0.000635 0.019637 0.207224 0.204389 0.353362 0.226140 0.315616 0.257205 0.158723 0.037997 0.277497 0.252532 0.044997 0.013790 0.051280 0.042221 0.075496 0.000000 0.000000 0.075204 0.076325 0.144534 0.233483 0.563184 0.158008 0.594745 0.426647 0.281722 0.376224 0.560838 0.416252 0.232151 0.276638 0.040425 0.033155 0.083959 0.000000 -9999.000000 -9999.000000 -9999.000000 -9999.000000 -9999.000000 -9999.000000 -9999.000000 -9999.000000 -9999.000000 -9999.000000 -9999.000000 -9999.000000 -9999.000000 -9999.000000 -9999.000000 -9999.000000 -9999.000000 -9999.000000 -9999.000000 -9999.000000 -9999.000000 -9999.000000 -9999.000000 -9999.000000 -9999.000000 -9999.000000 -9999.000000 0.028293 0.148734 
0.239744 0.090208 0.067593 0.022071 0.000601 0.001259 0.000000 0.000000 0.000000 0.000000 0.000637 0.000637 0.000634 0.000633 0.097943 0.151258 0.083892 0.020707 0.047958 0.076631 0.130461 0.033693 0.082382 0.065864 0.025249 0.059473 0.025691 0.092214 0.001135 0.000000 0.000000 0.193417 0.393941 0.255716 0.429804 0.548887 0.132543 0.206085 0.020954 0.137939 0.444089 0.506035 0.200600 0.366010 0.093599 0.065402 0.108255 0.238114 0.000000 -9999.000000 -9999.000000 -9999.000000 -9999.000000 -9999.000000 -9999.000000 -9999.000000 -9999.000000 -9999.000000 -9999.000000 -9999.000000 -9999.000000 -9999.000000 -9999.000000 -9999.000000 -9999.000000 -9999.000000 -9999.000000 -9999.000000 -9999.000000 -9999.000000 -9999.000000 -9999.000000 -9999.000000 -9999.000000 -9999.000000 -9999.000000 0.096095 0.159511 
0.609395 0.188319 0.073601 0.033986 0.039115 0.143417 0.211558 0.004405 0.000000 0.000000 0.000000 0.000000 0.000633 0.007614 0.013931 0.077618 0.035916 0.030265 0.043669 0.276434 0.164230 0.069250 0.133249 0.196948 0.665885 0.094941 0.000633 0.000000 0.061536 0.279754 0.134836 0.061022 0.374905 0.429760 0.488959 0.417496 0.070736 0.061359 0.000623 0.000000 0.000000 0.311746 0.600773 0.223423 0.257511 0.202766 0.193698 0.255455 0.000000 0.000000 0.000000 -9999.000000 -9999.000000 -9999.000000 -9999.000000 -9999.000000 -9999.000000 -9999.000000 -9999.000000 -9999.000000 -9999.000000 -9999.000000 -9999.000000 -9999.000000 -9999.000000 -9999.000000 -9999.000000 -9999.000000 -9999.000000 -9999.000000 -9999.000000 -9999.000000 -9999.000000 -9999.000000 -9999.000000 -9999.000000 0.131327 0.032468 
0.757726 0.575771 0.019799 0.000000 0.074159 0.140797 0.246263 0.049242 0.000632 0.000000 0.000000 0.000000 0.000000 0.000633 0.004444 0.018963 0.010933 0.033568 0.159552 0.251001 0.072253 0.140066 0.235294 0.388500 0.437500 0.164010 0.000632 0.000000 0.060203 0.194797 0.442198 0.371917 0.249043 0.222909 0.450648 0.461355 0.103454 0.039662 0.000000 0.000000 0.217266 0.989409 0.217516 0.175361 0.335319 0.383875 0.404832 0.185045 0.049792 0.034186 0.000000 0.000000 -9999.000000 -9999.000000 -9999.000000 -9999.000000 -9999.000000 -9999.000000 -9999.000000 -9999.000000 -9999.000000 -9999.000000 -9999.000000 -9999.000000 -9999.000000 -9999.000000 -9999.000000 -9999.000000 -9999.000000 -9999.000000 -9999.000000 -9999.000000 -9999.000000 -9999.000000 -9999.000000 -9999.000000 -9999.000000 0.237374 
0.408580 0.324736 0.000000 0.000000 0.008878 0.799746 0.969697 0.184975 0.000000 0.000000 0.000000 0.000000 0.000000 0.000000 0.001899 0.001902 0.000633 0.016454 0.140975 0.208642 0.039434 0.126567 0.361485 0.282055 0.040359 0.128319 0.138695 0.001904 0.020292 0.055980 0.107347 0.162433 0.564422 0.402293 0.489913 0.518446 0.252580 0.032091 0.000000 0.000000 0.249078 0.395220 0.297595 0.325737 0.108858 0.347300 0.410433 0.248923 0.376879 0.161109 0.000000 0.000000 -9999.000000 -9999.000000 -9999.000000 -9999.000000 -9999.000000 -9999.000000 -9999.000000 -9999.000000 -9999.000000 -9999.000000 -9999.000000 -9999.000000 -9999.000000 -9999.000000 -9999.000000 -9999.000000 -9999.000000 -9999.000000 0.000000 0.000000 -9999.000000 -9999.000000 -9999.000000 -9999.000000 -9999.000000 0.000000 
0.002524 0.000000 0.000000 0.000000 0.003797 0.713561 0.965909 0.180898 0.000633 0.000000 0.000000 0.000000 0.000000 0.000000 0.000000 0.000000 0.000000 0.008269 0.034286 0.012656 0.019056 0.029979 0.128799 0.034389 0.112421 0.401258 0.175539 0.011443 0.015883 0.027813 0.075473 0.103558 0.718655 0.779700 0.583391 0.625545 0.491147 0.030274 0.012547 0.000000 0.058921 0.112220 0.009672 0.045041 0.035741 0.172544 0.359876 0.329034 0.394109 0.336323 0.315286 0.000000 0.000000 -9999.000000 -9999.000000 -9999.000000 -9999.000000 -9999.000000 -9999.000000 -9999.000000 -9999.000000 -9999.000000 -9999.000000 -9999.000000 -9999.000000 -9999.000000 -9999.000000 -9999.000000 -9999.000000 -9999.000000 -9999.000000 0.000000 -9999.000000 -9999.000000 -9999.000000 -9999.000000 -9999.000000 -9999.000000 
0.000000 0.000000 0.000000 0.000000 0.000632 0.117535 0.220253 0.033629 0.000632 0.000000 0.000000 0.000000 0.000000 0.000000 0.000000 0.000000 0.000000 0.003817 0.000633 0.000631 0.000000 0.000000 0.005065 0.009500 0.071650 0.126498 0.032237 0.017745 0.138955 0.034892 0.152759 0.412859 0.248996 0.454672 0.728626 0.637668 0.597994 0.417192 0.431730 0.267866 0.033856 0.013244 0.194524 0.006828 0.008821 0.018274 0.359220 0.307267 0.352988 0.318618 0.295893 0.127332 0.083544 0.000000 0.000000 0.000000 -9999.000000 -9999.000000 -9999.000000 -9999.000000 -9999.000000 -9999.000000 -9999.000000 -9999.000000 -9999.000000 -9999.000000 -9999.000000 -9999.000000 -9999.000000 -9999.000000 -9999.000000 -9999.000000 0.000000 -9999.000000 -9999.000000 -9999.000000 -9999.000000 -9999.000000 
0.000000 0.000000 0.000000 0.000000 0.000000 0.000000 0.000000 0.000000 0.000000 0.000000 0.000000 0.000000 0.000000 0.000000 0.000000 0.000000 0.000000 0.000000 0.000000 0.000000 0.000000 0.000000 0.000000 0.077142 0.032655 0.086304 0.035898 0.207090 0.400000 0.022727 0.148800 0.559343 0.498850 0.848764 0.784580 0.572361 0.542000 0.483911 0.493231 0.190755 0.039687 0.070927 0.416184 0.125726 0.117326 0.274435 0.400015 0.378674 0.308367 0.358779 0.322646 0.339295 0.155876 0.000000 0.000000 0.000000 0.000000 -9999.000000 -9999.000000 -9999.000000 -9999.000000 -9999.000000 -9999.000000 -9999.000000 -9999.000000 -9999.000000 -9999.000000 -9999.000000 -9999.000000 -9999.000000 -9999.000000 -9999.000000 -9999.000000 -9999.000000 -9999.000000 -9999.000000 -9999.000000 -9999.000000 
0.000000 0.000000 0.000000 0.000000 0.000000 0.000000 0.000000 0.000000 0.000000 0.000000 0.000000 0.000000 0.000000 0.000000 0.000000 0.000000 0.000000 0.000000 0.000000 0.000000 0.052555 0.118368 0.001908 0.002530 0.022788 0.154222 0.131190 0.405890 0.367269 0.246057 0.385505 0.763889 0.890127 0.651612 0.496431 0.369725 0.236321 0.299192 0.465148 0.169833 0.006357 0.204633 0.488122 0.438864 0.464174 0.490859 0.437813 0.262889 0.273937 0.315157 0.247504 0.211486 0.077043 0.115824 0.213481 0.059980 0.000000 -9999.000000 -9999.000000 -9999.000000 -9999.000000 -9999.000000 -9999.000000 -9999.000000 -9999.000000 -9999.000000 -9999.000000 -9999.000000 -9999.000000 -9999.000000 -9999.000000 -9999.000000 -9999.000000 -9999.000000 -9999.000000 -9999.000000 -9999.000000 -9999.000000 
0.000000 0.000000 0.000000 0.000000 0.000000 0.000000 0.000000 0.000000 0.000000 0.000000 0.000000 0.000000 0.000000 0.000000 0.000000 0.000000 0.000000 0.000000 0.000000 0.019670 0.178594 0.340534 0.004433 0.141483 0.112938 0.290617 0.449796 0.312250 0.141790 0.446134 0.466700 0.670508 0.793013 0.043455 0.018334 0.003157 0.000623 0.003172 0.112621 0.388401 0.254927 0.371226 0.451998 0.486419 0.538938 0.457380 0.335912 0.348523 0.386472 0.433438 0.260100 0.320550 0.201212 0.089131 0.005462 0.000000 0.000000 0.000000 -9999.000000 -9999.000000 -9999.000000 -9999.000000 -9999.000000 -9999.000000 -9999.000000 -9999.000000 -9999.000000 -9999.000000 -9999.000000 -9999.000000 -9999.000000 -9999.000000 -9999.000000 -9999.000000 -9999.000000 -9999.000000 -9999.000000 -9999.000000 
0.000000 0.000000 0.000000 0.000000 0.000000 0.000000 0.000000 0.000000 0.000000 0.000000 0.000000 0.000000 0.000000 0.000000 0.000000 0.000000 0.000000 0.000000 0.028571 0.181357 0.048071 0.163498 0.000000 0.227446 0.218631 0.125434 0.198716 0.113506 0.080052 0.290470 0.500000 0.582804 0.513649 0.233661 0.228413 0.027320 0.018336 0.032950 0.009478 0.395807 0.474278 0.336120 0.378387 0.490855 0.652671 0.565367 0.414468 0.489597 0.320006 0.279089 0.466161 0.469289 0.311423 0.191979 0.000000 0.000000 0.000000 0.000000 -9999.000000 -9999.000000 -9999.000000 -9999.000000 -9999.000000 -9999.000000 -9999.000000 -9999.000000 -9999.000000 -9999.000000 -9999.000000 -9999.000000 -9999.000000 -9999.000000 -9999.000000 -9999.000000 -9999.000000 -9999.000000 -9999.000000 0.000000 
0.000000 0.000000 0.000000 0.000000 0.000000 0.000000 0.000000 0.000000 0.000000 0.000000 0.000000 0.000000 0.000000 0.000000 0.000000 0.000000 0.000000 0.000633 0.335238 0.488622 0.285082 0.065190 0.000000 0.026684 0.002535 0.013331 0.069847 0.116043 0.053231 0.189040 0.481667 0.541805 0.736695 0.350545 0.110061 0.098038 0.033528 0.142896 0.092298 0.211495 0.181005 0.234459 0.472236 0.469300 0.533663 0.280591 0.170961 0.281341 0.072359 0.093214 0.130470 0.313387 0.177922 0.181134 0.000000 0.000000 0.000000 0.000000 -9999.000000 -9999.000000 -9999.000000 -9999.000000 -9999.000000 -9999.000000 -9999.000000 -9999.000000 -9999.000000 -9999.000000 -9999.000000 -9999.000000 -9999.000000 -9999.000000 -9999.000000 -9999.000000 -9999.000000 -9999.000000 -9999.000000 -9999.000000 
0.000000 0.000000 0.000000 0.000000 0.000000 0.000000 0.000000 0.000000 0.000000 0.000000 0.000000 0.000000 0.000000 0.000000 0.000000 0.000000 0.000000 0.000633 0.303492 0.491472 0.400253 0.081115 0.000000 0.000000 0.000000 0.000000 0.000000 0.013924 0.010787 0.027214 0.129959 0.409753 0.818094 0.494370 0.210893 0.185036 0.009211 0.016384 0.042966 0.019135 0.000000 0.078249 0.461305 0.492590 0.488109 0.166655 0.002541 0.017424 0.011039 0.000000 0.023482 0.088965 0.120947 0.175048 0.000000 0.000000 0.000000 0.000000 -9999.000000 -9999.000000 -9999.000000 -9999.000000 -9999.000000 -9999.000000 -9999.000000 -9999.000000 -9999.000000 -9999.000000 -9999.000000 -9999.000000 -9999.000000 -9999.000000 -9999.000000 -9999.000000 -9999.000000 -9999.000000 -9999.000000 -9999.000000 
0.000000 0.000000 0.000000 0.000000 0.000000 0.000000 0.000000 0.000000 0.000000 0.000000 0.000000 0.000000 0.000000 0.000000 0.000000 0.000000 0.000000 0.000000 0.054603 0.198227 0.027164 0.001896 0.000000 0.000000 0.000000 0.000632 0.000634 0.009488 0.000000 0.003155 0.090851 0.131171 0.497978 0.482967 0.864728 0.049815 0.004067 0.000000 0.004699 0.000000 0.015190 0.377280 0.467890 0.233343 0.155100 0.060241 0.079949 0.144920 0.234275 0.083403 0.052597 0.213596 0.300465 0.448449 0.000000 0.000000 0.000000 0.000000 -9999.000000 -9999.000000 -9999.000000 -9999.000000 -9999.000000 -9999.000000 -9999.000000 -9999.000000 -9999.000000 -9999.000000 -9999.000000 -9999.000000 -9999.000000 -9999.000000 -9999.000000 -9999.000000 -9999.000000 -9999.000000 -9999.000000 -9999.000000 
0.000000 0.000000 0.000000 0.000000 0.000000 0.000000 0.000000 0.000000 0.000000 0.000000 0.000000 0.000000 0.000000 0.000000 0.000000 0.000000 0.000000 0.000000 0.000000 0.000633 0.000000 0.000000 0.000000 0.000000 0.000000 0.002536 0.001268 0.008275 0.020266 0.173564 0.459472 0.093993 0.150353 0.272383 0.682852 0.174794 0.006074 0.000356 0.029036 0.038256 0.139391 0.427651 0.547003 0.306834 0.140379 0.240011 0.458841 0.411945 0.536725 0.286996 0.052843 0.190412 0.110866 0.298973 0.000000 0.000000 0.000000 0.000000 -9999.000000 -9999.000000 -9999.000000 -9999.000000 -9999.000000 -9999.000000 -9999.000000 -9999.000000 -9999.000000 -9999.000000 -9999.000000 -9999.000000 -9999.000000 -9999.000000 -9999.000000 -9999.000000 -9999.000000 -9999.000000 -9999.000000 -9999.000000 
0.000000 0.000000 0.000000 0.000000 0.000000 0.000000 0.000000 0.000000 0.000000 0.000000 0.000000 0.000000 0.000000 0.000000 0.000000 0.000000 0.000000 0.000000 0.000000 0.000000 0.000000 0.000000 0.000000 0.000000 0.000000 0.001898 0.008259 0.026063 0.044388 0.308180 0.337496 0.292412 0.080345 0.261696 0.480156 0.377498 0.021560 0.011319 0.039376 0.052534 0.002094 0.641353 0.585138 0.536194 0.499686 0.403775 0.490472 0.398237 0.470453 0.310939 0.065258 0.093589 0.331552 0.316314 0.000000 0.000000 0.000000 -9999.000000 -9999.000000 -9999.000000 -9999.000000 -9999.000000 -9999.000000 -9999.000000 -9999.000000 -9999.000000 -9999.000000 -9999.000000 -9999.000000 -9999.000000 -9999.000000 -9999.000000 -9999.000000 -9999.000000 -9999.000000 -9999.000000 -9999.000000 -9999.000000 
0.000000 0.000000 0.000000 0.000000 0.000000 0.000000 0.000000 0.000000 0.000000 0.000000 0.000000 0.000000 0.000000 0.000000 0.000000 0.000000 0.000000 0.000000 0.000000 0.000000 0.000000 0.000000 0.000000 0.000000 0.000000 0.000000 0.000000 0.003793 0.005063 0.029822 0.025316 0.330368 0.209090 0.162704 0.477196 0.376500 0.161805 0.578389 0.057162 0.000000 0.000000 0.561070 0.819330 0.667722 0.594304 0.094663 0.191192 0.391343 0.487435 0.392119 0.323217 0.561192 0.223590 0.408161 0.050350 0.004479 0.000000 -9999.000000 -9999.000000 -9999.000000 -9999.000000 -9999.000000 -9999.000000 -9999.000000 -9999.000000 -9999.000000 -9999.000000 -9999.000000 -9999.000000 -9999.000000 -9999.000000 -9999.000000 -9999.000000 -9999.000000 -9999.000000 -9999.000000 -9999.000000 -9999.000000 
0.000000 0.000000 0.000000 0.000000 0.000000 0.000000 0.000000 0.000000 0.000000 0.000000 0.000000 0.000000 0.000000 0.000000 0.000000 0.000000 0.000000 0.000000 0.000000 0.000000 0.000000 0.000000 0.000000 0.000000 0.000000 0.000000 0.000000 0.000000 0.000000 0.000000 0.005696 0.251676 0.488622 0.063838 0.372871 0.508244 0.193265 0.263187 0.015285 0.000000 0.022687 0.000000 0.126377 0.654303 0.255098 0.000605 0.074108 0.345040 0.559496 0.335956 0.121444 0.438906 0.409538 0.276143 0.146332 0.027066 0.000000 -9999.000000 -9999.000000 -9999.000000 -9999.000000 -9999.000000 -9999.000000 -9999.000000 -9999.000000 -9999.000000 -9999.000000 -9999.000000 -9999.000000 -9999.000000 -9999.000000 -9999.000000 -9999.000000 -9999.000000 -9999.000000 -9999.000000 -9999.000000 -9999.000000 
0.000000 0.000000 0.000000 0.000000 0.000000 0.000000 0.000000 0.000000 0.000000 0.000000 0.000000 0.000000 0.000000 0.000000 0.000000 0.000000 0.000000 0.000000 0.000000 0.000000 0.000000 0.000000 0.000000 0.000000 0.000000 0.000000 0.000000 0.000000 0.000000 0.000000 0.000000 0.180670 0.489730 0.003173 0.185824 0.460227 0.126881 0.066275 0.006865 0.000002 0.007167 0.034315 0.239658 0.396115 0.040549 0.000000 0.027759 0.313388 0.502511 0.255724 0.009025 0.104513 0.217309 0.281976 0.246223 0.145219 -9999.000000 -9999.000000 -9999.000000 -9999.000000 -9999.000000 -9999.000000 -9999.000000 -9999.000000 -9999.000000 -9999.000000 -9999.000000 -9999.000000 -9999.000000 -9999.000000 -9999.000000 -9999.000000 -9999.000000 -9999.000000 -9999.000000 -9999.000000 -9999.000000 -9999.000000 
0.000000 0.000000 0.000000 0.000000 0.000000 0.000000 0.000000 0.000000 0.000000 0.000000 0.000000 0.000000 0.000000 0.000000 0.000000 0.000000 0.000000 0.000000 0.000000 0.000000 0.000000 0.000000 0.000000 0.000000 0.000000 0.000000 0.000000 0.000000 0.000000 0.000000 0.000000 0.071202 0.204773 0.000000 0.065508 0.255090 0.388177 0.496831 0.217454 0.060075 0.003155 0.082923 0.463198 0.339636 0.012011 0.004429 0.020781 0.142771 0.476120 0.383815 0.251644 0.234572 0.334510 0.263664 0.398078 0.089830 -9999.000000 -9999.000000 -9999.000000 -9999.000000 -9999.000000 -9999.000000 -9999.000000 -9999.000000 -9999.000000 -9999.000000 -9999.000000 -9999.000000 -9999.000000 -9999.000000 -9999.000000 -9999.000000 -9999.000000 -9999.000000 -9999.000000 -9999.000000 -9999.000000 -9999.000000 
0.000000 0.000000 0.000000 0.000000 0.000000 0.000000 0.000000 0.000000 0.000000 0.000000 0.000000 0.000000 0.000000 0.000000 0.000000 0.000000 0.000000 0.000000 0.000000 0.000000 0.000000 0.000000 0.000000 0.000000 0.000000 0.000000 0.000000 0.000000 0.000000 0.000000 0.000000 0.003805 0.007624 0.000000 0.039315 0.292700 0.421772 0.550059 0.477228 0.461831 0.346011 0.189947 0.335577 0.174176 0.052645 0.001847 0.200754 0.278553 0.322348 0.194225 0.403463 0.349391 0.257045 0.184808 0.179210 0.078862 -9999.000000 -9999.000000 0.000000 0.000000 -9999.000000 -9999.000000 -9999.000000 -9999.000000 -9999.000000 -9999.000000 -9999.000000 -9999.000000 -9999.000000 -9999.000000 -9999.000000 -9999.000000 -9999.000000 -9999.000000 -9999.000000 -9999.000000 -9999.000000 -9999.000000 
0.000000 0.000000 0.000000 0.000000 0.000000 0.000000 0.000000 0.000000 0.000000 0.000000 0.000000 0.000000 0.000000 0.000000 0.000000 0.000000 0.000000 0.000000 0.000000 0.000000 0.000000 0.000000 0.000000 0.000000 0.000000 0.000000 0.000000 0.000000 0.000000 0.000000 0.000000 0.000000 0.000000 0.000000 0.003792 0.328992 0.437974 0.369636 0.492424 0.483549 0.462208 0.193416 0.054132 0.166827 0.386853 0.027157 0.029204 0.051461 0.024684 0.009512 0.108707 0.541744 0.004284 0.008581 0.240560 0.110562 -9999.000000 -9999.000000 0.000000 0.000000 0.000000 -9999.000000 -9999.000000 -9999.000000 -9999.000000 -9999.000000 -9999.000000 -9999.000000 -9999.000000 -9999.000000 -9999.000000 -9999.000000 -9999.000000 -9999.000000 -9999.000000 -9999.000000 -9999.000000 -9999.000000 
0.000000 0.000000 0.000000 0.000000 0.000000 0.000000 0.000000 0.000000 0.000000 0.000000 0.000000 0.000000 0.000000 0.000000 0.000000 0.000000 0.000000 0.000000 0.000000 0.000000 0.000000 0.000000 0.000000 0.000000 0.000000 0.000000 0.000000 0.000000 0.000000 0.000000 0.000000 0.000000 0.000000 0.007593 0.045133 0.403550 0.446071 0.599559 0.639686 0.531650 0.426440 0.321089 0.045154 0.234177 0.458664 0.173615 0.133346 0.050717 0.000631 0.000629 0.133874 0.455979 0.056860 0.026788 0.176562 0.081654 0.000000 -9999.000000 -9999.000000 0.000000 0.000000 -9999.000000 -9999.000000 -9999.000000 -9999.000000 -9999.000000 -9999.000000 -9999.000000 -9999.000000 -9999.000000 -9999.000000 -9999.000000 -9999.000000 -9999.000000 -9999.000000 -9999.000000 -9999.000000 -9999.000000 
0.000000 0.000000 0.000000 0.000000 0.000000 0.000000 0.000000 0.000000 0.000000 0.000000 0.000000 0.000000 0.000000 0.000000 0.000000 0.000000 0.000000 0.000000 0.000000 0.000000 0.000000 0.000000 0.000000 0.000000 0.000000 0.000000 0.000000 0.000000 0.000000 0.000000 0.000000 0.000000 0.000000 0.258428 0.380346 0.691710 0.567431 0.875395 0.920504 0.589675 0.562409 0.406751 0.036698 0.301648 0.471742 0.402436 0.479125 0.360858 0.033523 0.082733 0.427220 0.470681 0.675632 0.219979 0.200871 0.093305 0.000000 0.000000 0.000000 0.000000 -9999.000000 -9999.000000 -9999.000000 -9999.000000 -9999.000000 -9999.000000 -9999.000000 -9999.000000 -9999.000000 -9999.000000 -9999.000000 -9999.000000 -9999.000000 -9999.000000 -9999.000000 -9999.000000 -9999.000000 -9999.000000 
0.000000 0.000000 0.000000 0.000000 0.000000 0.000000 0.000000 0.000000 0.000000 0.000000 0.000000 0.000000 0.000000 0.000000 0.000000 0.000000 0.000000 0.000000 0.000000 0.000000 0.000000 0.000000 0.000000 0.000000 0.000000 0.000000 0.000000 0.000000 0.000000 0.000000 0.000000 0.000000 0.177370 0.583950 0.609945 0.610621 0.360762 0.531082 0.660107 0.528665 0.520505 0.350855 0.032302 0.073719 0.150485 0.183712 0.468837 0.352746 0.082450 0.338832 0.758720 0.331171 0.490685 0.374260 0.426516 0.103191 0.000000 0.000000 0.000000 0.000000 -9999.000000 -9999.000000 -9999.000000 -9999.000000 -9999.000000 -9999.000000 -9999.000000 -9999.000000 -9999.000000 -9999.000000 -9999.000000 -9999.000000 -9999.000000 -9999.000000 -9999.000000 -9999.000000 -9999.000000 -9999.000000 
0.000000 0.000000 0.000000 0.000000 0.000000 0.000000 0.000000 0.000000 0.000000 0.000000 0.000000 0.000000 0.000000 0.000000 0.000000 0.000000 0.000000 0.000000 0.000000 0.000000 0.000000 0.000000 0.000000 0.000000 0.000000 0.000000 0.000000 0.000000 0.000000 0.000000 0.000000 0.000000 0.110971 0.048132 0.167731 0.543946 0.756320 0.593386 0.513072 0.489081 0.483479 0.318927 0.271371 0.255579 0.279627 0.323889 0.147079 0.159259 0.147552 0.499329 0.811062 0.063331 0.167198 0.179166 0.228501 0.166080 0.000000 0.000000 0.000000 -9999.000000 -9999.000000 -9999.000000 -9999.000000 -9999.000000 -9999.000000 -9999.000000 -9999.000000 -9999.000000 -9999.000000 -9999.000000 -9999.000000 -9999.000000 -9999.000000 -9999.000000 -9999.000000 -9999.000000 -9999.000000 -9999.000000 
0.000000 0.000000 0.000000 0.000000 0.000000 0.000000 0.000000 0.000000 0.000000 0.000000 0.000000 0.000000 0.000000 0.000000 0.000000 0.000000 0.000000 0.000000 0.000000 0.000000 0.000000 0.000000 0.000000 0.000000 0.000000 0.000000 0.000000 0.000000 0.000000 0.000000 0.000000 0.000000 0.000000 0.017582 0.524249 0.985820 0.935987 0.741497 0.499048 0.263796 0.067836 0.009678 0.012991 0.027263 0.335380 0.490863 0.212121 0.126894 0.363964 0.439429 0.313646 0.480856 0.865075 0.666241 0.274622 0.184087 0.108001 0.000000 -9999.000000 -9999.000000 -9999.000000 -9999.000000 -9999.000000 -9999.000000 -9999.000000 -9999.000000 -9999.000000 -9999.000000 -9999.000000 -9999.000000 -9999.000000 -9999.000000 -9999.000000 -9999.000000 -9999.000000 -9999.000000 -9999.000000 -9999.000000 
0.000000 0.000000 0.000000 0.000000 0.000000 0.000000 0.000000 0.000000 0.000000 0.000000 0.000000 0.000000 0.000000 0.000000 0.000000 0.000000 0.000000 0.000000 0.000000 0.000000 0.000000 0.000000 0.000000 0.000000 0.000000 0.000000 0.000000 0.000000 0.000000 0.000000 0.000000 0.000000 0.000245 0.000540 0.930164 0.914330 0.814647 0.478402 0.375144 0.269240 0.308919 0.111573 0.000000 0.013236 0.426585 0.496103 0.448866 0.363836 0.371600 0.222759 0.129913 0.154672 0.306167 0.510983 0.197803 0.190453 0.099672 0.000000 0.000000 -9999.000000 -9999.000000 -9999.000000 -9999.000000 -9999.000000 -9999.000000 -9999.000000 -9999.000000 -9999.000000 -9999.000000 -9999.000000 -9999.000000 -9999.000000 -9999.000000 -9999.000000 -9999.000000 -9999.000000 -9999.000000 -9999.000000 
0.000000 0.000000 0.000000 0.000000 0.000000 0.000000 0.000000 0.000000 0.000000 0.000000 0.000000 0.000000 0.000000 0.000000 0.000000 0.500000 0.500000 0.500000 0.500000 0.500000 0.500000 0.000000 0.000000 0.000000 0.000000 0.000000 0.000000 0.000000 0.166667 0.515625 0.000000 0.000000 0.000623 0.000566 0.565117 0.515623 0.503127 0.141434 0.010114 0.243859 0.413505 0.310891 0.009813 0.003580 0.338767 0.499830 0.477192 0.462071 0.476502 0.509517 0.347987 0.215541 0.178515 0.508456 0.424097 0.343456 0.143108 0.000000 0.000000 0.000000 -9999.000000 -9999.000000 -9999.000000 -9999.000000 -9999.000000 -9999.000000 -9999.000000 -9999.000000 -9999.000000 -9999.000000 -9999.000000 -9999.000000 -9999.000000 -9999.000000 -9999.000000 -9999.000000 -9999.000000 -9999.000000 
0.000000 0.000000 0.000000 0.000000 0.000000 0.000000 0.000000 0.000000 0.000000 0.000000 0.000000 0.000000 0.000000 0.000000 0.000000 0.500000 0.500000 0.500000 0.500000 0.500000 0.500000 0.450000 0.000000 0.000000 0.000000 0.000000 0.000000 0.000000 0.000000 0.500000 0.354167 0.250192 0.087176 0.000168 0.489156 0.495662 0.492091 0.254241 0.089955 0.255362 0.347347 0.127721 0.036191 0.180272 0.458002 0.433135 0.445137 0.404011 0.508753 0.399643 0.120658 0.413378 0.591789 0.616942 0.494564 0.610145 0.152187 0.379051 0.149254 0.000000 -9999.000000 -9999.000000 -9999.000000 -9999.000000 -9999.000000 -9999.000000 -9999.000000 -9999.000000 -9999.000000 -9999.000000 -9999.000000 -9999.000000 -9999.000000 -9999.000000 -9999.000000 -9999.000000 -9999.000000 -9999.000000 
0.000000 0.000000 0.000000 0.000000 0.000000 0.000000 0.000000 0.000000 0.000000 0.000000 0.000000 0.000000 0.000000 0.000000 0.500000 0.500000 0.500000 0.500000 0.500000 0.500000 0.500000 0.450000 0.000000 0.000000 0.000000 0.000000 0.000000 0.000000 0.000000 0.500000 0.500000 0.500000 0.250794 0.011965 0.426250 0.488369 0.497385 0.483925 0.252532 0.302488 0.167865 0.007568 0.077115 0.347153 0.646005 0.420235 0.367277 0.337372 0.547006 0.628693 0.671001 0.532839 0.460347 0.625885 0.310082 0.278549 0.231789 0.260106 0.434906 0.179226 -9999.000000 -9999.000000 -9999.000000 -9999.000000 -9999.000000 -9999.000000 -9999.000000 -9999.000000 -9999.000000 -9999.000000 -9999.000000 -9999.000000 -9999.000000 -9999.000000 -9999.000000 -9999.000000 -9999.000000 -9999.000000 
0.000000 0.000000 0.000000 0.000000 0.000000 0.000000 0.000000 0.000000 0.000000 0.000000 0.000000 0.000000 0.000000 0.000000 0.500000 0.500000 0.500000 0.500000 0.500000 0.500000 0.500000 0.500000 0.000000 0.000000 0.000000 0.000000 0.000000 0.000000 0.079277 0.335002 0.501884 0.500000 0.225111 0.000000 0.289791 0.497749 0.498429 0.455166 0.118020 0.192025 0.416374 0.178746 0.188125 0.262779 0.446285 0.559418 0.463244 0.492184 0.519464 0.647271 0.727111 0.476657 0.490643 0.459048 0.060678 0.193794 0.061354 0.219714 0.402177 0.471941 0.000000 -9999.000000 -9999.000000 -9999.000000 -9999.000000 -9999.000000 -9999.000000 -9999.000000 -9999.000000 -9999.000000 -9999.000000 -9999.000000 -9999.000000 -9999.000000 -9999.000000 -9999.000000 -9999.000000 -9999.000000 
0.000000 0.000000 0.000000 0.000000 0.000000 0.000000 0.000000 0.000000 0.000000 0.000000 0.000000 0.000000 0.000000 0.000000 0.500000 0.500000 0.500000 0.500000 0.500000 0.500000 0.500000 0.500000 0.000000 0.000000 0.000000 0.000000 0.011544 0.055658 0.101884 0.207868 0.302311 0.397729 0.354880 0.121424 0.375554 0.467881 0.493221 0.358634 0.276650 0.446700 0.495268 0.443188 0.238751 0.270672 0.403597 0.474552 0.495678 0.492111 0.502695 0.536248 0.495459 0.502254 0.517697 0.448279 0.248984 0.063371 0.288018 0.112340 0.182853 0.381163 0.000000 -9999.000000 -9999.000000 -9999.000000 -9999.000000 -9999.000000 -9999.000000 -9999.000000 -9999.000000 -9999.000000 -9999.000000 -9999.000000 -9999.000000 -9999.000000 -9999.000000 -9999.000000 -9999.000000 -9999.000000 
0.000000 0.000000 0.000000 0.000000 0.000000 0.000000 0.000000 0.000000 0.000000 0.000000 0.000000 0.000000 0.000000 0.000000 0.000000 0.500000 0.500000 0.500000 0.500000 0.500000 0.500000 0.500000 0.000000 0.000000 0.000000 0.000000 0.066404 0.013760 0.202322 0.095329 0.000000 0.494943 0.460368 0.485732 0.462998 0.344531 0.253765 0.023352 0.189988 0.440181 0.441061 0.151436 0.240111 0.399469 0.560218 0.382256 0.468898 0.460070 0.394235 0.301814 0.350563 0.580337 0.500781 0.484612 0.323523 0.135541 0.112516 0.416565 0.286193 0.229859 0.140953 0.111828 -9999.000000 -9999.000000 0.000000 -9999.000000 -9999.000000 -9999.000000 -9999.000000 -9999.000000 -9999.000000 -9999.000000 -9999.000000 -9999.000000 -9999.000000 -9999.000000 -9999.000000 -9999.000000 
0.000000 0.000000 0.000000 0.000000 0.000000 0.000000 0.000000 0.000000 0.000000 0.000000 0.000000 0.000000 0.000000 0.000000 0.000000 0.500000 0.500000 0.500000 0.500000 0.500000 0.500000 0.000000 0.000000 0.000000 0.000000 0.000000 0.002535 0.068674 0.164014 0.013063 0.000191 0.128314 0.145754 0.493064 0.283739 0.230747 0.301073 0.214054 0.012665 0.294503 0.292165 0.045714 0.147715 0.067113 0.161522 0.030249 0.226838 0.062841 0.128256 0.136170 0.045822 0.228588 0.302989 0.183387 0.079297 0.459560 0.288294 0.256842 0.245315 0.202954 0.307959 0.260550 0.000000 0.000000 0.000000 -9999.000000 -9999.000000 -9999.000000 -9999.000000 -9999.000000 -9999.000000 -9999.000000 -9999.000000 -9999.000000 -9999.000000 -9999.000000 -9999.000000 -9999.000000 
0.000000 0.000000 0.000000 0.000000 0.000000 0.000000 0.000000 0.000000 0.000000 0.000000 0.000000 0.000000 0.000000 0.000000 0.000000 0.000000 0.500000 0.500000 0.500000 0.500000 0.000000 0.000000 0.000000 0.000000 0.000000 0.000000 0.000000 0.000000 0.000000 0.000000 0.000000 0.000787 0.001269 0.474716 0.231534 0.298788 0.420072 0.472984 0.098018 0.328378 0.315789 0.071338 0.033071 0.069349 0.025215 0.002365 0.114844 0.079829 0.088654 0.108136 0.013557 0.053403 0.283856 0.328204 0.035913 0.392936 0.264504 0.488945 0.357777 0.250171 0.290429 0.074692 0.116483 0.000000 0.002947 -9999.000000 -9999.000000 -9999.000000 -9999.000000 -9999.000000 -9999.000000 -9999.000000 -9999.000000 -9999.000000 -9999.000000 -9999.000000 -9999.000000 -9999.000000 
0.000000 0.000000 0.000000 0.000000 0.000000 0.000000 0.000000 0.000000 0.017362 0.000000 0.000000 0.000628 0.000626 0.000000 0.166667 0.000000 0.000000 0.000000 0.000000 0.000000 0.000000 0.000000 0.000000 0.000000 0.000000 0.000000 0.000000 0.000000 0.000000 0.000000 0.000017 0.006944 0.091371 0.462874 0.481061 0.492424 0.473358 0.490731 0.345128 0.027748 0.286230 0.471737 0.128010 0.266351 0.140368 0.025391 0.283629 0.291139 0.436985 0.456907 0.387445 0.347160 0.435760 0.299814 0.141381 0.092027 0.086509 0.264922 0.282210 0.330586 0.370200 0.303965 0.337643 0.069731 -9999.000000 -9999.000000 -9999.000000 -9999.000000 -9999.000000 -9999.000000 -9999.000000 -9999.000000 -9999.000000 -9999.000000 -9999.000000 -9999.000000 -9999.000000 -9999.000000 
0.000000 0.000000 0.000000 0.000000 0.000000 0.000000 0.000000 0.000000 0.095794 0.069514 0.124208 0.186945 0.278976 0.500000 0.110026 0.000000 0.000000 0.000000 0.000000 0.000000 0.000000 0.000000 0.000000 0.000000 0.000000 0.000000 0.000000 0.000000 0.000000 0.000000 0.000038 0.000000 0.960152 0.836696 0.488357 0.497168 0.461353 0.408133 0.532540 0.138251 0.450958 0.463052 0.141229 0.113852 0.099777 0.135653 0.365947 0.341587 0.441772 0.308619 0.612658 0.475750 0.462260 0.435760 0.410646 0.201118 0.214933 0.489944 0.478020 0.449402 0.205889 0.191902 0.493425 0.199675 -9999.000000 -9999.000000 -9999.000000 -9999.000000 -9999.000000 -9999.000000 -9999.000000 -9999.000000 -9999.000000 -9999.000000 -9999.000000 -9999.000000 -9999.000000 -9999.000000 
0.000000 0.000000 0.000000 0.000000 0.000000 0.000000 0.000000 0.000000 0.117790 0.218561 0.250474 0.293147 0.299492 0.049717 0.000000 0.000000 0.000000 0.000000 0.000000 0.000000 0.000000 0.000000 0.000000 0.000000 0.000000 0.000000 0.000000 0.000000 0.000000 0.000000 0.001673 0.001435 0.998738 0.881739 0.501577 0.456494 0.338812 0.386502 0.172206 0.105118 0.457133 0.454831 0.318952 0.134808 0.110710 0.340729 0.349428 0.293968 0.581807 0.270939 0.558935 0.366283 0.339928 0.406912 0.241646 0.132889 0.337306 0.479643 0.492265 0.457202 0.253909 0.433689 0.405445 0.492082 0.091901 0.030984 0.028329 0.111515 -9999.000000 -9999.000000 -9999.000000 -9999.000000 -9999.000000 -9999.000000 -9999.000000 -9999.000000 -9999.000000 -9999.000000 
0.000000 0.000000 0.000000 0.000000 0.000000 0.000000 0.000000 0.000000 0.102444 0.184762 0.196576 0.243346 0.145397 0.000631 0.000000 0.000000 0.000000 0.000000 0.000000 0.000000 0.000000 0.000000 0.000000 0.000000 0.000000 0.000000 0.000000 0.000000 0.000000 0.000327 0.004907 0.074441 0.735443 0.927250 0.262699 0.054820 0.025917 0.039792 0.023437 0.058281 0.299694 0.471710 0.386024 0.346736 0.061852 0.260311 0.477752 0.108005 0.141587 0.023416 0.096843 0.036672 0.064296 0.165047 0.019015 0.186062 0.274488 0.423044 0.395187 0.285298 0.106393 0.230704 0.208542 0.278313 0.597133 0.398904 0.417633 0.166562 -9999.000000 -9999.000000 -9999.000000 -9999.000000 -9999.000000 -9999.000000 -9999.000000 -9999.000000 -9999.000000 -9999.000000 
0.000000 0.000000 0.000000 0.000000 0.000000 0.000000 0.000000 0.000000 0.041859 0.111205 0.162968 0.098350 0.003159 0.000000 0.000000 0.000000 0.000000 0.000000 0.000000 0.000000 0.000000 0.000000 0.000000 0.000000 0.000000 0.000000 0.000000 0.000000 0.000000 0.000058 0.030036 0.041006 0.403605 0.991189 0.108863 0.000113 0.000227 0.002819 0.046775 0.317712 0.045986 0.188009 0.098591 0.568670 0.080185 0.225454 0.531349 0.247779 0.093968 0.038023 0.025455 0.000709 0.037318 0.019932 0.014825 0.172538 0.164469 0.151986 0.037857 0.025850 0.033708 0.017387 0.004268 0.009050 0.191967 0.087105 0.232578 0.293690 -9999.000000 -9999.000000 -9999.000000 -9999.000000 -9999.000000 -9999.000000 -9999.000000 -9999.000000 -9999.000000 -9999.000000 
0.000000 0.000000 0.000000 0.000000 0.000000 0.000000 0.000000 0.000000 0.000000 0.000000 0.031655 0.000632 0.000000 0.000000 0.000000 0.000000 0.000000 0.000000 0.000000 0.000000 0.000000 0.000000 0.000000 0.000000 0.000000 0.000000 0.000000 0.000000 0.000000 0.000000 0.005225 0.010751 0.314322 0.787067 0.025017 0.000000 0.000000 0.000000 0.011986 0.128958 0.006543 0.004437 0.163035 0.337612 0.200371 0.180232 0.221659 0.266751 0.038706 0.053292 0.008243 0.245757 0.232796 0.275485 0.105689 0.033364 0.117538 0.128498 0.046207 0.008709 0.003003 0.000000 0.000000 0.005879 0.160952 0.024104 0.038755 0.060025 -9999.000000 -9999.000000 -9999.000000 -9999.000000 -9999.000000 -9999.000000 -9999.000000 -9999.000000 -9999.000000 -9999.000000 
0.000000 0.000000 0.000000 0.000000 0.000000 0.000000 0.000000 0.000000 0.000000 0.004495 0.000000 0.000000 0.000000 0.000000 0.000000 0.000000 0.000000 0.000000 0.000000 0.000000 0.000000 0.000000 0.000000 0.000000 0.000000 0.000000 0.000000 0.000000 0.000000 0.000000 0.000030 0.000000 0.026561 0.022208 0.001031 0.000000 0.000000 0.000633 0.079688 0.335436 0.183146 0.029167 0.251533 0.203927 0.082004 0.064516 0.401520 0.252182 0.040500 0.163074 0.120979 0.255648 0.030979 0.161137 0.367344 0.270205 0.194370 0.035465 0.065703 0.013874 0.003592 0.000000 0.000000 0.000000 0.021737 0.061112 0.063691 0.007397 -9999.000000 -9999.000000 -9999.000000 -9999.000000 -9999.000000 -9999.000000 -9999.000000 -9999.000000 -9999.000000 -9999.000000 
0.000000 0.000000 0.000000 0.000000 0.000000 0.000000 0.000000 0.000000 0.000000 0.000000 0.000000 0.000000 0.000000 0.000000 0.000000 0.000000 0.000000 0.000000 0.000000 0.000000 0.000000 0.000000 0.000000 0.000000 0.000000 0.000000 0.000000 0.000000 0.000000 0.064386 0.086720 0.089709 0.012025 0.000000 0.000000 0.000000 0.000000 0.025441 0.115361 0.217878 0.436171 0.034740 0.029043 0.291588 0.079141 0.121013 0.310738 0.397823 0.341804 0.192626 0.405317 0.178832 0.022813 0.144995 0.274805 0.035297 0.017012 0.167194 0.085823 0.000634 0.000000 0.000000 0.000000 0.000000 0.001169 0.185595 0.561525 0.018977 0.180811 -9999.000000 -9999.000000 -9999.000000 -9999.000000 -9999.000000 -9999.000000 -9999.000000 -9999.000000 -9999.000000 
0.000000 0.000000 0.000000 0.000000 0.000000 0.000000 0.000000 0.000000 0.000000 0.000000 0.000000 0.000000 0.000000 0.000000 0.000000 0.000000 0.000000 0.000000 0.000000 0.000000 0.000000 0.000000 0.000000 0.000000 0.000000 0.000000 0.000000 0.000000 0.140810 0.016444 0.071731 0.054101 0.000000 0.000000 0.000000 0.000000 0.000000 0.011288 0.115889 0.417499 0.459230 0.099820 0.023238 0.351354 0.085911 0.083691 0.094441 0.356888 0.448101 0.217447 0.513438 0.533968 0.180962 0.012963 0.002174 0.193105 0.354014 0.412833 0.162874 0.005057 0.000000 0.000000 0.000000 0.008694 0.001607 0.260915 0.350723 0.082200 0.031422 0.000000 -9999.000000 -9999.000000 -9999.000000 -9999.000000 -9999.000000 -9999.000000 -9999.000000 -9999.000000 
0.000000 0.000000 0.000000 0.000000 0.000000 0.000000 0.000000 0.000000 0.000000 0.000000 0.000000 0.000000 0.000000 0.000000 0.000000 0.000000 0.000000 0.000000 0.000000 0.000000 0.000000 0.000000 0.000000 0.000000 0.000000 0.000000 0.000000 0.000000 0.026343 0.002658 0.000000 0.000833 0.000000 0.000000 0.000000 0.000000 0.000000 0.000000 0.000619 0.076749 0.418861 0.385792 0.033175 0.290271 0.151145 0.048724 0.303234 0.349086 0.331542 0.209759 0.282804 0.426630 0.371723 0.032032 0.004204 0.199447 0.526283 0.244459 0.295722 0.043398 0.000000 0.000000 0.012059 0.404038 0.116845 0.022565 0.378675 0.841803 0.243984 0.140987 0.018675 0.009757 -9999.000000 -9999.000000 -9999.000000 -9999.000000 -9999.000000 -9999.000000 
0.000000 0.000000 0.000000 0.000000 0.000000 0.000000 0.000000 0.000000 0.000000 0.000000 0.000000 0.000000 0.000000 0.000000 0.000000 0.000000 0.000000 0.000000 0.000000 0.000000 0.000000 0.000000 0.000000 0.000000 0.000000 0.000000 0.000000 0.000000 0.003396 0.000000 0.000000 0.000013 0.000000 0.000000 0.000000 0.000000 0.000000 0.000000 0.000000 0.000000 0.069717 0.121458 0.021706 0.171680 0.028220 0.029254 0.139333 0.151277 0.004048 0.126199 0.348948 0.343909 0.246552 0.160296 0.063714 0.298611 0.384345 0.147625 0.128711 0.011234 0.000000 0.000000 0.001839 0.362531 0.122666 0.276187 0.480670 0.485113 0.251255 0.227187 0.054345 0.036095 0.176454 0.230679 -9999.000000 -9999.000000 -9999.000000 -9999.000000 
0.000000 0.000000 0.000000 0.000000 0.000000 0.000000 0.000000 0.000000 0.000000 0.000000 0.000000 0.000000 0.000000 0.000000 0.000000 0.000000 0.000000 0.000000 0.000000 0.000000 0.000000 0.000000 0.000000 0.000000 0.000000 0.000000 0.000000 0.000000 0.000000 0.000000 0.000000 0.000007 0.000000 0.000004 0.000000 0.000000 0.000000 0.000000 0.002371 0.001017 0.000394 0.016595 0.030355 0.159597 0.029127 0.007007 0.023012 0.099326 0.040901 0.044817 0.317259 0.163918 0.073113 0.086172 0.002229 0.097434 0.079197 0.214341 0.109559 0.006985 0.000000 0.000000 0.000000 0.011385 0.001219 0.001161 0.009477 0.007514 0.363367 0.215569 0.123138 0.110271 0.016970 0.044416 0.074916 -9999.000000 -9999.000000 -9999.000000 
0.000000 0.000000 0.000000 0.000000 0.000000 0.000000 0.000000 0.000000 0.000000 0.000000 0.000000 0.000000 0.000000 0.000000 0.000000 0.000000 0.000000 0.000000 0.000000 0.000000 0.000000 0.000000 0.000000 0.000000 0.000000 0.000000 0.000000 0.000000 0.000000 0.000000 0.000000 0.000000 0.000000 0.000000 0.000000 0.000000 0.000000 0.001395 0.010062 0.116176 0.004085 0.207985 0.230064 0.011719 0.014494 0.070963 0.376030 0.402230 0.417686 0.320000 0.509186 0.677644 0.569907 0.172405 0.039303 0.215959 0.122272 0.435689 0.579046 0.011443 0.000000 0.000633 0.000000 0.000000 0.000000 0.000000 0.000993 0.062696 0.190640 0.178280 0.112781 0.145144 0.070253 0.040302 0.031898 -9999.000000 -9999.000000 -9999.000000 
0.000000 0.000000 0.000000 0.000000 0.000000 0.000000 0.000000 0.000000 0.000000 0.000000 0.000000 0.000000 0.000000 0.000000 0.000000 0.000000 0.000000 0.000000 0.000000 0.000000 0.000000 0.000000 0.000000 0.000000 0.000000 0.000000 0.000000 0.000000 0.000000 0.000000 0.000000 0.000000 0.000000 0.000000 0.000000 0.000000 0.000000 0.000071 0.006304 0.151940 0.004447 0.182023 0.322343 0.193961 0.021646 0.026266 0.057680 0.376063 0.399278 0.566893 0.142041 0.411863 0.657048 0.391285 0.080402 0.293185 0.345309 0.911808 0.543092 0.016384 0.000000 0.000634 0.000000 0.000632 0.000632 0.000000 0.002142 0.006549 0.007853 0.021514 0.015791 0.096256 0.024661 0.133714 0.123816 0.071787 0.080716 -9999.000000 
0.000000 0.000000 0.000000 0.000000 0.000000 0.000000 0.000000 0.000000 0.000000 0.000000 0.000000 0.000000 0.000000 0.000000 0.000000 0.000000 0.000000 0.000000 0.000000 0.000000 0.000000 0.000000 0.000000 0.000000 0.000000 0.000000 0.000000 0.000000 0.000000 0.000000 0.000000 0.000000 0.000000 0.000000 0.000000 0.000000 0.000000 0.000000 0.000000 0.000000 0.131623 0.848322 0.903531 0.148709 0.219404 0.029791 0.093139 0.391253 0.750000 0.739873 0.604932 0.876904 0.292555 0.309467 0.056170 0.003519 0.029091 0.422223 0.100084 0.011389 0.000000 0.004305 0.041645 0.093246 0.060887 0.008878 0.002531 0.006338 0.000042 0.000000 0.056394 0.110976 0.041785 0.005711 0.084391 0.062695 -9999.000000 -9999.000000 
0.000000 0.000000 0.000000 0.000000 0.000000 0.000000 0.000000 0.000000 0.000000 0.000000 0.000000 0.000000 0.000000 0.000000 0.000000 0.000000 0.000000 0.000000 0.000000 0.000000 0.000000 0.000000 0.000000 0.000000 0.000000 0.000000 0.000000 0.000000 0.000000 0.000000 0.000000 0.000000 0.000000 0.000000 0.000000 0.000000 0.000000 0.000000 0.000000 0.000148 0.005825 0.099950 0.080216 0.006974 0.010072 0.021080 0.208212 0.473952 0.423604 0.599113 0.622512 0.192365 0.274107 0.259023 0.024606 0.001178 0.005329 0.650252 0.787031 0.042503 0.000633 0.049538 0.045097 0.004235 0.020406 0.040173 0.003369 0.003148 0.000000 0.021821 0.035173 0.032444 0.108891 0.111169 0.126823 0.099683 0.059356 -9999.000000 
0.000000 0.000000 0.000000 0.000000 0.000000 0.000000 0.000000 0.000000 0.000000 0.000000 0.000000 0.000000 0.000000 0.000000 0.000000 0.000000 0.000000 0.000000 0.000000 0.000000 0.000000 0.000000 0.000000 0.000000 0.000000 0.000000 0.000000 0.000000 0.000000 0.000000 0.000000 0.000000 0.000000 0.000000 0.000000 0.000000 0.000000 0.000000 0.000000 0.001772 0.024855 0.172484 0.037764 0.034048 0.104507 0.073551 0.125756 0.397590 0.313006 0.531091 0.488969 0.275809 0.439519 0.543261 0.135829 0.039244 0.106425 0.398356 0.564803 0.095238 0.085335 0.163395 0.037743 0.009331 0.034295 0.063622 0.048997 0.021212 0.036378 0.083766 0.023385 0.000000 0.036965 0.135310 0.142403 0.080000 -9999.000000 0.004705 
0.000000 0.000000 0.000000 0.000000 0.000000 0.000000 0.000000 0.000000 0.000000 0.000000 0.000000 0.000000 0.000000 0.000000 0.000000 0.000000 0.000000 0.000000 0.000000 0.000000 0.000000 0.000000 0.000000 0.000000 0.000000 0.000000 0.000000 0.000000 0.000000 0.000000 0.000000 0.000000 0.000325 0.000311 0.000541 0.012187 0.000000 0.000000 0.000000 0.000000 0.000000 0.466075 0.162024 0.202206 0.401396 0.074009 0.255367 0.376904 0.383636 0.335443 0.418147 0.319015 0.379377 0.228858 0.031996 0.005804 0.090794 0.524444 0.506024 0.168996 0.123331 0.163278 0.066894 0.007290 0.099372 0.146745 0.079813 0.146201 0.139897 0.144525 0.073313 0.049530 0.102677 0.133322 0.147843 0.131646 -9999.000000 -9999.000000 
0.000000 0.000000 0.000000 0.000000 0.000000 0.000000 0.000000 0.000000 0.000000 0.000000 0.000000 0.000000 0.000000 0.000000 0.000000 0.000000 0.000000 0.000000 0.000000 0.000000 0.000000 0.000000 0.000000 0.000000 0.000000 0.000000 0.000000 0.000000 0.000000 0.000000 0.000000 0.139067 0.013118 0.052418 0.000717 0.002543 0.000000 0.000000 0.000573 0.000000 0.000458 0.123795 0.026581 0.059493 0.062827 0.236098 0.429643 0.293224 0.097081 0.447252 0.412175 0.029092 0.291641 0.274944 0.299656 0.017258 0.103225 0.251429 0.290843 0.034898 0.093214 0.090621 0.000633 0.000000 0.045684 0.067790 0.038983 0.046571 0.057894 0.109702 0.022172 0.070029 0.111933 0.159189 0.148219 0.130545 0.097385 0.013740 
0.000000 0.000000 0.000000 0.000000 0.000000 0.000000 0.000000 0.000000 0.000000 0.000000 0.000000 0.000000 0.000000 0.000000 0.000000 0.000000 0.000000 0.000000 0.000000 0.000000 0.000000 0.000000 0.000000 0.000000 0.000000 0.000000 0.000000 0.000000 0.000000 0.000000 0.000000 0.206455 0.029809 0.003413 0.000000 0.000000 0.000000 0.017766 0.000000 0.000000 0.000000 0.000842 0.001686 0.053129 0.158850 0.158505 0.543878 0.385209 0.370864 0.500000 0.352021 0.030381 0.201201 0.339249 0.253762 0.010969 0.066722 0.005917 0.004234 0.000000 0.014358 0.013536 0.000000 0.000000 0.000000 0.004219 0.000000 0.000000 0.000000 0.003373 0.000000 0.016865 0.122223 0.144218 0.106509 0.121931 0.146390 0.028755 
