ncols        78
nrows        66
xllcorner    -87.500000000000
yllcorner    25.000000000000
cellsize     0.083333333333
NODATA_value -9999.000000
-9999.000000 -9999.000000 -9999.000000 -9999.000000 0.000000 0.000000 -9999.000000 -9999.000000 -9999.000000 -9999.000000 -9999.000000 0.000000 0.000000 0.000000 0.000000 0.000000 -9999.000000 -9999.000000 -9999.000000 -9999.000000 -9999.000000 -9999.000000 -9999.000000 -9999.000000 -9999.000000 -9999.000000 -9999.000000 -9999.000000 -9999.000000 -9999.000000 -9999.000000 -9999.000000 -9999.000000 -9999.000000 -9999.000000 -9999.000000 -9999.000000 -9999.000000 -9999.000000 -9999.000000 -9999.000000 -9999.000000 -9999.000000 -9999.000000 -9999.000000 -9999.000000 -9999.000000 -9999.000000 -9999.000000 -9999.000000 -9999.000000 -9999.000000 -9999.000000 -9999.000000 -9999.000000 -9999.000000 -9999.000000 -9999.000000 -9999.000000 -9999.000000 -9999.000000 -9999.000000 -9999.000000 -9999.000000 -9999.000000 -9999.000000 -9999.000000 -9999.000000 -9999.000000 -9999.000000 -9999.000000 -9999.000000 0.000000 0.290555 0.156368 0.000000 0.003347 0.000717 
-9999.000000 -9999.000000 -9999.000000 0.000000 0.000000 0.000000 0.000000 0.009307 0.013571 0.000000 0.020537 0.109949 0.042560 0.002997 0.000000 -9999.000000 -9999.000000 -9999.000000 -9999.000000 -9999.000000 -9999.000000 -9999.000000 -9999.000000 -9999.000000 -9999.000000 -9999.000000 -9999.000000 -9999.000000 -9999.000000 -9999.000000 -9999.000000 -9999.000000 -9999.000000 -9999.000000 -9999.000000 -9999.000000 -9999.000000 -9999.000000 -9999.000000 -9999.000000 -9999.000000 -9999.000000 -9999.000000 -9999.000000 -9999.000000 -9999.000000 -9999.000000 -9999.000000 -9999.000000 -9999.000000 -9999.000000 -9999.000000 -9999.000000 -9999.000000 -9999.000000 -9999.000000 -9999.000000 -9999.000000 -9999.000000 -9999.000000 -9999.000000 -9999.000000 -9999.000000 -9999.000000 -9999.000000 -9999.000000 -9999.000000 -9999.000000 -9999.000000 -9999.000000 -9999.000000 -9999.000000 -9999.000000 0.373285 0.247332 0.101558 0.000000 0.000000 
0.000000 0.000000 0.000000 0.000000 0.000000 0.000000 0.000000 0.000000 0.000000 0.000000 0.000000 0.000000 0.000621 0.000000 0.000000 0.000000 0.000000 -9999.000000 -9999.000000 -9999.000000 -9999.000000 -9999.000000 -9999.000000 -9999.000000 -9999.000000 -9999.000000 -9999.000000 -9999.000000 -9999.000000 -9999.000000 -9999.000000 -9999.000000 -9999.000000 -9999.000000 -9999.000000 -9999.000000 -9999.000000 -9999.000000 -9999.000000 -9999.000000 -9999.000000 -9999.000000 -9999.000000 -9999.000000 -9999.000000 -9999.000000 -9999.000000 -9999.000000 -9999.000000 -9999.000000 -9999.000000 -9999.000000 -9999.000000 -9999.000000 -9999.000000 -9999.000000 -9999.000000 -9999.000000 -9999.000000 -9999.000000 -9999.000000 -9999.000000 -9999.000000 -9999.000000 -9999.000000 -9999.000000 -9999.000000 -9999.000000 -9999.000000 -9999.000000 -9999.000000 -9999.000000 -9999.000000 0.579383 0.261940 0.051279 0.000000 0.000000 
0.000000 0.000000 0.000000 0.000000 0.000000 0.000000 0.000000 0.000000 0.000000 0.000000 0.000000 0.000000 0.000000 0.000000 0.001063 0.001233 0.000000 0.000000 0.000000 0.026467 0.000000 0.000000 -9999.000000 -9999.000000 -9999.000000 -9999.000000 -9999.000000 -9999.000000 -9999.000000 -9999.000000 -9999.000000 -9999.000000 -9999.000000 -9999.000000 -9999.000000 -9999.000000 -9999.000000 -9999.000000 -9999.000000 -9999.000000 -9999.000000 -9999.000000 -9999.000000 -9999.000000 -9999.000000 -9999.000000 -9999.000000 -9999.000000 -9999.000000 -9999.000000 -9999.000000 -9999.000000 -9999.000000 -9999.000000 -9999.000000 -9999.000000 -9999.000000 -9999.000000 -9999.000000 -9999.000000 -9999.000000 -9999.000000 -9999.000000 -9999.000000 -9999.000000 -9999.000000 -9999.000000 -9999.000000 -9999.000000 -9999.000000 -9999.000000 -9999.000000 -9999.000000 0.033804 0.035979 0.044585 0.000000 0.000000 
0.000000 0.000000 0.000000 0.000624 0.000000 0.000000 0.000605 0.013611 0.084431 0.000601 0.000627 0.001885 0.000000 0.000000 0.000614 0.001111 0.001207 0.000590 0.000000 0.000000 0.051600 0.000000 0.000000 0.000000 -9999.000000 -9999.000000 -9999.000000 -9999.000000 -9999.000000 -9999.000000 -9999.000000 -9999.000000 -9999.000000 -9999.000000 -9999.000000 -9999.000000 -9999.000000 -9999.000000 -9999.000000 -9999.000000 -9999.000000 0.079154 -9999.000000 -9999.000000 -9999.000000 -9999.000000 -9999.000000 -9999.000000 -9999.000000 -9999.000000 -9999.000000 -9999.000000 -9999.000000 -9999.000000 -9999.000000 -9999.000000 -9999.000000 -9999.000000 -9999.000000 -9999.000000 -9999.000000 -9999.000000 -9999.000000 -9999.000000 -9999.000000 -9999.000000 -9999.000000 -9999.000000 -9999.000000 -9999.000000 -9999.000000 -9999.000000 -9999.000000 -9999.000000 0.112374 0.017748 0.000000 0.000000 
0.000000 0.000000 0.000000 0.000000 0.000000 0.000000 0.102818 0.839229 0.930569 0.192646 0.005564 0.000620 0.000000 0.000626 0.004394 0.000000 0.001202 0.000000 0.000000 0.002475 0.000000 0.000000 0.000000 0.000000 -9999.000000 -9999.000000 -9999.000000 -9999.000000 -9999.000000 -9999.000000 -9999.000000 -9999.000000 -9999.000000 -9999.000000 -9999.000000 -9999.000000 -9999.000000 -9999.000000 0.000000 0.000000 0.000000 0.000000 0.000000 0.000000 -9999.000000 -9999.000000 -9999.000000 -9999.000000 -9999.000000 -9999.000000 -9999.000000 -9999.000000 -9999.000000 -9999.000000 -9999.000000 -9999.000000 -9999.000000 -9999.000000 -9999.000000 -9999.000000 -9999.000000 -9999.000000 -9999.000000 -9999.000000 -9999.000000 -9999.000000 -9999.000000 -9999.000000 -9999.000000 -9999.000000 -9999.000000 -9999.000000 -9999.000000 -9999.000000 0.206403 0.118382 0.000000 0.000000 
0.000000 0.000000 0.000000 0.000000 0.000000 0.005653 0.055270 0.888196 0.923546 0.701109 0.089918 0.003472 0.007983 0.067942 0.128554 0.012442 0.001253 0.000000 0.000000 0.000000 0.001255 0.001887 0.000585 0.000000 -9999.000000 -9999.000000 -9999.000000 -9999.000000 -9999.000000 -9999.000000 -9999.000000 -9999.000000 -9999.000000 -9999.000000 -9999.000000 -9999.000000 -9999.000000 -9999.000000 0.000000 0.000000 0.000000 0.000000 0.000000 0.000000 0.000000 -9999.000000 -9999.000000 -9999.000000 -9999.000000 -9999.000000 -9999.000000 -9999.000000 -9999.000000 -9999.000000 -9999.000000 -9999.000000 -9999.000000 -9999.000000 -9999.000000 -9999.000000 -9999.000000 -9999.000000 -9999.000000 -9999.000000 -9999.000000 -9999.000000 -9999.000000 -9999.000000 -9999.000000 -9999.000000 -9999.000000 -9999.000000 -9999.000000 -9999.000000 0.156951 0.250932 0.000555 0.000000 
0.000000 0.001892 0.000000 0.002285 0.056182 0.587704 0.579742 0.900821 0.822255 0.646672 0.507917 0.244427 0.022659 0.170316 0.585078 0.175256 0.019643 0.016766 0.000000 0.000000 0.000629 0.008207 0.003233 0.019931 0.000000 0.000000 -9999.000000 -9999.000000 -9999.000000 -9999.000000 -9999.000000 -9999.000000 -9999.000000 -9999.000000 -9999.000000 -9999.000000 0.000000 0.003025 0.044224 0.060674 0.015156 0.008329 0.002606 0.002186 0.000000 0.000000 -9999.000000 -9999.000000 -9999.000000 -9999.000000 -9999.000000 -9999.000000 -9999.000000 -9999.000000 -9999.000000 -9999.000000 -9999.000000 -9999.000000 -9999.000000 -9999.000000 -9999.000000 -9999.000000 -9999.000000 -9999.000000 -9999.000000 -9999.000000 -9999.000000 -9999.000000 -9999.000000 -9999.000000 -9999.000000 -9999.000000 -9999.000000 -9999.000000 0.170854 0.546124 0.045772 0.000586 
0.000000 0.027234 0.081998 0.322165 0.219338 0.856147 0.846635 0.773584 0.756832 0.734097 0.629442 0.318943 0.373554 0.426018 0.234091 0.049399 0.037380 0.038528 0.033881 0.015711 0.000000 0.001888 0.045903 0.023285 0.000000 0.000000 -9999.000000 -9999.000000 -9999.000000 -9999.000000 -9999.000000 -9999.000000 0.000000 0.000000 0.000000 0.000000 0.000000 0.002459 0.001171 0.001501 0.002824 0.005263 0.001865 0.012754 0.000000 0.000000 0.000000 -9999.000000 -9999.000000 -9999.000000 -9999.000000 -9999.000000 -9999.000000 -9999.000000 -9999.000000 -9999.000000 -9999.000000 -9999.000000 -9999.000000 -9999.000000 -9999.000000 -9999.000000 -9999.000000 -9999.000000 -9999.000000 -9999.000000 -9999.000000 -9999.000000 -9999.000000 -9999.000000 -9999.000000 -9999.000000 -9999.000000 -9999.000000 -9999.000000 0.470615 0.204631 0.014606 
0.000000 0.019606 0.347426 0.898066 0.719676 0.603666 0.753943 0.756654 0.702668 0.711281 0.672788 0.623390 0.687183 0.427925 0.112799 0.044496 0.033298 0.022714 0.041827 0.001889 0.001891 0.003149 0.001889 0.018891 0.000000 0.000000 0.000000 -9999.000000 -9999.000000 -9999.000000 0.000000 0.000000 0.000000 0.000000 0.002880 0.000000 0.073821 0.000499 0.000000 0.001671 0.012559 0.105548 0.025686 0.093445 0.000000 0.000000 0.000000 0.000000 -9999.000000 -9999.000000 -9999.000000 -9999.000000 -9999.000000 -9999.000000 -9999.000000 -9999.000000 -9999.000000 -9999.000000 -9999.000000 -9999.000000 -9999.000000 -9999.000000 -9999.000000 -9999.000000 -9999.000000 -9999.000000 -9999.000000 -9999.000000 -9999.000000 -9999.000000 -9999.000000 -9999.000000 -9999.000000 -9999.000000 -9999.000000 0.215993 0.331027 0.147468 
0.000000 0.000000 0.333156 0.836387 0.821938 0.878157 0.972836 0.863838 0.680608 0.657962 0.754621 0.780667 0.747301 0.598626 0.087452 0.137886 0.143825 0.113688 0.024132 0.020854 0.015237 0.020898 0.003161 0.005063 0.000000 0.005328 0.273256 0.283249 0.075496 0.000000 0.000000 0.084101 0.078656 0.000000 0.000000 0.000000 0.000000 0.002927 0.011487 0.002263 0.000451 0.001977 0.000442 0.000000 0.000000 0.000000 0.000000 0.000000 0.000000 -9999.000000 -9999.000000 -9999.000000 -9999.000000 -9999.000000 -9999.000000 -9999.000000 -9999.000000 -9999.000000 -9999.000000 -9999.000000 -9999.000000 -9999.000000 -9999.000000 -9999.000000 -9999.000000 -9999.000000 -9999.000000 -9999.000000 -9999.000000 -9999.000000 -9999.000000 -9999.000000 -9999.000000 -9999.000000 -9999.000000 -9999.000000 0.244245 0.105767 
0.003062 0.026945 0.132329 0.498604 0.831696 0.997483 1.000000 0.927181 0.702087 0.280557 0.624443 0.789172 0.772353 0.733713 0.556061 0.241067 0.476324 0.212328 0.009846 0.048132 0.012033 0.020343 0.022813 0.034832 0.000000 0.000000 0.255032 0.666339 0.182986 0.000000 0.000000 0.000000 0.007045 0.000000 0.000000 0.006273 0.035685 0.024706 0.077994 0.024512 0.000000 0.000000 0.000000 0.000000 0.000000 0.000000 0.000000 0.000000 0.000000 -9999.000000 -9999.000000 -9999.000000 -9999.000000 -9999.000000 -9999.000000 -9999.000000 -9999.000000 -9999.000000 -9999.000000 -9999.000000 -9999.000000 -9999.000000 -9999.000000 -9999.000000 -9999.000000 -9999.000000 -9999.000000 -9999.000000 -9999.000000 -9999.000000 -9999.000000 -9999.000000 -9999.000000 -9999.000000 -9999.000000 -9999.000000 0.591821 0.199854 
0.000000 0.000000 0.040791 0.336692 0.612662 0.659311 0.534067 0.995595 0.988644 0.182450 0.344915 0.691967 0.654212 0.714467 0.808625 0.464569 0.130574 0.070919 0.422769 0.049035 0.012048 0.057179 0.026650 0.000000 0.000000 0.006916 0.328055 0.257366 0.348917 0.139877 0.011916 0.000000 0.011361 0.030247 0.000625 0.006948 0.056368 0.048970 0.137154 0.148051 0.000000 0.000000 0.000000 0.000000 0.000000 0.000000 0.000000 0.000000 0.000000 0.000000 0.000000 -9999.000000 -9999.000000 -9999.000000 -9999.000000 -9999.000000 -9999.000000 -9999.000000 -9999.000000 -9999.000000 -9999.000000 -9999.000000 -9999.000000 -9999.000000 -9999.000000 -9999.000000 -9999.000000 -9999.000000 -9999.000000 -9999.000000 -9999.000000 -9999.000000 -9999.000000 -9999.000000 -9999.000000 -9999.000000 0.435353 0.735209 
0.000000 0.002643 0.243746 0.426777 0.452575 0.066281 0.121737 0.950758 0.976612 0.493375 0.519571 0.648359 0.592055 0.742242 0.890159 0.751580 0.264519 0.135834 0.050483 0.042148 0.032573 0.036126 0.016324 0.000632 0.000000 0.012032 0.401120 0.489860 0.273764 0.022208 0.000000 0.001265 0.106733 0.134885 0.022658 0.002494 0.059732 0.078741 0.188727 0.212350 0.095195 0.000000 0.000000 0.000000 0.000000 0.000000 0.000000 0.000000 0.000000 0.000000 0.000000 0.000000 -9999.000000 -9999.000000 -9999.000000 -9999.000000 -9999.000000 -9999.000000 -9999.000000 -9999.000000 -9999.000000 -9999.000000 -9999.000000 -9999.000000 -9999.000000 -9999.000000 -9999.000000 -9999.000000 -9999.000000 -9999.000000 -9999.000000 -9999.000000 -9999.000000 -9999.000000 -9999.000000 -9999.000000 -9999.000000 0.215488 
0.219181 0.357483 0.491004 0.502828 0.498415 0.109981 0.030303 0.815025 0.995578 0.503466 0.525552 0.664353 0.734217 0.967151 0.945570 0.938491 0.797188 0.629053 0.180346 0.460880 0.362077 0.063567 0.007170 0.000000 0.000000 0.001896 0.222926 0.357233 0.197844 0.017812 0.008257 0.009371 0.058649 0.066521 0.001839 0.000000 0.036615 0.133206 0.220340 0.217407 0.161403 0.004798 0.000000 0.000000 0.000000 0.000000 0.000000 0.000000 0.000000 0.000000 0.000000 0.000000 -9999.000000 -9999.000000 -9999.000000 -9999.000000 -9999.000000 -9999.000000 -9999.000000 -9999.000000 -9999.000000 -9999.000000 -9999.000000 -9999.000000 -9999.000000 -9999.000000 -9999.000000 -9999.000000 -9999.000000 -9999.000000 0.000000 0.000000 -9999.000000 -9999.000000 -9999.000000 -9999.000000 -9999.000000 1.000000 
0.683912 0.955177 0.873106 0.545455 0.562025 0.209759 0.034091 0.819102 0.990512 0.503466 0.529672 0.669823 0.741162 0.988005 0.999370 0.993687 0.859583 0.663460 0.603810 0.666950 0.585646 0.756820 0.138951 0.006878 0.000000 0.000000 0.005703 0.007629 0.019059 0.035398 0.014587 0.011436 0.004436 0.000614 0.000000 0.000000 0.010677 0.170289 0.213300 0.207472 0.163127 0.082394 0.019344 0.012511 0.015145 0.007870 0.000000 0.000000 0.000000 0.000000 0.000000 0.000000 0.000000 -9999.000000 -9999.000000 -9999.000000 -9999.000000 -9999.000000 -9999.000000 -9999.000000 -9999.000000 -9999.000000 -9999.000000 -9999.000000 -9999.000000 -9999.000000 -9999.000000 -9999.000000 -9999.000000 -9999.000000 -9999.000000 0.000000 -9999.000000 -9999.000000 -9999.000000 -9999.000000 -9999.000000 -9999.000000 
0.685804 0.971591 0.920505 0.716088 0.959570 0.864041 0.778481 0.937817 0.748579 0.564394 0.668561 0.696338 0.680757 0.878157 0.998740 1.000000 0.909665 0.745547 0.902593 0.686101 0.797553 0.988217 0.685658 0.161495 0.002536 0.000632 0.003161 0.010774 0.005076 0.017763 0.007606 0.001900 0.009408 0.007588 0.000000 0.000000 0.000621 0.038442 0.025174 0.079960 0.163012 0.191203 0.034582 0.012415 0.014492 0.016383 0.001263 0.000000 0.000000 0.000000 0.000000 0.000000 0.000255 0.000000 0.000000 0.000000 -9999.000000 -9999.000000 -9999.000000 -9999.000000 -9999.000000 -9999.000000 -9999.000000 -9999.000000 -9999.000000 -9999.000000 -9999.000000 -9999.000000 -9999.000000 -9999.000000 -9999.000000 -9999.000000 0.000000 -9999.000000 -9999.000000 -9999.000000 -9999.000000 -9999.000000 
0.833333 0.967172 0.805556 0.739268 0.912934 0.806574 0.979114 0.955808 0.682019 0.776938 0.991803 0.967803 0.839646 0.837121 0.945145 1.000000 0.983617 0.860392 0.888187 0.600758 0.754713 0.989892 0.933726 0.143535 0.016031 0.007706 0.000528 0.012033 0.000000 0.000000 0.000000 0.000000 0.003145 0.001230 0.000000 0.000000 0.000000 0.000000 0.000000 0.106251 0.154970 0.208349 0.027746 0.009477 0.014278 0.002434 0.000000 0.000000 0.000000 0.000000 0.000000 0.000000 0.000000 0.000000 0.000000 0.000000 0.000000 -9999.000000 -9999.000000 -9999.000000 -9999.000000 -9999.000000 -9999.000000 -9999.000000 -9999.000000 -9999.000000 -9999.000000 -9999.000000 -9999.000000 -9999.000000 -9999.000000 -9999.000000 -9999.000000 -9999.000000 -9999.000000 -9999.000000 -9999.000000 -9999.000000 
1.000000 0.959016 0.710859 0.682450 0.630682 0.647541 0.766414 0.789773 0.672980 0.852997 0.998106 0.999369 0.935606 0.826389 0.852459 0.940025 0.788777 0.514160 0.528409 0.507283 0.619894 0.838074 0.768937 0.523087 0.098115 0.051209 0.002741 0.000601 0.005031 0.000000 0.000000 0.000000 0.000000 0.001241 0.082528 0.074680 0.025647 0.027369 0.003761 0.102660 0.153844 0.140012 0.001897 0.000000 0.000000 0.000000 0.000000 0.000000 0.000000 0.000000 0.000000 0.000000 0.000000 0.000000 0.000000 0.000000 0.000000 -9999.000000 -9999.000000 -9999.000000 -9999.000000 -9999.000000 -9999.000000 -9999.000000 -9999.000000 -9999.000000 -9999.000000 -9999.000000 -9999.000000 -9999.000000 -9999.000000 -9999.000000 -9999.000000 -9999.000000 -9999.000000 -9999.000000 -9999.000000 -9999.000000 
1.000000 0.906848 0.707071 0.677603 0.577652 0.610095 0.565657 0.506936 0.556187 0.960277 0.945076 0.859306 0.791667 0.834596 0.845960 0.868687 0.644164 0.504096 0.502516 0.618655 0.781507 0.597205 0.613614 0.652216 0.144027 0.041879 0.001836 0.006040 0.023728 0.008872 0.000000 0.000000 0.000000 0.002483 0.242771 0.257593 0.047938 0.090710 0.088578 0.025976 0.015257 0.008097 0.000000 0.000000 0.000000 0.000000 0.000000 0.000000 0.000000 0.000000 0.000000 0.000000 0.000000 0.000000 0.000000 0.000000 0.000000 0.000000 -9999.000000 -9999.000000 -9999.000000 -9999.000000 -9999.000000 -9999.000000 -9999.000000 -9999.000000 -9999.000000 -9999.000000 -9999.000000 -9999.000000 -9999.000000 -9999.000000 -9999.000000 -9999.000000 -9999.000000 -9999.000000 -9999.000000 -9999.000000 
0.680667 1.000000 0.907828 0.928030 0.862374 0.582071 0.515783 0.507255 0.623426 0.993056 0.896465 0.682650 0.722222 0.961490 0.990530 0.992439 0.959596 0.661188 0.513651 0.705770 0.951929 0.823828 0.726469 0.536213 0.630545 0.517572 0.012698 0.000634 0.006303 0.051444 0.012010 0.000000 0.000000 0.000626 0.074028 0.215381 0.101795 0.077306 0.035386 0.002541 0.003705 0.002268 0.000000 0.000000 0.000000 0.026809 0.015310 0.000000 0.000000 0.001983 0.011385 0.000599 0.000000 0.000000 0.000000 0.000000 0.000000 0.000000 -9999.000000 -9999.000000 -9999.000000 -9999.000000 -9999.000000 -9999.000000 -9999.000000 -9999.000000 -9999.000000 -9999.000000 -9999.000000 -9999.000000 -9999.000000 -9999.000000 -9999.000000 -9999.000000 -9999.000000 -9999.000000 -9999.000000 0.000000 
0.000000 0.415680 0.996851 1.000000 0.898359 0.512303 0.511041 0.717803 0.981738 0.992424 0.883281 0.634069 0.678030 0.994969 1.000000 1.000000 1.000000 0.982290 0.609524 0.510746 0.714918 0.929747 0.943348 0.914231 0.994930 0.911620 0.469881 0.084971 0.018377 0.063013 0.012659 0.000630 0.000000 0.000000 0.001898 0.135033 0.086056 0.034274 0.006008 0.232766 0.544188 0.433227 0.001871 0.000000 0.000000 0.257490 0.366778 0.011496 0.022850 0.183137 0.118397 0.005803 0.000000 0.000000 0.000000 0.000000 0.000000 0.000000 -9999.000000 -9999.000000 -9999.000000 -9999.000000 -9999.000000 -9999.000000 -9999.000000 -9999.000000 -9999.000000 -9999.000000 -9999.000000 -9999.000000 -9999.000000 -9999.000000 -9999.000000 -9999.000000 -9999.000000 -9999.000000 -9999.000000 -9999.000000 
0.000000 0.248485 0.780934 0.924242 0.708333 0.472888 0.536570 0.870581 1.000000 0.909722 0.681818 0.559899 0.564394 0.959799 1.000000 1.000000 1.000000 0.984177 0.638095 0.505370 0.511716 0.765526 0.994315 0.999369 0.994318 0.982892 0.980387 0.708213 0.022843 0.039238 0.090020 0.048132 0.000000 0.001256 0.004433 0.255375 0.064477 0.014808 0.003117 0.327359 0.955247 0.791958 0.030880 0.000000 0.001889 0.428543 0.650486 0.187303 0.063169 0.223882 0.074716 0.021712 0.000000 0.000000 0.000000 0.000000 0.000000 0.000000 -9999.000000 -9999.000000 -9999.000000 -9999.000000 -9999.000000 -9999.000000 -9999.000000 -9999.000000 -9999.000000 -9999.000000 -9999.000000 -9999.000000 -9999.000000 -9999.000000 -9999.000000 -9999.000000 -9999.000000 -9999.000000 -9999.000000 -9999.000000 
0.000000 0.543561 0.648359 0.537879 0.541035 0.575758 0.647096 0.933712 1.000000 0.905363 0.642045 0.584596 0.552681 0.896080 1.000000 1.000000 0.996843 0.826498 0.665397 0.521216 0.504106 0.538559 0.815889 0.727273 0.636364 0.771952 0.812297 0.451610 0.017710 0.166567 0.358323 0.118054 0.005616 0.006624 0.000000 0.028376 0.045894 0.012418 0.016990 0.071887 0.539261 0.196897 0.000631 0.000000 0.001616 0.431833 0.552665 0.143654 0.038544 0.030240 0.020272 0.031534 0.000000 0.000000 0.000000 0.000000 0.000000 0.000000 -9999.000000 -9999.000000 -9999.000000 -9999.000000 -9999.000000 -9999.000000 -9999.000000 -9999.000000 -9999.000000 -9999.000000 -9999.000000 -9999.000000 -9999.000000 -9999.000000 -9999.000000 -9999.000000 -9999.000000 -9999.000000 -9999.000000 -9999.000000 
0.000000 0.284999 0.652366 0.511364 0.583859 0.712753 0.873737 0.930556 0.991195 0.983083 0.869565 0.827347 0.790371 0.881265 1.000000 1.000000 0.998737 0.863808 0.678481 0.564281 0.503778 0.500939 0.513241 0.505363 0.503778 0.471782 0.492708 0.232326 0.042432 0.014569 0.014596 0.026416 0.017511 0.011697 0.002476 0.030399 0.055679 0.026021 0.003030 0.050763 0.238778 0.004409 0.000000 0.000000 0.000000 0.081836 0.035439 0.003593 0.003745 0.001270 0.005622 0.024412 0.000516 0.000000 0.000000 0.000000 0.000000 0.000000 -9999.000000 -9999.000000 -9999.000000 -9999.000000 -9999.000000 -9999.000000 -9999.000000 -9999.000000 -9999.000000 -9999.000000 -9999.000000 -9999.000000 -9999.000000 -9999.000000 -9999.000000 -9999.000000 -9999.000000 -9999.000000 -9999.000000 -9999.000000 
0.000000 0.000775 0.000900 0.515783 0.625631 0.714015 0.805923 0.571970 0.932886 1.000000 1.000000 0.999370 0.969210 0.838384 1.000000 1.000000 1.000000 0.837753 0.674448 0.628157 0.506297 0.500000 0.500000 0.500000 0.500000 0.482606 0.507624 0.287329 0.087508 0.091501 0.147179 0.017015 0.032017 0.017241 0.000629 0.022094 0.112238 0.014921 0.001422 0.000201 0.000002 0.000000 0.000000 0.000000 0.001265 0.094969 0.012657 0.000000 0.000000 0.082307 0.086423 0.177770 0.001003 0.000000 0.000000 0.000000 0.000000 -9999.000000 -9999.000000 -9999.000000 -9999.000000 -9999.000000 -9999.000000 -9999.000000 -9999.000000 -9999.000000 -9999.000000 -9999.000000 -9999.000000 -9999.000000 -9999.000000 -9999.000000 -9999.000000 -9999.000000 -9999.000000 -9999.000000 -9999.000000 -9999.000000 
0.000234 0.000000 0.000000 0.000000 0.272998 0.000000 0.000000 0.209596 0.000000 0.666667 0.998738 0.949590 0.865869 0.839646 1.000000 1.000000 1.000000 0.904672 0.676730 0.659334 0.519146 0.500000 0.500000 0.500000 0.500000 0.689252 0.688369 0.694670 0.632182 0.489213 0.468987 0.134689 0.020673 0.031050 0.000000 0.001895 0.074582 0.034615 0.025307 0.000000 0.000000 0.000000 0.000000 0.000000 0.098101 0.847522 0.509034 0.001661 0.000000 0.162342 0.234631 0.023462 0.000000 0.000000 0.001185 0.000286 0.000000 -9999.000000 -9999.000000 -9999.000000 -9999.000000 -9999.000000 -9999.000000 -9999.000000 -9999.000000 -9999.000000 -9999.000000 -9999.000000 -9999.000000 -9999.000000 -9999.000000 -9999.000000 -9999.000000 -9999.000000 -9999.000000 -9999.000000 -9999.000000 -9999.000000 
0.000000 0.000000 0.000000 0.000000 0.000000 0.000000 0.000000 0.000000 0.000000 0.321593 0.896096 0.842172 0.838384 0.838384 1.000000 1.000000 1.000000 0.984297 0.800402 0.590909 0.500000 0.500000 0.500000 0.500000 0.668985 0.994162 0.989931 0.998741 0.987413 0.599094 0.490504 0.238430 0.000000 0.005056 0.000000 0.000000 0.000632 0.080209 0.128609 0.000000 0.011534 0.000000 0.000184 0.012975 0.540620 0.955203 0.752479 0.004424 0.000000 0.025986 0.022580 0.000000 0.000000 0.000574 0.021470 0.003716 0.000000 -9999.000000 -9999.000000 -9999.000000 -9999.000000 -9999.000000 -9999.000000 -9999.000000 -9999.000000 -9999.000000 -9999.000000 -9999.000000 -9999.000000 -9999.000000 -9999.000000 -9999.000000 -9999.000000 -9999.000000 -9999.000000 -9999.000000 -9999.000000 -9999.000000 
0.500000 0.250000 0.000000 0.316667 0.475000 0.478125 0.331667 0.000000 0.000000 0.000000 0.559764 0.838384 0.419192 0.000000 1.000000 1.000000 1.000000 1.000000 1.000000 0.500000 0.500000 0.500000 0.500000 0.500000 0.748993 1.000000 1.000000 1.000000 0.991212 0.562264 0.495902 0.314593 0.003168 0.001269 0.001264 0.000000 0.000000 0.066889 0.065352 0.000051 0.532941 0.163091 0.036204 0.109825 0.711514 0.872253 0.618262 0.093889 0.000631 0.000000 0.000000 0.000000 0.000000 0.001085 0.002307 0.010927 -9999.000000 -9999.000000 -9999.000000 -9999.000000 -9999.000000 -9999.000000 -9999.000000 -9999.000000 -9999.000000 -9999.000000 -9999.000000 -9999.000000 -9999.000000 -9999.000000 -9999.000000 -9999.000000 -9999.000000 -9999.000000 -9999.000000 -9999.000000 -9999.000000 -9999.000000 
0.500000 0.500000 0.701941 0.950000 0.953125 0.990625 1.000000 0.000000 0.000000 0.000000 0.279461 0.000000 0.000000 0.000000 0.001818 0.499199 0.997481 0.983586 0.872555 0.636000 0.500000 0.500000 0.500000 0.500000 0.750000 1.000000 1.000000 1.000000 0.899929 0.412209 0.424874 0.382708 0.262464 0.419357 0.136055 0.000000 0.000000 0.006337 0.055413 0.373354 0.663091 0.420875 0.029188 0.101142 0.257451 0.321428 0.357064 0.256482 0.009984 0.009748 0.000000 0.000000 0.000000 0.000543 0.000591 0.000000 -9999.000000 -9999.000000 -9999.000000 -9999.000000 -9999.000000 -9999.000000 -9999.000000 -9999.000000 -9999.000000 -9999.000000 -9999.000000 -9999.000000 -9999.000000 -9999.000000 -9999.000000 -9999.000000 -9999.000000 -9999.000000 -9999.000000 -9999.000000 -9999.000000 -9999.000000 
0.500000 0.500000 0.710000 0.950000 0.984365 1.000000 0.997139 0.767891 0.668342 0.838384 0.000000 0.000000 0.000000 0.500000 0.318916 0.001248 0.000000 0.713384 0.455110 0.158287 0.500000 0.500000 0.500000 0.542500 0.750000 1.000000 1.000000 0.579940 0.000000 0.006274 0.010088 0.206088 0.430750 0.944818 0.232720 0.000000 0.000630 0.011001 0.001899 0.039371 0.182013 0.091526 0.018122 0.189845 0.265081 0.289287 0.205821 0.161802 0.169690 0.097739 0.000000 0.071229 0.027634 0.000931 0.000816 0.000645 -9999.000000 -9999.000000 0.000000 0.000000 -9999.000000 -9999.000000 -9999.000000 -9999.000000 -9999.000000 -9999.000000 -9999.000000 -9999.000000 -9999.000000 -9999.000000 -9999.000000 -9999.000000 -9999.000000 -9999.000000 -9999.000000 -9999.000000 -9999.000000 -9999.000000 
0.500000 0.500000 0.725000 0.955274 0.898423 0.738636 0.574028 0.500000 0.527035 0.550042 0.000000 0.500000 1.000000 1.000000 0.478316 0.001723 0.231203 0.292263 0.157748 0.042022 0.000206 0.000281 0.000000 0.723043 0.886913 1.000000 1.000000 0.521083 0.000000 0.000000 0.000000 0.096020 0.344261 0.548514 0.006952 0.000000 0.005873 0.015191 0.000000 0.000000 0.000000 0.019659 0.030213 0.052715 0.049269 0.298124 0.351713 0.258577 0.275316 0.108434 0.005056 0.111100 0.070682 0.005721 0.000549 0.000481 -9999.000000 -9999.000000 0.000000 0.000000 0.000000 -9999.000000 -9999.000000 -9999.000000 -9999.000000 -9999.000000 -9999.000000 -9999.000000 -9999.000000 -9999.000000 -9999.000000 -9999.000000 -9999.000000 -9999.000000 -9999.000000 -9999.000000 -9999.000000 -9999.000000 
0.500000 0.556250 0.639891 0.519466 0.511920 0.501565 0.500000 0.500000 0.553145 0.581650 0.518593 0.966667 1.000000 1.000000 0.656033 0.264157 0.505050 0.050391 0.000000 0.000000 0.000639 0.000000 0.234900 0.773102 1.000000 0.999750 1.000000 1.000000 0.605547 0.015635 0.000000 0.071293 0.340881 0.041131 0.000000 0.003766 0.023444 0.003376 0.000000 0.000000 0.000000 0.007831 0.021950 0.012025 0.004905 0.227131 0.285651 0.432032 0.306722 0.388386 0.136308 0.056997 0.038849 0.013394 0.003961 0.000250 0.000000 -9999.000000 -9999.000000 0.000000 0.000000 -9999.000000 -9999.000000 -9999.000000 -9999.000000 -9999.000000 -9999.000000 -9999.000000 -9999.000000 -9999.000000 -9999.000000 -9999.000000 -9999.000000 -9999.000000 -9999.000000 -9999.000000 -9999.000000 -9999.000000 
0.500000 0.500000 0.506484 0.500000 0.500000 0.500000 0.500000 0.500000 0.661830 0.576389 0.522096 0.723058 1.000000 1.000000 0.994994 0.551701 0.272263 0.208095 0.239433 0.264682 0.288126 0.032638 0.679293 0.636156 0.832288 1.000000 1.000000 1.000000 1.000000 0.579937 0.000000 0.021703 0.341491 0.004423 0.000000 0.105704 0.194403 0.003163 0.000000 0.000000 0.000000 0.015019 0.060741 0.024715 0.000000 0.020848 0.011994 0.077530 0.204934 0.248198 0.109657 0.000000 0.003172 0.010571 0.010999 0.000786 0.000000 0.000000 0.000000 0.000000 -9999.000000 -9999.000000 -9999.000000 -9999.000000 -9999.000000 -9999.000000 -9999.000000 -9999.000000 -9999.000000 -9999.000000 -9999.000000 -9999.000000 -9999.000000 -9999.000000 -9999.000000 -9999.000000 -9999.000000 -9999.000000 
0.000000 0.000000 0.500000 0.500000 0.500000 0.500000 0.500000 0.500000 0.662356 0.581337 0.515152 0.507538 1.000000 1.000000 1.000000 0.500000 0.500000 0.500000 0.633182 0.996212 0.792614 0.077985 0.184708 0.646886 1.000000 1.000000 1.000000 1.000000 1.000000 1.000000 1.000000 0.472818 0.197344 0.152004 0.009491 0.203333 0.326525 0.001263 0.000000 0.000000 0.000000 0.024066 0.072838 0.060488 0.001265 0.000000 0.000000 0.008248 0.007553 0.001904 0.000623 0.000559 0.001182 0.000000 0.001734 0.000436 0.000000 0.000000 0.000000 0.000000 -9999.000000 -9999.000000 -9999.000000 -9999.000000 -9999.000000 -9999.000000 -9999.000000 -9999.000000 -9999.000000 -9999.000000 -9999.000000 -9999.000000 -9999.000000 -9999.000000 -9999.000000 -9999.000000 -9999.000000 -9999.000000 
0.000000 0.000000 0.500000 0.500000 0.500000 0.500000 0.500000 0.564814 0.662800 0.602904 0.526515 0.531187 0.670000 0.835000 0.792500 0.666667 0.500000 0.749805 1.000000 0.941635 0.441948 0.000000 0.000000 0.401650 0.996219 0.595100 0.909900 1.000000 1.000000 1.000000 1.000000 0.000000 0.139819 0.467384 0.246849 0.092120 0.101420 0.004428 0.000000 0.000000 0.012039 0.063912 0.058966 0.040224 0.000000 0.000000 0.000000 0.001881 0.004414 0.000000 0.008148 0.039899 0.011065 0.002799 0.007765 0.001998 0.000000 0.000000 0.000000 -9999.000000 -9999.000000 -9999.000000 -9999.000000 -9999.000000 -9999.000000 -9999.000000 -9999.000000 -9999.000000 -9999.000000 -9999.000000 -9999.000000 -9999.000000 -9999.000000 -9999.000000 -9999.000000 -9999.000000 -9999.000000 -9999.000000 
0.000000 0.000000 0.000000 0.500000 0.500000 0.500000 0.500000 0.581180 0.649273 0.661028 0.669587 0.670000 0.670000 0.670000 0.670000 0.000000 0.000000 1.000000 0.995611 0.956449 0.000000 0.000000 0.000000 0.000551 0.000316 0.462143 0.427849 0.636624 1.000000 1.000000 0.000000 0.000208 0.000000 0.109890 0.030801 0.000000 0.000000 0.000000 0.000000 0.130746 0.267067 0.180356 0.022028 0.058330 0.020843 0.000000 0.000000 0.000000 0.000000 0.000000 0.000000 0.000000 0.000000 0.007747 0.123321 0.011065 0.006811 0.000000 -9999.000000 -9999.000000 -9999.000000 -9999.000000 -9999.000000 -9999.000000 -9999.000000 -9999.000000 -9999.000000 -9999.000000 -9999.000000 -9999.000000 -9999.000000 -9999.000000 -9999.000000 -9999.000000 -9999.000000 -9999.000000 -9999.000000 -9999.000000 
1.000000 1.000000 1.000000 0.000000 0.000000 0.000000 0.000000 0.000000 0.667014 0.670000 0.670000 0.670000 0.670000 0.670000 0.670000 0.000000 0.000000 0.000000 0.000000 0.000000 0.000000 0.450000 0.179741 0.000000 0.000000 0.319000 0.260381 0.500000 0.659164 1.000000 0.000000 0.000000 0.000069 0.000000 0.001860 0.000000 0.000000 0.000000 0.001267 0.080104 0.043764 0.055787 0.000000 0.007563 0.000630 0.000000 0.000000 0.000000 0.000000 0.000000 0.000000 0.000000 0.000000 0.001787 0.006289 0.001147 0.013614 0.000000 0.000000 -9999.000000 -9999.000000 -9999.000000 -9999.000000 -9999.000000 -9999.000000 -9999.000000 -9999.000000 -9999.000000 -9999.000000 -9999.000000 -9999.000000 -9999.000000 -9999.000000 -9999.000000 -9999.000000 -9999.000000 -9999.000000 -9999.000000 
1.000000 1.000000 1.000000 1.000000 0.000000 0.000000 0.000000 0.000000 0.670000 0.670000 0.670000 0.670000 0.670000 0.670000 0.670000 0.500000 0.500000 0.500000 0.500000 0.500000 0.500000 0.000000 0.450000 0.225000 0.000000 0.000000 0.079750 0.000000 0.333333 0.000000 0.000000 0.000000 0.000318 0.000151 0.000000 0.000000 0.000000 0.000000 0.000000 0.004747 0.000540 0.000000 0.000000 0.000000 0.000000 0.000000 0.000000 0.000000 0.000000 0.000000 0.000000 0.000000 0.005046 0.002523 0.000621 0.014056 0.033159 0.000000 0.000000 0.000000 -9999.000000 -9999.000000 -9999.000000 -9999.000000 -9999.000000 -9999.000000 -9999.000000 -9999.000000 -9999.000000 -9999.000000 -9999.000000 -9999.000000 -9999.000000 -9999.000000 -9999.000000 -9999.000000 -9999.000000 -9999.000000 
1.000000 1.000000 1.000000 1.000000 0.000000 0.000000 0.000000 0.000000 0.670000 0.670000 0.670000 0.670000 0.670000 0.670000 0.670000 0.500000 0.500000 0.500000 0.500000 0.500000 0.500000 0.450000 0.675000 0.355000 0.000000 0.000000 0.000000 0.000000 0.000000 0.000000 0.000000 0.000000 0.101191 0.000807 0.007468 0.000000 0.000000 0.000000 0.045611 0.085120 0.000000 0.000000 0.000000 0.000000 0.000000 0.000000 0.000000 0.000000 0.000000 0.000000 0.000000 0.000000 0.000000 0.005067 0.000000 0.012890 0.118706 0.012672 0.004345 0.000000 -9999.000000 -9999.000000 -9999.000000 -9999.000000 -9999.000000 -9999.000000 -9999.000000 -9999.000000 -9999.000000 -9999.000000 -9999.000000 -9999.000000 -9999.000000 -9999.000000 -9999.000000 -9999.000000 -9999.000000 -9999.000000 
1.000000 1.000000 1.000000 1.000000 0.000000 0.000000 0.000000 0.500000 0.556667 0.568000 0.602000 0.627500 0.670000 0.670000 0.500000 0.500000 0.500000 0.500000 0.500000 0.500000 0.500000 0.450000 0.675000 0.450000 0.290000 0.000000 0.000000 0.000000 0.000000 0.000000 0.000000 0.000000 0.323810 0.653023 0.093046 0.000000 0.000000 0.001900 0.159494 0.138930 0.004434 0.000000 0.004168 0.010832 0.000000 0.000000 0.000000 0.000000 0.000000 0.000000 0.000000 0.000630 0.018263 0.027157 0.022828 0.009389 0.026030 0.031881 0.004746 0.008291 -9999.000000 -9999.000000 -9999.000000 -9999.000000 -9999.000000 -9999.000000 -9999.000000 -9999.000000 -9999.000000 -9999.000000 -9999.000000 -9999.000000 -9999.000000 -9999.000000 -9999.000000 -9999.000000 -9999.000000 -9999.000000 
1.000000 1.000000 1.000000 1.000000 0.000000 0.000000 0.000000 0.500000 0.500000 0.500000 0.500000 0.500000 0.500000 0.000000 0.500000 0.500000 0.500000 0.500000 0.500000 0.500000 0.500000 0.500000 1.000000 1.000000 0.666667 1.000000 0.000000 0.000000 0.019796 0.022115 0.000000 0.000000 0.364616 0.668342 0.280913 0.000000 0.000000 0.028487 0.291244 0.178717 0.004443 0.000000 0.014059 0.022197 0.008888 0.000000 0.000000 0.000000 0.000000 0.000000 0.000000 0.010620 0.148792 0.145397 0.497431 0.195060 0.030361 0.030305 0.009210 0.149064 0.000000 -9999.000000 -9999.000000 -9999.000000 -9999.000000 -9999.000000 -9999.000000 -9999.000000 -9999.000000 -9999.000000 -9999.000000 -9999.000000 -9999.000000 -9999.000000 -9999.000000 -9999.000000 -9999.000000 -9999.000000 
1.000000 1.000000 1.000000 1.000000 0.000000 0.000000 0.000000 0.500000 0.500000 0.500000 0.500000 0.500000 0.231646 0.000000 0.500000 0.500000 0.500000 0.500000 0.500000 0.500000 0.500000 0.500000 1.000000 1.000000 1.000000 1.000000 0.385840 0.032838 0.027910 0.047018 0.007539 0.000000 0.179341 0.504768 0.146928 0.000000 0.000000 0.089817 0.156091 0.028553 0.000000 0.001889 0.019358 0.015594 0.008099 0.000000 0.000000 0.000000 0.000000 0.000000 0.000000 0.000629 0.056890 0.076087 0.350468 0.062738 0.001895 0.041421 0.067563 0.040365 0.000000 -9999.000000 -9999.000000 -9999.000000 -9999.000000 -9999.000000 -9999.000000 -9999.000000 -9999.000000 -9999.000000 -9999.000000 -9999.000000 -9999.000000 -9999.000000 -9999.000000 -9999.000000 -9999.000000 -9999.000000 
1.000000 1.000000 1.000000 1.000000 0.000000 0.000000 0.000000 0.500000 0.500000 0.499061 0.472327 0.194816 0.000000 0.000000 0.000000 0.500000 0.500000 0.500000 0.500000 0.500000 0.500000 0.500000 1.000000 1.000000 1.000000 0.929648 0.429804 0.007324 0.064996 0.030129 0.000000 0.002528 0.001902 0.010780 0.000000 0.000000 0.014631 0.157152 0.123492 0.020267 0.003802 0.029214 0.012518 0.010097 0.003151 0.012578 0.005069 0.002480 0.001581 0.001578 0.001294 0.000000 0.000000 0.003791 0.004389 0.000630 0.000000 0.003764 0.005636 0.006695 0.000000 0.005520 -9999.000000 -9999.000000 0.000000 -9999.000000 -9999.000000 -9999.000000 -9999.000000 -9999.000000 -9999.000000 -9999.000000 -9999.000000 -9999.000000 -9999.000000 -9999.000000 -9999.000000 -9999.000000 
1.000000 1.000000 1.000000 1.000000 0.000000 0.000000 0.000000 0.500000 0.500000 0.475710 0.170240 0.003137 0.000000 0.000000 0.000000 0.500000 0.500000 0.500000 0.500000 0.500000 0.500000 0.000000 1.000000 0.940000 1.000000 0.544940 0.535488 0.546202 0.564116 0.057275 0.001178 0.103364 0.027250 0.000000 0.000000 0.000000 0.002139 0.099472 0.153882 0.074734 0.010797 0.033016 0.006137 0.101426 0.110460 0.024689 0.089732 0.030020 0.059750 0.033162 0.020173 0.136274 0.053134 0.000000 0.000000 0.000000 0.000000 0.000000 0.000000 0.031653 0.005811 0.001944 0.000000 0.000000 0.000000 -9999.000000 -9999.000000 -9999.000000 -9999.000000 -9999.000000 -9999.000000 -9999.000000 -9999.000000 -9999.000000 -9999.000000 -9999.000000 -9999.000000 -9999.000000 
0.000000 0.000000 0.000000 0.000000 0.000000 0.000000 0.000000 0.500000 0.500000 0.180328 0.001260 0.000000 0.000000 0.000000 0.000000 0.000000 0.500000 0.500000 0.500000 0.500000 0.000000 0.000000 0.760000 0.820000 0.760000 0.591798 0.545455 0.808350 0.913565 0.640556 0.075338 0.289134 0.206853 0.000000 0.000000 0.000000 0.000000 0.006937 0.110665 0.082885 0.036145 0.000631 0.003816 0.082192 0.062887 0.028800 0.130012 0.009447 0.053714 0.142337 0.125399 0.048377 0.019511 0.029033 0.008250 0.003742 0.002992 0.000000 0.000000 0.000000 0.055400 0.154214 0.000140 0.000000 0.072879 -9999.000000 -9999.000000 -9999.000000 -9999.000000 -9999.000000 -9999.000000 -9999.000000 -9999.000000 -9999.000000 -9999.000000 -9999.000000 -9999.000000 -9999.000000 
0.000000 0.000000 0.000000 0.000000 0.000000 0.000000 0.000000 0.500000 0.226964 0.003759 0.001252 0.003139 0.000626 0.000000 0.166667 0.000000 0.000000 0.000000 0.000000 0.000000 0.000000 0.000000 0.760000 0.760000 0.760000 0.742119 0.704815 0.884470 0.936237 0.000000 0.006749 0.073319 0.186548 0.003002 0.000000 0.000000 0.000000 0.000000 0.131477 0.455954 0.199666 0.000000 0.001267 0.006342 0.046789 0.212646 0.049492 0.016456 0.000000 0.010773 0.039949 0.017674 0.007589 0.155878 0.240222 0.187863 0.249442 0.000000 0.000000 0.000000 0.017600 0.122719 0.013106 0.008368 -9999.000000 -9999.000000 -9999.000000 -9999.000000 -9999.000000 -9999.000000 -9999.000000 -9999.000000 -9999.000000 -9999.000000 -9999.000000 -9999.000000 -9999.000000 -9999.000000 
1.000000 1.000000 0.000000 0.000000 0.000000 0.000000 0.000000 0.000000 0.273948 0.222781 0.287706 0.369455 0.438005 0.500000 0.687696 1.000000 1.000000 0.000000 0.000000 0.000000 0.000000 0.000000 0.760000 0.760000 0.759850 0.758491 0.862374 0.758991 0.808712 0.200417 0.000518 0.000000 0.007590 0.000631 0.000000 0.000000 0.000000 0.000000 0.036051 0.346574 0.041111 0.008246 0.096263 0.159058 0.040438 0.056785 0.024142 0.010794 0.000000 0.000634 0.000000 0.003965 0.004338 0.021966 0.069075 0.302942 0.301539 0.000000 0.000000 0.000000 0.001860 0.011325 0.000000 0.052163 -9999.000000 -9999.000000 -9999.000000 -9999.000000 -9999.000000 -9999.000000 -9999.000000 -9999.000000 -9999.000000 -9999.000000 -9999.000000 -9999.000000 -9999.000000 -9999.000000 
1.000000 1.000000 0.000000 0.000000 1.000000 1.000000 1.000000 1.000000 0.608183 0.597176 0.585705 0.572335 0.592640 0.940214 1.000000 1.000000 1.000000 1.000000 0.000000 0.000000 0.000000 0.000000 0.760000 0.760000 0.774436 0.761995 0.851010 0.765152 0.818813 0.712196 0.051195 0.000215 0.001262 0.000000 0.000000 0.000000 0.000000 0.022213 0.117125 0.145645 0.010793 0.041809 0.301865 0.337644 0.078268 0.032216 0.010801 0.007619 0.001895 0.041244 0.010773 0.043026 0.064394 0.032354 0.084394 0.256918 0.065204 0.024452 0.003787 0.000000 0.021211 0.000000 0.004756 0.000000 0.095690 0.225170 0.217592 0.273939 -9999.000000 -9999.000000 -9999.000000 -9999.000000 -9999.000000 -9999.000000 -9999.000000 -9999.000000 -9999.000000 -9999.000000 
1.000000 1.000000 0.000000 1.000000 1.000000 1.000000 1.000000 1.000000 0.769856 0.610794 0.607483 0.595057 0.777778 0.999369 1.000000 1.000000 1.000000 0.974388 0.000000 0.000000 0.000000 0.000000 0.760000 0.760000 0.869215 0.917929 0.924874 0.706926 0.000000 0.373548 0.069225 0.174627 0.129589 0.000000 0.000000 0.000000 0.000000 0.105559 0.181164 0.147603 0.013939 0.006349 0.159322 0.138568 0.146383 0.022108 0.006328 0.003812 0.015238 0.082905 0.033735 0.043118 0.195980 0.112960 0.225012 0.220237 0.030371 0.113361 0.065864 0.003721 0.018239 0.001636 0.032224 0.000620 0.248496 0.231965 0.083527 0.154127 -9999.000000 -9999.000000 -9999.000000 -9999.000000 -9999.000000 -9999.000000 -9999.000000 -9999.000000 -9999.000000 -9999.000000 
0.780000 0.752500 0.780000 0.917487 1.000000 1.000000 1.000000 1.000000 0.846098 0.636057 0.644261 0.826777 0.994315 0.995586 0.998114 0.984981 0.948661 0.949081 0.000000 0.000000 0.000000 0.000000 0.760000 0.907361 1.000000 1.000000 0.941362 0.839015 0.786556 0.077085 0.469071 0.921819 0.466511 0.000000 0.000000 0.000000 0.000000 0.094433 0.238298 0.040447 0.020380 0.112046 0.218669 0.023353 0.072600 0.126101 0.020899 0.001901 0.070476 0.175538 0.172987 0.045740 0.122076 0.043186 0.216631 0.593456 0.080229 0.027417 0.040769 0.020680 0.017150 0.209764 0.067679 0.010860 0.402307 0.647689 0.067078 0.122782 -9999.000000 -9999.000000 -9999.000000 -9999.000000 -9999.000000 -9999.000000 -9999.000000 -9999.000000 -9999.000000 -9999.000000 
0.670000 0.670000 0.670000 1.000000 1.000000 1.000000 1.000000 1.000000 1.000000 0.670000 0.900719 0.998737 0.924874 0.945741 0.885246 0.864268 0.898072 0.922025 0.000000 0.000000 0.000000 0.000000 0.000000 1.000000 1.000000 1.000000 0.942065 0.841540 0.838384 0.000000 0.054904 0.186847 0.681242 0.057783 0.002725 0.000000 0.000000 0.013939 0.186724 0.076245 0.027596 0.254802 0.175722 0.027870 0.007801 0.135759 0.022799 0.039823 0.257614 0.265824 0.385526 0.289981 0.110389 0.149453 0.356059 0.834090 0.110910 0.153369 0.045310 0.035563 0.081081 0.093124 0.086565 0.071933 0.333896 0.442104 0.175985 0.499152 -9999.000000 -9999.000000 -9999.000000 -9999.000000 -9999.000000 -9999.000000 -9999.000000 -9999.000000 -9999.000000 -9999.000000 
0.670000 0.670000 0.670000 1.000000 1.000000 1.000000 1.000000 1.000000 1.000000 0.938704 1.000000 1.000000 0.847799 0.943182 0.892744 0.869950 0.919192 0.908632 0.000000 0.000000 0.000000 0.000000 0.000000 1.000000 1.000000 1.000000 0.942695 0.846591 0.419192 0.000000 0.000784 0.000000 0.522768 0.473985 0.099653 0.022554 0.080705 0.003165 0.007453 0.042048 0.044746 0.215839 0.110522 0.118429 0.111681 0.062516 0.015199 0.128949 0.267683 0.192896 0.209021 0.233309 0.068961 0.187145 0.071201 0.458530 0.578679 0.814440 0.296903 0.053362 0.067794 0.074815 0.091853 0.195851 0.142843 0.123483 0.049818 0.191656 -9999.000000 -9999.000000 -9999.000000 -9999.000000 -9999.000000 -9999.000000 -9999.000000 -9999.000000 -9999.000000 -9999.000000 
0.670000 0.670000 0.670000 1.000000 1.000000 1.000000 1.000000 1.000000 1.000000 1.000000 1.000000 1.000000 0.799845 0.917845 0.970687 0.925926 0.905022 0.919192 0.000000 0.000000 0.000000 0.000000 0.000000 1.000000 1.000000 0.980994 0.930008 0.875946 0.000000 0.055323 0.037655 0.411740 0.834810 0.425961 0.386364 0.468219 0.484868 0.214176 0.000000 0.000000 0.013275 0.225495 0.220349 0.082859 0.058448 0.055940 0.040300 0.045610 0.079416 0.120788 0.202342 0.062914 0.017940 0.090921 0.247449 0.932856 0.972199 0.651045 0.287985 0.015209 0.013266 0.038365 0.021360 0.014376 0.026882 0.000000 0.000000 0.036688 0.349958 -9999.000000 -9999.000000 -9999.000000 -9999.000000 -9999.000000 -9999.000000 -9999.000000 -9999.000000 -9999.000000 
0.670000 0.670000 0.670000 0.834982 1.000000 1.000000 1.000000 1.000000 1.000000 1.000000 1.000000 0.933659 0.906158 0.896201 0.938207 0.948363 0.925926 0.330000 0.330000 0.330000 0.330000 0.330000 0.330000 0.000000 0.000000 0.000000 0.000000 0.000000 0.414682 0.114160 0.249387 0.098972 0.000000 0.249844 0.470440 0.499687 0.499374 0.390328 0.010900 0.000000 0.011953 0.202778 0.233009 0.060448 0.172976 0.171662 0.039298 0.000000 0.005063 0.056258 0.224827 0.107937 0.076725 0.061001 0.087889 0.506266 0.290165 0.065217 0.147664 0.012011 0.000631 0.013258 0.022134 0.024219 0.056636 0.049166 0.000000 0.011381 0.339984 0.682879 -9999.000000 -9999.000000 -9999.000000 -9999.000000 -9999.000000 -9999.000000 -9999.000000 -9999.000000 
0.670000 0.670000 0.670000 0.780000 1.000000 1.000000 1.000000 1.000000 1.000000 0.000000 0.000000 0.000000 0.000000 0.000000 0.000000 0.000000 0.330000 0.330000 0.330000 0.330000 0.330000 0.330000 0.424135 0.500000 0.500000 0.000000 0.000000 0.000000 0.482982 0.095821 0.000000 0.008350 0.000000 0.000000 0.407840 0.440003 0.343302 0.169476 0.000000 0.000629 0.013267 0.051563 0.209064 0.087081 0.056140 0.089805 0.010740 0.003801 0.017716 0.070976 0.234613 0.183565 0.048591 0.051810 0.250833 0.234382 0.023489 0.089930 0.096885 0.027278 0.001261 0.009452 0.015867 0.010920 0.072985 0.027315 0.000000 0.001261 0.171294 0.146154 0.478625 0.389239 -9999.000000 -9999.000000 -9999.000000 -9999.000000 -9999.000000 -9999.000000 
0.500000 0.668333 0.835000 0.917500 1.000000 1.000000 1.000000 0.000000 0.000000 0.000000 0.000000 0.000000 0.000000 0.000000 0.000000 0.000000 0.330000 0.330000 0.330000 0.330000 0.330000 0.366444 0.500000 0.500000 0.500000 0.500000 0.000000 1.000000 0.748123 0.000000 0.000000 0.000618 0.000000 0.000000 0.396636 0.264413 0.223611 0.055704 0.000582 0.067756 0.103045 0.028559 0.066127 0.096926 0.171533 0.087257 0.039241 0.184824 0.003934 0.040738 0.149459 0.144670 0.102217 0.047987 0.160890 0.151825 0.027962 0.083307 0.024365 0.070773 0.129112 0.028399 0.004598 0.041269 0.008405 0.091306 0.053342 0.003225 0.001269 0.007552 0.086202 0.075302 0.102879 0.240291 -9999.000000 -9999.000000 -9999.000000 -9999.000000 
0.500000 0.750000 1.000000 1.000000 1.000000 1.000000 1.000000 0.000000 0.000000 0.000000 0.000000 0.000000 0.000000 0.000000 0.000000 0.000000 0.330000 0.330000 0.330000 0.330000 0.330827 0.438287 0.500000 0.500000 0.500000 0.500000 1.000000 1.000000 1.000000 0.000000 0.000000 0.001336 0.000000 0.000594 0.314962 0.226310 0.216806 0.064332 0.023714 0.142958 0.184346 0.101520 0.028862 0.050070 0.149434 0.013576 0.049253 0.278366 0.017366 0.050051 0.171320 0.183538 0.050077 0.015241 0.005717 0.170651 0.053265 0.129031 0.007386 0.107109 0.225737 0.022844 0.011073 0.192283 0.007316 0.147488 0.162160 0.002332 0.018991 0.006285 0.010052 0.043478 0.030169 0.119876 0.730429 -9999.000000 -9999.000000 -9999.000000 
0.500000 1.000000 1.000000 1.000000 1.000000 1.000000 1.000000 0.000000 0.000000 0.000000 0.000000 0.000000 0.000000 0.000000 0.000000 0.000000 0.330000 0.330000 0.330000 0.330000 0.345500 0.489308 0.500000 0.500000 0.500000 0.500000 1.000000 1.000000 1.000000 0.666667 0.333765 0.000714 0.001875 0.125703 0.407686 0.047236 0.085281 0.105570 0.272944 0.345404 0.322741 0.159238 0.148620 0.160504 0.172662 0.047577 0.145318 0.274910 0.088735 0.119365 0.190231 0.103863 0.078520 0.184448 0.231378 0.243825 0.278755 0.139522 0.077291 0.233312 0.063120 0.056986 0.019604 0.022711 0.011364 0.084649 0.031574 0.028982 0.032301 0.024024 0.015752 0.011990 0.016456 0.025189 0.320501 -9999.000000 -9999.000000 -9999.000000 
0.500000 1.000000 1.000000 1.000000 1.000000 1.000000 0.808641 0.611396 0.802209 1.000000 1.000000 1.000000 1.000000 1.000000 0.000000 0.000000 0.330000 0.330000 0.330000 0.330000 0.400754 0.499374 0.500000 0.500000 0.500000 0.500000 1.000000 1.000000 1.000000 1.000000 1.000000 0.000000 0.000937 0.502513 0.407197 0.227525 0.000516 0.011037 0.467744 0.333893 0.215696 0.194576 0.116701 0.048156 0.063160 0.044432 0.020352 0.191830 0.237408 0.046924 0.154723 0.236980 0.062213 0.027269 0.087532 0.165182 0.317482 0.017120 0.123574 0.267191 0.082066 0.081102 0.111286 0.013282 0.000000 0.000000 0.000357 0.137534 0.050256 0.016452 0.003790 0.005699 0.003162 0.035488 0.221099 0.718669 0.707088 -9999.000000 
0.750000 0.867735 1.000000 1.000000 1.000000 0.817411 0.619963 0.602823 0.756427 1.000000 1.000000 1.000000 1.000000 1.000000 0.000000 0.000000 0.330000 0.330000 0.330000 0.353506 0.432551 0.500000 0.500000 0.500000 0.500000 0.500000 1.000000 1.000000 1.000000 1.000000 0.666667 0.200095 0.001059 0.000000 0.671717 0.631546 0.165404 0.030526 0.155010 0.199367 0.134293 0.025305 0.000000 0.024679 0.013642 0.013012 0.039048 0.051998 0.013959 0.016456 0.064044 0.013959 0.208968 0.310098 0.287799 0.190040 0.092332 0.263731 0.373096 0.078454 0.000632 0.084262 0.083903 0.012687 0.024464 0.047559 0.044285 0.039294 0.008575 0.098340 0.129263 0.115415 0.010130 0.001904 0.136421 0.448384 -9999.000000 -9999.000000 
0.838384 0.879093 0.838384 0.874580 0.743144 0.645426 0.604167 0.583333 0.592965 1.000000 1.000000 1.000000 1.000000 0.969338 0.000000 0.000000 0.000000 0.000000 0.000000 0.838384 0.724832 0.668342 0.583960 0.500000 0.500000 0.000000 1.000000 1.000000 1.000000 1.000000 1.000000 0.000554 0.000000 0.057048 0.233165 0.500946 0.143308 0.000000 0.000285 0.034965 0.201447 0.239752 0.012556 0.001494 0.018830 0.099524 0.060650 0.057814 0.132970 0.037365 0.005623 0.011874 0.149744 0.182951 0.137916 0.034645 0.274154 0.029159 0.058487 0.203632 0.056962 0.014401 0.007341 0.052035 0.015798 0.095255 0.128993 0.048793 0.065577 0.148589 0.087513 0.106397 0.071126 0.052091 0.178821 0.345397 0.882747 -9999.000000 
0.838384 0.838384 0.838384 0.838384 0.791667 0.651515 0.603405 0.545455 0.623819 0.948864 1.000000 0.979874 0.907678 0.829535 0.690510 0.670000 0.670000 0.670000 0.718027 0.790136 0.838384 0.838384 0.838384 0.753769 0.670000 0.670000 0.670000 1.000000 1.000000 1.000000 0.996323 0.000000 0.026147 0.043720 0.000000 0.503474 0.133735 0.000000 0.000000 0.019491 0.115397 0.153460 0.014995 0.000780 0.006630 0.029928 0.019307 0.027267 0.109838 0.021574 0.000611 0.013696 0.143129 0.040476 0.170738 0.046273 0.256301 0.072856 0.013977 0.153651 0.082174 0.010766 0.008256 0.068820 0.004425 0.043038 0.152929 0.072796 0.042992 0.040514 0.079900 0.087735 0.178048 0.157544 0.200890 0.500317 -9999.000000 0.888248 
0.718351 0.838384 0.838384 0.838384 0.837753 0.707071 0.566288 0.529672 0.654064 0.727904 0.897792 0.846784 0.838384 0.731707 0.670000 0.670000 0.670000 0.670000 0.670000 0.814971 0.838384 0.838384 0.838384 0.737429 0.670000 0.670000 0.752500 0.890000 1.000000 1.000000 0.996238 0.989899 0.050516 0.000913 0.001142 0.110212 0.045524 0.000000 0.000000 0.001890 0.000000 0.001902 0.022152 0.025355 0.038038 0.132691 0.165542 0.111675 0.002536 0.010127 0.003807 0.024005 0.070817 0.025992 0.048192 0.061232 0.304762 0.048254 0.011414 0.033672 0.101081 0.055908 0.016575 0.031962 0.171394 0.284221 0.165480 0.060497 0.012547 0.008836 0.050335 0.095076 0.111550 0.118085 0.144036 0.165823 -9999.000000 -9999.000000 
0.500000 0.698916 0.838384 0.838384 0.897792 0.982955 0.784722 0.583965 0.668130 0.697484 0.835859 0.838384 0.835227 0.696226 0.670000 0.670000 0.670839 0.670000 0.672306 0.793821 0.838384 0.838384 0.837121 0.673595 0.670000 0.670000 0.670000 1.000000 1.000000 1.000000 1.000000 0.856713 0.026909 0.053583 0.000725 0.002543 0.000000 0.000000 0.000573 0.000000 0.000000 0.002134 0.034808 0.048734 0.048034 0.080105 0.152739 0.090564 0.008249 0.000000 0.009512 0.151786 0.283399 0.106676 0.043290 0.113000 0.330574 0.020317 0.305416 0.176395 0.269496 0.291508 0.007600 0.002530 0.184640 0.251881 0.156780 0.188823 0.108940 0.023462 0.044343 0.069398 0.084108 0.076741 0.083969 0.158428 0.123164 0.384719 
0.500000 0.535058 0.829125 0.844407 0.968881 1.000000 0.993289 0.836120 0.670000 0.725063 0.838384 0.838384 0.819328 0.676175 0.670000 0.670000 0.670000 0.670000 0.671679 0.785055 0.838384 0.838384 0.823529 0.673623 0.670000 0.670000 0.670000 1.000000 1.000000 1.000000 1.000000 0.792710 0.029809 0.003413 0.000000 0.000000 0.000000 0.017766 0.000000 0.000000 0.000000 0.000000 0.014330 0.026266 0.054648 0.132439 0.030374 0.004224 0.000843 0.000000 0.003369 0.205069 0.683913 0.362139 0.149366 0.124496 0.354722 0.087065 0.706157 0.377740 0.145270 0.625211 0.039629 0.009251 0.016047 0.040506 0.404250 0.228499 0.179595 0.086003 0.016024 0.066618 0.088506 0.094458 0.082840 0.138019 0.180043 0.101509 
