ncols        78
nrows        66
xllcorner    -87.500000000000
yllcorner    25.000000000000
cellsize     0.083333333333
NODATA_value -9999.000000
-9999.000000 -9999.000000 -9999.000000 -9999.000000 0.000018 0.000080 -9999.000000 -9999.000000 -9999.000000 -9999.000000 -9999.000000 0.111058 0.021205 0.002721 0.003195 0.000415 -9999.000000 -9999.000000 -9999.000000 -9999.000000 -9999.000000 -9999.000000 -9999.000000 -9999.000000 -9999.000000 -9999.000000 -9999.000000 -9999.000000 -9999.000000 -9999.000000 -9999.000000 -9999.000000 -9999.000000 -9999.000000 -9999.000000 -9999.000000 -9999.000000 -9999.000000 -9999.000000 -9999.000000 -9999.000000 -9999.000000 -9999.000000 -9999.000000 -9999.000000 -9999.000000 -9999.000000 -9999.000000 -9999.000000 -9999.000000 -9999.000000 -9999.000000 -9999.000000 -9999.000000 -9999.000000 -9999.000000 -9999.000000 -9999.000000 -9999.000000 -9999.000000 -9999.000000 -9999.000000 -9999.000000 -9999.000000 -9999.000000 -9999.000000 -9999.000000 -9999.000000 -9999.000000 -9999.000000 -9999.000000 -9999.000000 0.000000 0.000000 0.000000 0.056419 0.102634 0.567030 
-9999.000000 -9999.000000 -9999.000000 0.000038 0.017285 0.000607 0.000693 0.000000 0.000000 0.000050 0.000000 0.000000 0.001881 0.000000 0.000000 -9999.000000 -9999.000000 -9999.000000 -9999.000000 -9999.000000 -9999.000000 -9999.000000 -9999.000000 -9999.000000 -9999.000000 -9999.000000 -9999.000000 -9999.000000 -9999.000000 -9999.000000 -9999.000000 -9999.000000 -9999.000000 -9999.000000 -9999.000000 -9999.000000 -9999.000000 -9999.000000 -9999.000000 -9999.000000 -9999.000000 -9999.000000 -9999.000000 -9999.000000 -9999.000000 -9999.000000 -9999.000000 -9999.000000 -9999.000000 -9999.000000 -9999.000000 -9999.000000 -9999.000000 -9999.000000 -9999.000000 -9999.000000 -9999.000000 -9999.000000 -9999.000000 -9999.000000 -9999.000000 -9999.000000 -9999.000000 -9999.000000 -9999.000000 -9999.000000 -9999.000000 -9999.000000 -9999.000000 -9999.000000 -9999.000000 -9999.000000 -9999.000000 0.000000 0.000000 0.056419 0.130573 0.230356 
0.000017 0.000000 0.000000 0.000000 0.000577 0.000101 0.003350 0.075392 0.000000 0.000224 0.002833 0.057548 0.007170 0.011369 0.150955 0.081880 0.009282 -9999.000000 -9999.000000 -9999.000000 -9999.000000 -9999.000000 -9999.000000 -9999.000000 -9999.000000 -9999.000000 -9999.000000 -9999.000000 -9999.000000 -9999.000000 -9999.000000 -9999.000000 -9999.000000 -9999.000000 -9999.000000 -9999.000000 -9999.000000 -9999.000000 -9999.000000 -9999.000000 -9999.000000 -9999.000000 -9999.000000 -9999.000000 -9999.000000 -9999.000000 -9999.000000 -9999.000000 -9999.000000 -9999.000000 -9999.000000 -9999.000000 -9999.000000 -9999.000000 -9999.000000 -9999.000000 -9999.000000 -9999.000000 -9999.000000 -9999.000000 -9999.000000 -9999.000000 -9999.000000 -9999.000000 -9999.000000 -9999.000000 -9999.000000 -9999.000000 -9999.000000 -9999.000000 -9999.000000 -9999.000000 -9999.000000 0.094783 0.020311 0.052469 0.249742 0.431062 
0.000043 0.000117 0.000077 0.000000 0.000782 0.000282 0.004095 0.034647 0.002167 0.000041 0.000087 0.000946 0.001228 0.004308 0.144448 0.018275 0.076996 0.195800 0.206039 0.069753 0.027872 0.001584 -9999.000000 -9999.000000 -9999.000000 -9999.000000 -9999.000000 -9999.000000 -9999.000000 -9999.000000 -9999.000000 -9999.000000 -9999.000000 -9999.000000 -9999.000000 -9999.000000 -9999.000000 -9999.000000 -9999.000000 -9999.000000 -9999.000000 -9999.000000 -9999.000000 -9999.000000 -9999.000000 -9999.000000 -9999.000000 -9999.000000 -9999.000000 -9999.000000 -9999.000000 -9999.000000 -9999.000000 -9999.000000 -9999.000000 -9999.000000 -9999.000000 -9999.000000 -9999.000000 -9999.000000 -9999.000000 -9999.000000 -9999.000000 -9999.000000 -9999.000000 -9999.000000 -9999.000000 -9999.000000 -9999.000000 -9999.000000 -9999.000000 -9999.000000 -9999.000000 0.682441 0.168692 0.115658 0.000000 0.126506 
0.000001 0.000002 0.000290 0.000000 0.000174 0.000547 0.023090 0.082523 0.121487 0.035963 0.000044 0.000270 0.000389 0.008693 0.023894 0.114297 0.037910 0.053424 0.182966 0.036456 0.000446 0.000000 0.000010 0.000000 -9999.000000 -9999.000000 -9999.000000 -9999.000000 -9999.000000 -9999.000000 -9999.000000 -9999.000000 -9999.000000 -9999.000000 -9999.000000 -9999.000000 -9999.000000 -9999.000000 -9999.000000 -9999.000000 -9999.000000 0.000000 -9999.000000 -9999.000000 -9999.000000 -9999.000000 -9999.000000 -9999.000000 -9999.000000 -9999.000000 -9999.000000 -9999.000000 -9999.000000 -9999.000000 -9999.000000 -9999.000000 -9999.000000 -9999.000000 -9999.000000 -9999.000000 -9999.000000 -9999.000000 -9999.000000 -9999.000000 -9999.000000 -9999.000000 -9999.000000 -9999.000000 -9999.000000 -9999.000000 -9999.000000 -9999.000000 -9999.000000 -9999.000000 0.000000 0.026517 0.145560 0.000000 
0.000013 0.000101 0.000017 0.000094 0.000023 0.023757 0.317542 0.030559 0.005138 0.160454 0.013859 0.014790 0.000068 0.006022 0.001450 0.004833 0.044306 0.028456 0.019016 0.013912 0.000759 0.000000 0.000000 0.000000 -9999.000000 -9999.000000 -9999.000000 -9999.000000 -9999.000000 -9999.000000 -9999.000000 -9999.000000 -9999.000000 -9999.000000 -9999.000000 -9999.000000 -9999.000000 -9999.000000 0.000000 0.016926 0.000000 0.000000 0.000000 0.000000 -9999.000000 -9999.000000 -9999.000000 -9999.000000 -9999.000000 -9999.000000 -9999.000000 -9999.000000 -9999.000000 -9999.000000 -9999.000000 -9999.000000 -9999.000000 -9999.000000 -9999.000000 -9999.000000 -9999.000000 -9999.000000 -9999.000000 -9999.000000 -9999.000000 -9999.000000 -9999.000000 -9999.000000 -9999.000000 -9999.000000 -9999.000000 -9999.000000 -9999.000000 -9999.000000 0.000000 0.111709 0.090660 0.407928 
0.017203 0.001255 0.000152 0.017038 0.050456 0.095367 0.475380 0.048989 0.000000 0.000000 0.159040 0.438865 0.187117 0.011334 0.009700 0.014404 0.006977 0.015786 0.007565 0.001481 0.000084 0.000055 0.000000 0.000000 -9999.000000 -9999.000000 -9999.000000 -9999.000000 -9999.000000 -9999.000000 -9999.000000 -9999.000000 -9999.000000 -9999.000000 -9999.000000 -9999.000000 -9999.000000 -9999.000000 0.000818 0.064907 0.140901 0.127736 0.037276 0.004335 0.000000 -9999.000000 -9999.000000 -9999.000000 -9999.000000 -9999.000000 -9999.000000 -9999.000000 -9999.000000 -9999.000000 -9999.000000 -9999.000000 -9999.000000 -9999.000000 -9999.000000 -9999.000000 -9999.000000 -9999.000000 -9999.000000 -9999.000000 -9999.000000 -9999.000000 -9999.000000 -9999.000000 -9999.000000 -9999.000000 -9999.000000 -9999.000000 -9999.000000 -9999.000000 0.000000 0.051557 0.111902 0.308509 
0.070603 0.000142 0.026720 0.271898 0.313055 0.000184 0.000085 0.000000 0.000000 0.000000 0.000000 0.109528 0.131200 0.000000 0.000058 0.000057 0.000047 0.017975 0.009170 0.002052 0.000157 0.000000 0.000000 0.000236 0.000000 0.000004 -9999.000000 -9999.000000 -9999.000000 -9999.000000 -9999.000000 -9999.000000 -9999.000000 -9999.000000 -9999.000000 -9999.000000 0.013693 0.017821 0.098214 0.192086 0.319963 0.229290 0.087054 0.061829 0.046586 0.000748 -9999.000000 -9999.000000 -9999.000000 -9999.000000 -9999.000000 -9999.000000 -9999.000000 -9999.000000 -9999.000000 -9999.000000 -9999.000000 -9999.000000 -9999.000000 -9999.000000 -9999.000000 -9999.000000 -9999.000000 -9999.000000 -9999.000000 -9999.000000 -9999.000000 -9999.000000 -9999.000000 -9999.000000 -9999.000000 -9999.000000 -9999.000000 -9999.000000 0.000000 0.007030 0.287665 0.070934 
0.004511 0.011840 0.258587 0.312441 0.199037 0.000000 0.000000 0.000000 0.000000 0.000000 0.000000 0.000000 0.000000 0.000238 0.000000 0.000547 0.002002 0.000724 0.006315 0.001608 0.000150 0.000000 0.000000 0.000000 0.000000 0.000251 -9999.000000 -9999.000000 -9999.000000 -9999.000000 -9999.000000 -9999.000000 0.000609 0.001169 0.045462 0.032227 0.056650 0.070705 0.068672 0.192126 0.438649 0.241916 0.015229 0.041604 0.199853 0.174808 0.009943 -9999.000000 -9999.000000 -9999.000000 -9999.000000 -9999.000000 -9999.000000 -9999.000000 -9999.000000 -9999.000000 -9999.000000 -9999.000000 -9999.000000 -9999.000000 -9999.000000 -9999.000000 -9999.000000 -9999.000000 -9999.000000 -9999.000000 -9999.000000 -9999.000000 -9999.000000 -9999.000000 -9999.000000 -9999.000000 -9999.000000 -9999.000000 -9999.000000 0.018123 0.133579 0.037446 
0.080563 0.454535 0.213595 0.064034 0.080179 0.000000 0.000000 0.000000 0.000000 0.000000 0.000000 0.000005 0.000000 0.000000 0.000000 0.010902 0.009102 0.003045 0.000000 0.000880 0.000000 0.000000 0.000000 0.000000 0.003686 0.002103 0.000182 -9999.000000 -9999.000000 -9999.000000 0.000000 0.004172 0.018314 0.003515 0.002630 0.247929 0.016744 0.186596 0.079350 0.336699 0.307735 0.242601 0.248932 0.074510 0.553170 0.347742 0.100455 0.001908 -9999.000000 -9999.000000 -9999.000000 -9999.000000 -9999.000000 -9999.000000 -9999.000000 -9999.000000 -9999.000000 -9999.000000 -9999.000000 -9999.000000 -9999.000000 -9999.000000 -9999.000000 -9999.000000 -9999.000000 -9999.000000 -9999.000000 -9999.000000 -9999.000000 -9999.000000 -9999.000000 -9999.000000 -9999.000000 -9999.000000 -9999.000000 0.000000 0.015819 0.000000 
0.499573 0.431835 0.453671 0.000000 0.012807 0.000000 0.000000 0.000000 0.000000 0.000000 0.000000 0.000000 0.000000 0.000968 0.000000 0.034814 0.021042 0.014194 0.000000 0.000000 0.000008 0.000203 0.000000 0.000000 0.000000 0.001019 0.002244 0.000753 0.000078 0.000000 0.001138 0.000000 0.038554 0.111255 0.045940 0.081662 0.063512 0.070764 0.330245 0.101377 0.276378 0.209509 0.298735 0.395467 0.238763 0.106189 0.098323 0.028879 0.000681 -9999.000000 -9999.000000 -9999.000000 -9999.000000 -9999.000000 -9999.000000 -9999.000000 -9999.000000 -9999.000000 -9999.000000 -9999.000000 -9999.000000 -9999.000000 -9999.000000 -9999.000000 -9999.000000 -9999.000000 -9999.000000 -9999.000000 -9999.000000 -9999.000000 -9999.000000 -9999.000000 -9999.000000 -9999.000000 -9999.000000 -9999.000000 0.087624 0.123526 
0.348559 0.475380 0.211750 0.177713 0.041644 0.000000 0.000000 0.030685 0.000000 0.000000 0.000000 0.000000 0.000000 0.000000 0.002105 0.061838 0.057600 0.291203 0.452506 0.000000 0.000000 0.000000 0.000000 0.000000 0.000773 0.003359 0.003682 0.002702 0.000000 0.000000 0.000000 0.000000 0.068959 0.003401 0.002345 0.006919 0.197097 0.049098 0.084783 0.222052 0.092521 0.272287 0.041137 0.189243 0.047214 0.119826 0.040811 0.076919 0.005279 -9999.000000 -9999.000000 -9999.000000 -9999.000000 -9999.000000 -9999.000000 -9999.000000 -9999.000000 -9999.000000 -9999.000000 -9999.000000 -9999.000000 -9999.000000 -9999.000000 -9999.000000 -9999.000000 -9999.000000 -9999.000000 -9999.000000 -9999.000000 -9999.000000 -9999.000000 -9999.000000 -9999.000000 -9999.000000 -9999.000000 -9999.000000 0.017306 0.015212 
0.280078 0.251737 0.252114 0.239061 0.277884 0.166577 0.214794 0.000000 0.000000 0.000000 0.000000 0.000000 0.000000 0.000000 0.000089 0.089322 0.241240 0.140800 0.000010 0.020023 0.000016 0.000000 0.000000 0.005726 0.000857 0.006557 0.000000 0.007482 0.000000 0.000211 0.000000 0.011420 0.002383 0.006242 0.010201 0.003304 0.130648 0.064729 0.012489 0.004644 0.024682 0.012473 0.131320 0.124004 0.165000 0.302190 0.143491 0.269658 0.216959 0.022223 0.000000 -9999.000000 -9999.000000 -9999.000000 -9999.000000 -9999.000000 -9999.000000 -9999.000000 -9999.000000 -9999.000000 -9999.000000 -9999.000000 -9999.000000 -9999.000000 -9999.000000 -9999.000000 -9999.000000 -9999.000000 -9999.000000 -9999.000000 -9999.000000 -9999.000000 -9999.000000 -9999.000000 -9999.000000 -9999.000000 0.007988 0.000000 
0.199278 0.253320 0.253320 0.126358 0.166731 0.667076 0.533661 0.000000 0.000000 0.000000 0.000000 0.000000 0.000000 0.000000 0.000000 0.000000 0.460840 0.195293 0.014986 0.005816 0.054352 0.000000 0.111435 0.000000 0.000000 0.000107 0.000000 0.001281 0.000000 0.000000 0.000000 0.000000 0.000000 0.001319 0.008233 0.011335 0.028246 0.075760 0.008404 0.000000 0.011718 0.009780 0.341189 0.119705 0.086928 0.267494 0.141487 0.619628 0.363687 0.130578 0.000000 0.000000 -9999.000000 -9999.000000 -9999.000000 -9999.000000 -9999.000000 -9999.000000 -9999.000000 -9999.000000 -9999.000000 -9999.000000 -9999.000000 -9999.000000 -9999.000000 -9999.000000 -9999.000000 -9999.000000 -9999.000000 -9999.000000 -9999.000000 -9999.000000 -9999.000000 -9999.000000 -9999.000000 -9999.000000 -9999.000000 0.000000 
0.226299 0.235306 0.126660 0.000000 0.000000 0.000000 0.000000 0.000000 0.000000 0.000000 0.000000 0.000000 0.000000 0.000000 0.000000 0.000000 0.000072 0.000000 0.000438 0.004062 0.008810 0.106071 0.052910 0.010024 0.010741 0.000000 0.000000 0.000000 0.000000 0.000000 0.002113 0.013531 0.006113 0.000918 0.030878 0.003738 0.021331 0.039703 0.000960 0.002997 0.006511 0.044440 0.038848 0.067545 0.670546 0.130927 0.039158 0.357248 0.000000 0.042409 0.030507 0.000000 -9999.000000 -9999.000000 -9999.000000 -9999.000000 -9999.000000 -9999.000000 -9999.000000 -9999.000000 -9999.000000 -9999.000000 -9999.000000 -9999.000000 -9999.000000 -9999.000000 -9999.000000 -9999.000000 -9999.000000 -9999.000000 0.000000 0.000000 -9999.000000 -9999.000000 -9999.000000 -9999.000000 -9999.000000 0.000000 
0.000000 0.000000 0.000000 0.000000 0.000000 0.000000 0.000000 0.000000 0.000000 0.000000 0.000000 0.000000 0.000000 0.000000 0.000000 0.000000 0.000000 0.000022 0.000000 0.000000 0.000135 0.019896 0.000680 0.007045 0.000126 0.000000 0.000000 0.000000 0.000000 0.000000 0.003002 0.000000 0.002502 0.031059 0.020052 0.021235 0.009542 0.000970 0.000000 0.056943 0.071790 0.000935 0.032775 0.010807 0.046502 0.040172 0.057365 0.124150 0.083156 0.091259 0.069478 0.011734 0.000000 -9999.000000 -9999.000000 -9999.000000 -9999.000000 -9999.000000 -9999.000000 -9999.000000 -9999.000000 -9999.000000 -9999.000000 -9999.000000 -9999.000000 -9999.000000 -9999.000000 -9999.000000 -9999.000000 -9999.000000 -9999.000000 0.000000 -9999.000000 -9999.000000 -9999.000000 -9999.000000 -9999.000000 -9999.000000 
0.000000 0.000000 0.000000 0.000000 0.000000 0.000000 0.000000 0.000000 0.000000 0.000000 0.000000 0.000000 0.000000 0.000000 0.000000 0.000000 0.000000 0.000000 0.000000 0.000000 0.027929 0.000002 0.000210 0.000000 0.000000 0.000000 0.000000 0.001820 0.000000 0.000188 0.001329 0.000781 0.010916 0.003390 0.011863 0.006818 0.015890 0.001133 0.000595 0.012494 0.006880 0.018323 0.000000 0.019186 0.006263 0.006571 0.001434 0.142827 0.056419 0.123315 0.075114 0.032312 0.006770 0.000000 0.000000 0.000000 -9999.000000 -9999.000000 -9999.000000 -9999.000000 -9999.000000 -9999.000000 -9999.000000 -9999.000000 -9999.000000 -9999.000000 -9999.000000 -9999.000000 -9999.000000 -9999.000000 -9999.000000 -9999.000000 0.000000 -9999.000000 -9999.000000 -9999.000000 -9999.000000 -9999.000000 
0.000000 0.000000 0.000000 0.000000 0.000000 0.000000 0.000000 0.000000 0.000000 0.000000 0.000000 0.000000 0.000000 0.000000 0.000000 0.000000 0.000000 0.000000 0.000000 0.000000 0.007175 0.005089 0.000468 0.000946 0.038812 0.115661 0.104328 0.000000 0.000000 0.000000 0.002534 0.000000 0.002928 0.026976 0.026974 0.034997 0.033595 0.003445 0.000276 0.019868 0.008447 0.000683 0.003681 0.004143 0.020934 0.039377 0.070888 0.027427 0.005362 0.034871 0.011076 0.021696 0.021886 0.005826 0.000000 0.000000 0.000000 -9999.000000 -9999.000000 -9999.000000 -9999.000000 -9999.000000 -9999.000000 -9999.000000 -9999.000000 -9999.000000 -9999.000000 -9999.000000 -9999.000000 -9999.000000 -9999.000000 -9999.000000 -9999.000000 -9999.000000 -9999.000000 -9999.000000 -9999.000000 -9999.000000 
0.000000 0.000000 0.000000 0.000000 0.000000 0.000000 0.000000 0.000000 0.000000 0.000000 0.000000 0.000000 0.000000 0.000000 0.000000 0.000000 0.000000 0.000000 0.000000 0.000000 0.000649 0.002383 0.000180 0.000000 0.001092 0.085939 0.337978 0.050136 0.006213 0.000000 0.002223 0.000000 0.001521 0.019474 0.008263 0.037097 0.037618 0.021563 0.010777 0.002548 0.000647 0.000911 0.001491 0.001522 0.012382 0.001270 0.002153 0.026281 0.146232 0.107619 0.042959 0.029685 0.027330 0.041431 0.014320 0.000000 0.000000 -9999.000000 -9999.000000 -9999.000000 -9999.000000 -9999.000000 -9999.000000 -9999.000000 -9999.000000 -9999.000000 -9999.000000 -9999.000000 -9999.000000 -9999.000000 -9999.000000 -9999.000000 -9999.000000 -9999.000000 -9999.000000 -9999.000000 -9999.000000 -9999.000000 
0.000000 0.067411 0.000000 0.000000 0.000000 0.000000 0.000000 0.000000 0.000000 0.000000 0.000000 0.000000 0.000000 0.000000 0.000000 0.000000 0.000000 0.000000 0.000000 0.000000 0.000000 0.000000 0.000106 0.000090 0.000000 0.000000 0.030510 0.034965 0.033740 0.000000 0.064828 0.003671 0.003069 0.023379 0.001733 0.001827 0.016952 0.001554 0.002230 0.023546 0.000000 0.017229 0.023854 0.014482 0.000000 0.105890 0.220160 0.035333 0.046228 0.000000 0.004336 0.015733 0.040361 0.070965 0.070130 0.007392 0.000000 0.000000 -9999.000000 -9999.000000 -9999.000000 -9999.000000 -9999.000000 -9999.000000 -9999.000000 -9999.000000 -9999.000000 -9999.000000 -9999.000000 -9999.000000 -9999.000000 -9999.000000 -9999.000000 -9999.000000 -9999.000000 -9999.000000 -9999.000000 -9999.000000 
0.269645 0.000000 0.000000 0.000000 0.000000 0.000000 0.000000 0.000000 0.000000 0.000000 0.000000 0.000000 0.000000 0.000000 0.000000 0.000000 0.000000 0.000000 0.000000 0.000000 0.000000 0.000000 0.000000 0.000000 0.000000 0.000014 0.000705 0.000000 0.006030 0.009387 0.000000 0.021383 0.014308 0.011481 0.002830 0.001879 0.001652 0.000091 0.000336 0.000000 0.025507 0.281633 0.009270 0.003048 0.004231 0.055159 0.133752 0.000616 0.072304 0.207052 0.000000 0.047288 0.077931 0.097187 0.111686 0.041387 0.000000 0.000000 -9999.000000 -9999.000000 -9999.000000 -9999.000000 -9999.000000 -9999.000000 -9999.000000 -9999.000000 -9999.000000 -9999.000000 -9999.000000 -9999.000000 -9999.000000 -9999.000000 -9999.000000 -9999.000000 -9999.000000 -9999.000000 -9999.000000 0.000000 
0.844400 0.489611 0.000000 0.000000 0.000000 0.000000 0.000000 0.000000 0.000000 0.000000 0.000000 0.000000 0.000000 0.000000 0.000000 0.000000 0.000000 0.000000 0.000000 0.000000 0.000000 0.000000 0.000000 0.000000 0.000000 0.000000 0.000496 0.000000 0.000000 0.001264 0.000526 0.001385 0.000920 0.003749 0.000591 0.270727 0.089021 0.037628 0.095214 0.033416 0.066801 0.028317 0.007459 0.066432 0.050177 0.113152 0.041528 0.039636 0.105272 0.114785 0.259024 0.130750 0.226307 0.181773 0.139435 0.061287 0.000000 0.000000 -9999.000000 -9999.000000 -9999.000000 -9999.000000 -9999.000000 -9999.000000 -9999.000000 -9999.000000 -9999.000000 -9999.000000 -9999.000000 -9999.000000 -9999.000000 -9999.000000 -9999.000000 -9999.000000 -9999.000000 -9999.000000 -9999.000000 -9999.000000 
0.844400 0.506640 0.000000 0.000000 0.000000 0.000000 0.000000 0.000000 0.000000 0.000000 0.000000 0.000000 0.000000 0.000000 0.000000 0.000000 0.000000 0.000000 0.000000 0.000000 0.000000 0.000000 0.000000 0.000000 0.000000 0.000019 0.000043 0.000021 0.000000 0.000000 0.000248 0.000000 0.007015 0.005220 0.000000 0.000000 0.409235 0.227948 0.452440 0.142837 0.001487 0.004847 0.001767 0.002223 0.004257 0.010363 0.000107 0.018683 0.022559 0.072317 0.303153 0.153813 0.096019 0.116271 0.133050 0.067266 0.000000 0.000000 -9999.000000 -9999.000000 -9999.000000 -9999.000000 -9999.000000 -9999.000000 -9999.000000 -9999.000000 -9999.000000 -9999.000000 -9999.000000 -9999.000000 -9999.000000 -9999.000000 -9999.000000 -9999.000000 -9999.000000 -9999.000000 -9999.000000 -9999.000000 
0.844400 0.000000 0.000000 0.000000 0.000000 0.000000 0.000000 0.000000 0.000000 0.000000 0.000000 0.000000 0.000000 0.000000 0.000000 0.000000 0.000000 0.000000 0.000000 0.000000 0.000000 0.000000 0.000000 0.000000 0.000000 0.000000 0.000002 0.000001 0.000000 0.000037 0.000000 0.012283 0.013571 0.047524 0.000000 0.002368 0.068578 0.177341 0.278849 0.060753 0.003088 0.001542 0.000445 0.001040 0.149398 0.000000 0.000000 0.000199 0.052660 0.230311 0.120632 0.062321 0.122906 0.123553 0.137282 0.047468 0.000000 0.000000 -9999.000000 -9999.000000 -9999.000000 -9999.000000 -9999.000000 -9999.000000 -9999.000000 -9999.000000 -9999.000000 -9999.000000 -9999.000000 -9999.000000 -9999.000000 -9999.000000 -9999.000000 -9999.000000 -9999.000000 -9999.000000 -9999.000000 -9999.000000 
0.844400 0.415339 0.000000 0.000000 0.000000 0.000000 0.000000 0.000000 0.000000 0.000000 0.000000 0.000000 0.000000 0.000000 0.000000 0.000000 0.000000 0.000000 0.000000 0.000000 0.000000 0.000000 0.000000 0.000000 0.000000 0.000000 0.000000 0.000040 0.000000 0.000000 0.000000 0.026889 0.034243 0.091951 0.021683 0.000000 0.163839 0.189196 0.319858 0.235724 0.013804 0.005506 0.000000 0.002002 0.000271 0.036288 0.020765 0.055162 0.012451 0.001228 0.113141 0.227610 0.181503 0.169108 0.165293 0.055289 0.000000 0.000000 -9999.000000 -9999.000000 -9999.000000 -9999.000000 -9999.000000 -9999.000000 -9999.000000 -9999.000000 -9999.000000 -9999.000000 -9999.000000 -9999.000000 -9999.000000 -9999.000000 -9999.000000 -9999.000000 -9999.000000 -9999.000000 -9999.000000 -9999.000000 
0.844400 0.843274 0.843194 0.000000 0.000000 0.000000 0.000000 0.281467 0.000000 0.000000 0.000000 0.000000 0.000000 0.000000 0.000000 0.000000 0.000000 0.000000 0.000000 0.000000 0.000000 0.000000 0.000000 0.000000 0.000000 0.000000 0.000000 0.000067 0.000000 0.001740 0.000194 0.003135 0.034620 0.021178 0.006148 0.004490 0.000000 0.144290 0.633060 0.749030 0.702866 0.003320 0.001229 0.005467 0.000614 0.008801 0.001375 0.020730 0.061470 0.096728 0.070242 0.217925 0.203975 0.209572 0.204168 0.064313 0.000000 -9999.000000 -9999.000000 -9999.000000 -9999.000000 -9999.000000 -9999.000000 -9999.000000 -9999.000000 -9999.000000 -9999.000000 -9999.000000 -9999.000000 -9999.000000 -9999.000000 -9999.000000 -9999.000000 -9999.000000 -9999.000000 -9999.000000 -9999.000000 -9999.000000 
0.844025 0.844400 0.844400 0.844400 0.482514 0.844400 0.844400 0.633300 0.844400 0.281467 0.000000 0.000000 0.000000 0.000000 0.000000 0.000000 0.000000 0.000000 0.000000 0.000000 0.000000 0.000000 0.000000 0.000000 0.000000 0.000000 0.000000 0.000029 0.000152 0.000000 0.000000 0.000000 0.051012 0.019339 0.006145 0.000000 0.001870 0.000016 0.589355 0.788052 0.615364 0.130762 0.000000 0.000000 0.000000 0.000000 0.038545 0.124875 0.036581 0.015957 0.054370 0.000000 0.121084 0.254756 0.208145 0.064709 0.000000 -9999.000000 -9999.000000 -9999.000000 -9999.000000 -9999.000000 -9999.000000 -9999.000000 -9999.000000 -9999.000000 -9999.000000 -9999.000000 -9999.000000 -9999.000000 -9999.000000 -9999.000000 -9999.000000 -9999.000000 -9999.000000 -9999.000000 -9999.000000 -9999.000000 
0.844400 0.844400 0.844400 0.844400 0.844400 0.844400 0.844400 0.844400 0.844400 0.562933 0.000000 0.000000 0.000000 0.000000 0.000000 0.000000 0.000000 0.000000 0.000000 0.000000 0.000000 0.000000 0.000000 0.000000 0.000000 0.000000 0.000000 0.000000 0.000000 0.000037 0.000005 0.003443 0.000000 0.001892 0.002274 0.001101 0.000750 0.013676 0.141622 0.867272 0.665095 0.650384 0.604723 0.025033 0.076734 0.041993 0.001361 0.001534 0.027324 0.023535 0.032019 0.024310 0.017034 0.085763 0.092558 0.031237 0.000000 -9999.000000 -9999.000000 -9999.000000 -9999.000000 -9999.000000 -9999.000000 -9999.000000 -9999.000000 -9999.000000 -9999.000000 -9999.000000 -9999.000000 -9999.000000 -9999.000000 -9999.000000 -9999.000000 -9999.000000 -9999.000000 -9999.000000 -9999.000000 -9999.000000 
0.000000 0.422200 0.844400 0.562933 0.422200 0.422200 0.562933 0.844400 0.844400 0.844400 0.281467 0.000000 0.422200 0.844400 0.000000 0.000000 0.000000 0.000000 0.000000 0.000000 0.000000 0.000000 0.000000 0.000000 0.000000 0.000000 0.000000 0.000000 0.000000 0.000000 0.000005 0.000000 0.000227 0.000000 0.000000 0.000000 0.000000 0.026397 0.469154 0.816500 0.155645 0.568488 0.520454 0.132183 0.000307 0.009520 0.004917 0.000839 0.001914 0.019207 0.027302 0.021129 0.052112 0.059922 0.059799 0.009007 -9999.000000 -9999.000000 -9999.000000 -9999.000000 -9999.000000 -9999.000000 -9999.000000 -9999.000000 -9999.000000 -9999.000000 -9999.000000 -9999.000000 -9999.000000 -9999.000000 -9999.000000 -9999.000000 -9999.000000 -9999.000000 -9999.000000 -9999.000000 -9999.000000 -9999.000000 
0.000000 0.000000 0.000000 0.000000 0.000000 0.000000 0.000000 0.844400 0.844400 0.844400 0.562933 0.844400 0.844400 0.844400 0.842865 0.421816 0.000000 0.000000 0.000000 0.000000 0.000000 0.000000 0.000000 0.000000 0.000000 0.000000 0.000000 0.000000 0.000000 0.000000 0.000000 0.000000 0.000000 0.002007 0.006671 0.001831 0.000000 0.000000 0.273883 0.243036 0.000000 0.145500 0.000000 0.017928 0.175421 0.004547 0.005637 0.003621 0.012771 0.037416 0.046564 0.085920 0.045132 0.113780 0.046550 0.038453 -9999.000000 -9999.000000 -9999.000000 -9999.000000 -9999.000000 -9999.000000 -9999.000000 -9999.000000 -9999.000000 -9999.000000 -9999.000000 -9999.000000 -9999.000000 -9999.000000 -9999.000000 -9999.000000 -9999.000000 -9999.000000 -9999.000000 -9999.000000 -9999.000000 -9999.000000 
0.000000 0.000000 0.000000 0.000000 0.000000 0.000000 0.000000 0.000000 0.000000 0.000000 0.844400 0.844400 0.844400 0.422200 0.561483 0.842865 0.844400 0.000000 0.274769 0.644911 0.000000 0.000000 0.000000 0.000000 0.000000 0.000000 0.000000 0.000000 0.000000 0.000000 0.000000 0.000000 0.000000 0.000811 0.000000 0.000812 0.000708 0.000505 0.000552 0.011886 0.019939 0.000023 0.015675 0.050517 0.024527 0.029303 0.000028 0.000000 0.003814 0.013210 0.029972 0.028582 0.144829 0.198967 0.316423 0.112182 -9999.000000 -9999.000000 0.000000 0.000000 -9999.000000 -9999.000000 -9999.000000 -9999.000000 -9999.000000 -9999.000000 -9999.000000 -9999.000000 -9999.000000 -9999.000000 -9999.000000 -9999.000000 -9999.000000 -9999.000000 -9999.000000 -9999.000000 -9999.000000 -9999.000000 
0.000000 0.000000 0.000000 0.000000 0.000000 0.000000 0.000000 0.000000 0.000000 0.000000 0.844400 0.422200 0.000000 0.000000 0.421113 0.841585 0.458087 0.454167 0.644911 0.794352 0.844165 0.844048 0.844400 0.000000 0.000000 0.000000 0.000000 0.000000 0.000000 0.000000 0.000000 0.000000 0.000000 0.000142 0.000492 0.000158 0.001558 0.000000 0.000000 0.035656 0.067570 0.000412 0.008395 0.016868 0.032774 0.047060 0.000680 0.000000 0.000000 0.000000 0.000151 0.150868 0.507820 0.269525 0.115175 0.074358 -9999.000000 -9999.000000 0.000000 0.043219 0.000000 -9999.000000 -9999.000000 -9999.000000 -9999.000000 -9999.000000 -9999.000000 -9999.000000 -9999.000000 -9999.000000 -9999.000000 -9999.000000 -9999.000000 -9999.000000 -9999.000000 -9999.000000 -9999.000000 -9999.000000 
0.000000 0.000000 0.000000 0.000000 0.000000 0.000000 0.000000 0.000000 0.000000 0.000000 0.000000 0.000000 0.000000 0.000000 0.280528 0.433224 0.000000 0.773229 0.844400 0.844400 0.843696 0.844400 0.549372 0.000000 0.000000 0.000000 0.000000 0.000000 0.000000 0.000000 0.000000 0.000000 0.000000 0.000099 0.001313 0.001941 0.000000 0.000060 0.000000 0.036151 0.147958 0.048090 0.009746 0.000000 0.033618 0.016443 0.003037 0.009584 0.002192 0.004147 0.036993 0.078504 0.292960 0.159038 0.062399 0.063767 0.023610 -9999.000000 -9999.000000 0.003201 0.000000 -9999.000000 -9999.000000 -9999.000000 -9999.000000 -9999.000000 -9999.000000 -9999.000000 -9999.000000 -9999.000000 -9999.000000 -9999.000000 -9999.000000 -9999.000000 -9999.000000 -9999.000000 -9999.000000 -9999.000000 
0.000000 0.000000 0.000000 0.000000 0.000000 0.000000 0.000000 0.000000 0.000000 0.000000 0.000000 0.000000 0.000000 0.000000 0.000000 0.000000 0.386615 0.539210 0.616302 0.619483 0.541999 0.803715 0.000000 0.225129 0.140733 0.000000 0.000000 0.000000 0.000000 0.000000 0.000000 0.000000 0.000000 0.000040 0.000572 0.000507 0.000362 0.000000 0.005024 0.122854 0.068063 0.010504 0.001254 0.000000 0.000224 0.000468 0.001991 0.097783 0.002108 0.005313 0.000801 0.087997 0.161898 0.184818 0.062580 0.044822 0.047274 0.136661 0.012832 0.000000 -9999.000000 -9999.000000 -9999.000000 -9999.000000 -9999.000000 -9999.000000 -9999.000000 -9999.000000 -9999.000000 -9999.000000 -9999.000000 -9999.000000 -9999.000000 -9999.000000 -9999.000000 -9999.000000 -9999.000000 -9999.000000 
0.000000 0.000000 0.000000 0.000000 0.000000 0.000000 0.000000 0.000000 0.000000 0.000000 0.000000 0.000000 0.000000 0.000000 0.000000 0.000000 0.000000 0.000000 0.309741 0.000000 0.084440 0.747998 0.619051 0.281467 0.000000 0.000000 0.000000 0.000000 0.000000 0.000000 0.000000 0.000000 0.000000 0.000086 0.000200 0.001182 0.000089 0.000000 0.001185 0.030014 0.000000 0.000000 0.000004 0.005733 0.001612 0.000000 0.011342 0.000000 0.004123 0.000000 0.008834 0.104721 0.058681 0.097577 0.075360 0.106625 0.062604 0.025697 0.000000 0.000000 -9999.000000 -9999.000000 -9999.000000 -9999.000000 -9999.000000 -9999.000000 -9999.000000 -9999.000000 -9999.000000 -9999.000000 -9999.000000 -9999.000000 -9999.000000 -9999.000000 -9999.000000 -9999.000000 -9999.000000 -9999.000000 
0.000000 0.000000 0.000000 0.000000 0.000000 0.000000 0.000000 0.000000 0.000000 0.000000 0.000000 0.000000 0.000000 0.000000 0.000000 0.000000 0.000000 0.000000 0.000000 0.042220 0.419209 0.844400 0.844400 0.504388 0.000000 0.226951 0.021311 0.000000 0.000000 0.000000 0.000000 0.844400 0.422200 0.000000 0.000063 0.000013 0.000000 0.000000 0.008820 0.026067 0.002063 0.000324 0.000069 0.022677 0.003293 0.006305 0.016988 0.009332 0.002765 0.002545 0.007659 0.000000 0.021512 0.105335 0.108676 0.037306 0.000000 0.021661 0.001379 -9999.000000 -9999.000000 -9999.000000 -9999.000000 -9999.000000 -9999.000000 -9999.000000 -9999.000000 -9999.000000 -9999.000000 -9999.000000 -9999.000000 -9999.000000 -9999.000000 -9999.000000 -9999.000000 -9999.000000 -9999.000000 -9999.000000 
0.000000 0.000000 0.000000 0.000000 0.000000 0.000000 0.000000 0.000000 0.000000 0.000000 0.000000 0.000000 0.000000 0.000000 0.000000 0.000000 0.000000 0.000000 0.000000 0.000000 0.844400 0.844400 0.844400 0.843696 0.843872 0.063933 0.123202 0.000000 0.000000 0.000000 0.844400 0.844224 0.844400 0.422068 0.000000 0.000621 0.000245 0.000167 0.000000 0.082991 0.029818 0.263527 0.096463 0.000759 0.003822 0.000632 0.000000 0.000000 0.005762 0.011045 0.002750 0.021738 0.075390 0.055320 0.142559 0.146465 0.078491 0.106931 -9999.000000 -9999.000000 -9999.000000 -9999.000000 -9999.000000 -9999.000000 -9999.000000 -9999.000000 -9999.000000 -9999.000000 -9999.000000 -9999.000000 -9999.000000 -9999.000000 -9999.000000 -9999.000000 -9999.000000 -9999.000000 -9999.000000 -9999.000000 
0.000000 0.000000 0.000000 0.000000 0.000000 0.000000 0.000000 0.000000 0.000000 0.000000 0.000000 0.000000 0.000000 0.000000 0.000000 0.000000 0.000000 0.000000 0.000000 0.000000 0.000000 0.464420 0.616271 0.844400 0.844400 0.305673 0.404669 0.000000 0.000000 0.000000 0.844400 0.844400 0.843872 0.843791 0.000000 0.001357 0.002006 0.002310 0.000000 0.104828 0.159545 0.174245 0.050025 0.001541 0.004002 0.005290 0.005724 0.001186 0.000613 0.000380 0.000424 0.000000 0.021329 0.052397 0.083269 0.094432 0.163115 0.621675 0.223573 -9999.000000 -9999.000000 -9999.000000 -9999.000000 -9999.000000 -9999.000000 -9999.000000 -9999.000000 -9999.000000 -9999.000000 -9999.000000 -9999.000000 -9999.000000 -9999.000000 -9999.000000 -9999.000000 -9999.000000 -9999.000000 -9999.000000 
0.000000 0.000000 0.000000 0.000000 0.000000 0.000000 0.000000 0.000000 0.000000 0.000000 0.000000 0.000000 0.000000 0.000000 0.000000 0.000000 0.000000 0.000000 0.000000 0.000000 0.000000 0.084440 0.084440 0.464420 0.844400 0.844400 0.709718 0.844400 0.000000 0.000000 0.844400 0.844400 0.843101 0.843487 0.000042 0.000000 0.000500 0.003473 0.000000 0.054330 0.125387 0.130572 0.295081 0.242866 0.084649 0.000969 0.036146 0.031114 0.044735 0.025478 0.006460 0.002297 0.000000 0.001294 0.000000 0.031258 0.006757 0.113820 0.138421 0.039050 -9999.000000 -9999.000000 -9999.000000 -9999.000000 -9999.000000 -9999.000000 -9999.000000 -9999.000000 -9999.000000 -9999.000000 -9999.000000 -9999.000000 -9999.000000 -9999.000000 -9999.000000 -9999.000000 -9999.000000 -9999.000000 
0.000000 0.000000 0.000000 0.000000 0.000000 0.000000 0.000000 0.000000 0.000000 0.000000 0.000000 0.000000 0.000000 0.000000 0.000000 0.000000 0.000000 0.000000 0.000000 0.000000 0.000000 0.084440 0.084440 0.464420 0.844400 0.844400 0.844400 0.844400 0.844400 0.000000 0.281467 0.421875 0.562500 0.843101 0.000069 0.000323 0.000468 0.000000 0.000238 0.001105 0.003834 0.363611 0.220618 0.169149 0.149589 0.140113 0.084899 0.043386 0.015138 0.009019 0.034015 0.004925 0.002538 0.001111 0.002681 0.029311 0.024747 0.040048 0.126756 0.064922 -9999.000000 -9999.000000 -9999.000000 -9999.000000 -9999.000000 -9999.000000 -9999.000000 -9999.000000 -9999.000000 -9999.000000 -9999.000000 -9999.000000 -9999.000000 -9999.000000 -9999.000000 -9999.000000 -9999.000000 -9999.000000 
0.000000 0.000000 0.000000 0.000000 0.000000 0.000000 0.000000 0.000000 0.000000 0.000000 0.000000 0.000000 0.000000 0.000000 0.000000 0.000000 0.000000 0.000000 0.000000 0.000000 0.000000 0.084440 0.274430 0.464420 0.599524 0.844400 0.844400 0.844400 0.844400 0.000000 0.000000 0.000000 0.000000 0.000000 0.000192 0.000611 0.000000 0.001139 0.000000 0.000352 0.000600 0.000085 0.148761 0.131639 0.003806 0.295926 0.197817 0.026011 0.008583 0.004776 0.000000 0.005996 0.008066 0.001572 0.000000 0.000000 0.021403 0.194380 0.000720 0.000000 -9999.000000 -9999.000000 -9999.000000 -9999.000000 -9999.000000 -9999.000000 -9999.000000 -9999.000000 -9999.000000 -9999.000000 -9999.000000 -9999.000000 -9999.000000 -9999.000000 -9999.000000 -9999.000000 -9999.000000 -9999.000000 
0.000000 0.000000 0.000000 0.000000 0.000000 0.000000 0.000000 0.000000 0.000000 0.000000 0.000000 0.000000 0.000000 0.000000 0.000000 0.000000 0.000000 0.000000 0.000000 0.000000 0.000000 0.000000 0.000000 0.000000 0.281467 0.000000 0.844400 0.844400 0.720906 0.298707 0.000000 0.000000 0.000000 0.000000 0.000000 0.000115 0.000000 0.000000 0.000000 0.000014 0.000044 0.000110 0.002205 0.008100 0.001068 0.001101 0.083485 0.003894 0.014627 0.100837 0.016792 0.014831 0.029500 0.000000 0.000081 0.000000 0.000000 0.001319 0.018101 0.000000 0.001116 -9999.000000 -9999.000000 -9999.000000 -9999.000000 -9999.000000 -9999.000000 -9999.000000 -9999.000000 -9999.000000 -9999.000000 -9999.000000 -9999.000000 -9999.000000 -9999.000000 -9999.000000 -9999.000000 -9999.000000 
0.000000 0.000000 0.000000 0.000000 0.000000 0.000000 0.000000 0.000000 0.000000 0.000000 0.000000 0.000000 0.000000 0.000000 0.000000 0.000000 0.000000 0.000000 0.000000 0.000000 0.000000 0.000000 0.000000 0.000000 0.000000 0.000000 0.501267 0.738656 0.679742 0.515084 0.341178 0.168880 0.000000 0.000000 0.000000 0.000004 0.000000 0.000000 0.000000 0.000000 0.000000 0.000000 0.000000 0.012948 0.000145 0.046005 0.003454 0.006278 0.000637 0.005512 0.023161 0.005347 0.002408 0.000613 0.005319 0.000000 0.000149 0.008548 0.018622 0.013044 0.017187 -9999.000000 -9999.000000 -9999.000000 -9999.000000 -9999.000000 -9999.000000 -9999.000000 -9999.000000 -9999.000000 -9999.000000 -9999.000000 -9999.000000 -9999.000000 -9999.000000 -9999.000000 -9999.000000 -9999.000000 
0.000000 0.000000 0.000000 0.000000 0.000000 0.000000 0.000000 0.000000 0.000000 0.000000 0.000000 0.000000 0.000000 0.000000 0.000000 0.000000 0.000000 0.000000 0.000000 0.000000 0.000000 0.000000 0.000000 0.000000 0.000000 0.000000 0.238370 0.817533 0.507203 0.687583 0.844400 0.000000 0.000000 0.000000 0.000000 0.013942 0.022207 0.000000 0.000000 0.000000 0.000008 0.039652 0.065763 0.000000 0.001461 0.087467 0.000000 0.019823 0.161071 0.362322 0.305661 0.001339 0.006616 0.001030 0.005349 0.000779 0.003647 0.006894 0.007236 0.078499 0.055192 0.018075 -9999.000000 -9999.000000 0.000000 -9999.000000 -9999.000000 -9999.000000 -9999.000000 -9999.000000 -9999.000000 -9999.000000 -9999.000000 -9999.000000 -9999.000000 -9999.000000 -9999.000000 -9999.000000 
0.000000 0.000000 0.000000 0.000000 0.000000 0.000000 0.000000 0.000000 0.000000 0.000000 0.000000 0.000000 0.000000 0.000000 0.000000 0.000000 0.000000 0.000000 0.000000 0.000000 0.000000 0.000000 0.000000 0.000000 0.000000 0.000000 0.000000 0.135948 0.089636 0.777498 0.843101 0.504951 0.000000 0.000000 0.183235 0.022152 0.013681 0.000008 0.000000 0.000000 0.000005 0.000000 0.198518 0.130766 0.115379 0.418255 0.076475 0.352751 0.179104 0.514862 0.524130 0.009574 0.005890 0.197101 0.585122 0.020011 0.000749 0.150015 0.055097 0.014559 0.071890 0.022950 0.014971 0.001293 0.000000 -9999.000000 -9999.000000 -9999.000000 -9999.000000 -9999.000000 -9999.000000 -9999.000000 -9999.000000 -9999.000000 -9999.000000 -9999.000000 -9999.000000 -9999.000000 
0.000000 0.000000 0.000000 0.000000 0.000000 0.000000 0.000000 0.000000 0.000000 0.000000 0.000000 0.000000 0.000000 0.000000 0.000000 0.000000 0.000000 0.000000 0.000000 0.000000 0.000000 0.000000 0.000000 0.000000 0.000000 0.000000 0.000000 0.002598 0.000000 0.281467 0.780542 0.494577 0.000000 0.000000 0.254526 0.018911 0.008511 0.000662 0.000244 0.000020 0.000000 0.000000 0.054111 0.121189 0.335821 0.502346 0.093840 0.244354 0.171059 0.199834 0.228060 0.006779 0.009060 0.004878 0.729820 0.015582 0.053016 0.016903 0.055185 0.022314 0.114164 0.000000 0.027274 0.020012 0.000000 -9999.000000 -9999.000000 -9999.000000 -9999.000000 -9999.000000 -9999.000000 -9999.000000 -9999.000000 -9999.000000 -9999.000000 -9999.000000 -9999.000000 -9999.000000 
0.000000 0.000000 0.000000 0.000000 0.000000 0.000000 0.000000 0.000000 0.000000 0.000000 0.000000 0.000000 0.000000 0.000000 0.000000 0.000000 0.000000 0.000000 0.000000 0.000000 0.000000 0.000000 0.000000 0.000000 0.000000 0.000000 0.000433 0.000000 0.000000 0.844400 0.838595 0.736739 0.000000 0.042421 0.000000 0.000000 0.003302 0.000262 0.000076 0.000000 0.000002 0.000000 0.000000 0.058497 0.263611 0.000761 0.000000 0.000000 0.000000 0.000000 0.000000 0.002048 0.004036 0.005172 0.013950 0.000383 0.161353 0.178274 0.009561 0.009612 0.039447 0.000000 0.004449 0.000235 -9999.000000 -9999.000000 -9999.000000 -9999.000000 -9999.000000 -9999.000000 -9999.000000 -9999.000000 -9999.000000 -9999.000000 -9999.000000 -9999.000000 -9999.000000 -9999.000000 
0.000000 0.000000 0.000000 0.000000 0.000000 0.000000 0.000000 0.000000 0.000000 0.000000 0.000000 0.000000 0.000000 0.000000 0.000000 0.000000 0.000000 0.000000 0.000000 0.000000 0.000000 0.000000 0.000000 0.000000 0.000000 0.000000 0.000000 0.000000 0.000000 0.636115 0.843837 0.844400 0.000000 0.000000 0.000000 0.000000 0.000024 0.000131 0.000080 0.000052 0.000011 0.000005 0.000000 0.010783 0.194746 0.002866 0.000000 0.000000 0.000000 0.000000 0.000000 0.108220 0.020522 0.061874 0.000000 0.001998 0.000559 0.002336 0.020969 0.017104 0.020714 0.000000 0.001935 0.004753 -9999.000000 -9999.000000 -9999.000000 -9999.000000 -9999.000000 -9999.000000 -9999.000000 -9999.000000 -9999.000000 -9999.000000 -9999.000000 -9999.000000 -9999.000000 -9999.000000 
0.000000 0.000000 0.000000 0.000000 0.000000 0.000000 0.000000 0.000000 0.000000 0.000000 0.000000 0.000000 0.000000 0.000000 0.000000 0.000000 0.000000 0.000000 0.000000 0.000000 0.000000 0.000000 0.000000 0.000000 0.000000 0.000000 0.000000 0.000000 0.000000 0.051720 0.785820 0.842993 0.000000 0.035183 0.000000 0.000000 0.000000 0.000016 0.000057 0.000018 0.000005 0.000028 0.000053 0.001569 0.235517 0.091117 0.000000 0.000000 0.000000 0.000000 0.000000 0.103555 0.021597 0.019191 0.043130 0.000163 0.012533 0.011223 0.002825 0.017752 0.017429 0.016555 0.052450 0.031425 0.001968 0.000000 0.000000 0.000000 -9999.000000 -9999.000000 -9999.000000 -9999.000000 -9999.000000 -9999.000000 -9999.000000 -9999.000000 -9999.000000 -9999.000000 
0.000000 0.000000 0.000000 0.000000 0.000000 0.000000 0.000000 0.000000 0.000000 0.000000 0.000000 0.000000 0.000000 0.000000 0.000000 0.000000 0.000000 0.000000 0.000000 0.000000 0.000000 0.000000 0.000000 0.000000 0.000000 0.000000 0.000000 0.128086 0.844400 0.407001 0.756793 0.628694 0.105550 0.051456 0.192101 0.000000 0.000000 0.011753 0.000002 0.000000 0.000000 0.000000 0.000000 0.000000 0.120768 0.327423 0.000191 0.000000 0.000000 0.000000 0.519837 0.623121 0.022288 0.010971 0.000941 0.002605 0.095738 0.000631 0.000000 0.022460 0.042278 0.133688 0.033961 0.016868 0.000000 0.001538 0.000023 0.000000 -9999.000000 -9999.000000 -9999.000000 -9999.000000 -9999.000000 -9999.000000 -9999.000000 -9999.000000 -9999.000000 -9999.000000 
0.000000 0.000000 0.000000 0.000000 0.000000 0.000000 0.000000 0.000000 0.000000 0.000000 0.000000 0.000000 0.000000 0.000000 0.000000 0.000000 0.000000 0.000000 0.000000 0.000000 0.000000 0.000000 0.000000 0.000000 0.000000 0.000000 0.000000 0.000000 0.052199 0.766821 0.364675 0.023080 0.100272 0.000000 0.384202 0.768404 0.768404 0.023504 0.000000 0.006492 0.015438 0.000007 0.000049 0.000000 0.089799 0.091281 0.000000 0.000000 0.000000 0.000000 0.174491 0.422238 0.005035 0.122570 0.512796 0.001426 0.293228 0.059423 0.081038 0.095147 0.067383 0.110095 0.034612 0.043858 0.000332 0.000000 0.006953 0.000000 -9999.000000 -9999.000000 -9999.000000 -9999.000000 -9999.000000 -9999.000000 -9999.000000 -9999.000000 -9999.000000 -9999.000000 
0.000000 0.000000 0.000000 0.000000 0.000000 0.000000 0.000000 0.000000 0.000000 0.000000 0.000000 0.000000 0.000000 0.000000 0.000000 0.000000 0.000000 0.000000 0.000000 0.000000 0.000000 0.000000 0.000000 0.000000 0.000000 0.000000 0.000000 0.000000 0.000000 0.844400 0.786348 0.674676 0.000000 0.033424 0.512269 0.768404 0.768404 0.000000 0.000000 0.022510 0.049810 0.000000 0.000118 0.000000 0.216577 0.049624 0.000000 0.000000 0.000000 0.000131 0.000009 0.003590 0.286952 0.115164 0.185493 0.000971 0.297392 0.062797 0.286551 0.418246 0.205438 0.527811 0.409484 0.442923 0.002575 0.071399 0.000000 0.002108 -9999.000000 -9999.000000 -9999.000000 -9999.000000 -9999.000000 -9999.000000 -9999.000000 -9999.000000 -9999.000000 -9999.000000 
0.000000 0.000000 0.000000 0.000000 0.000000 0.000000 0.000000 0.000000 0.000000 0.000000 0.000000 0.000000 0.000000 0.000000 0.000000 0.000000 0.000000 0.000000 0.000000 0.000000 0.000000 0.000000 0.000000 0.000000 0.000000 0.000000 0.000000 0.000000 0.422200 0.844400 0.843632 0.844400 0.308505 0.000000 0.384202 0.512269 0.307362 0.000000 0.008938 0.024297 0.016813 0.007220 0.000046 0.000000 0.247647 0.390634 0.000000 0.000039 0.000034 0.000574 0.001040 0.021188 0.552340 0.103771 0.003086 0.004770 0.000291 0.000000 0.021893 0.156917 0.285992 0.377341 0.316652 0.040980 0.022608 0.000000 0.006803 0.002580 -9999.000000 -9999.000000 -9999.000000 -9999.000000 -9999.000000 -9999.000000 -9999.000000 -9999.000000 -9999.000000 -9999.000000 
0.000000 0.000000 0.000000 0.000000 0.000000 0.000000 0.000000 0.000000 0.000000 0.000000 0.000000 0.000000 0.000000 0.000000 0.000000 0.000000 0.000000 0.000000 0.000000 0.000000 0.000000 0.000000 0.000000 0.000000 0.000000 0.000000 0.000000 0.000000 0.844400 0.686094 0.705918 0.331955 0.000000 0.000000 0.000000 0.000000 0.000000 0.058052 0.024301 0.020544 0.002707 0.001968 0.000000 0.000000 0.268283 0.262239 0.105807 0.000000 0.000000 0.000000 0.001567 0.310131 0.803797 0.233643 0.016586 0.000917 0.000074 0.000000 0.000000 0.000000 0.000000 0.000000 0.058910 0.181944 0.056823 0.000012 0.001616 0.001817 0.045886 -9999.000000 -9999.000000 -9999.000000 -9999.000000 -9999.000000 -9999.000000 -9999.000000 -9999.000000 -9999.000000 
0.000000 0.000000 0.000000 0.000000 0.000000 0.000000 0.000000 0.000000 0.000000 0.000000 0.000000 0.000000 0.000000 0.000000 0.000000 0.000000 0.000000 0.000000 0.000000 0.000000 0.000000 0.000000 0.000000 0.000000 0.000000 0.000000 0.000000 0.000000 0.000000 0.633581 0.350426 0.632244 0.844400 0.422200 0.000000 0.000000 0.000000 0.052775 0.041842 0.002995 0.002889 0.004506 0.006229 0.004424 0.068930 0.198252 0.000416 0.000283 0.000000 0.000573 0.003429 0.000000 0.483862 0.559933 0.706206 0.000793 0.000543 0.000209 0.000574 0.000470 0.000000 0.000000 0.001254 0.017318 0.329498 0.107992 0.000914 0.000327 0.000092 0.000000 -9999.000000 -9999.000000 -9999.000000 -9999.000000 -9999.000000 -9999.000000 -9999.000000 -9999.000000 
0.000000 0.000000 0.000000 0.000000 0.000000 0.000000 0.000000 0.000000 0.000000 0.000000 0.000000 0.000000 0.000000 0.000000 0.000000 0.000000 0.000000 0.000000 0.000000 0.000000 0.000000 0.000000 0.000000 0.000000 0.000000 0.000000 0.000000 0.000000 0.000000 0.679742 0.844400 0.829623 0.844400 0.844400 0.000000 0.097106 0.225173 0.146926 0.003725 0.002855 0.000270 0.001849 0.003983 0.002684 0.181745 0.186441 0.002818 0.000263 0.000080 0.000000 0.000040 0.000520 0.423043 0.617388 0.244585 0.000226 0.000126 0.000000 0.003284 0.023298 0.001233 0.064487 0.000312 0.077813 0.413685 0.057923 0.000000 0.000000 0.000017 0.000000 0.000000 0.000000 -9999.000000 -9999.000000 -9999.000000 -9999.000000 -9999.000000 -9999.000000 
0.000000 0.000000 0.000000 0.000000 0.000000 0.000000 0.000000 0.000000 0.000000 0.000000 0.000000 0.000000 0.000000 0.000000 0.000000 0.000000 0.000000 0.000000 0.000000 0.000000 0.000000 0.000000 0.000000 0.000000 0.000000 0.000000 0.000000 0.000000 0.000000 0.844400 0.844400 0.843344 0.844400 0.844400 0.000000 0.194212 0.194212 0.267374 0.037482 0.026142 0.177362 0.212908 0.087926 0.000179 0.059363 0.154551 0.079186 0.000861 0.683774 0.227943 0.000000 0.000000 0.178642 0.433558 0.259212 0.003741 0.133760 0.034203 0.160791 0.111813 0.002362 0.179930 0.269751 0.000022 0.529256 0.095376 0.045135 0.246458 0.000057 0.000000 0.000000 0.000000 0.000000 0.000000 -9999.000000 -9999.000000 -9999.000000 -9999.000000 
0.000000 0.000000 0.000000 0.000000 0.000000 0.000000 0.000000 0.000000 0.000000 0.000000 0.000000 0.000000 0.000000 0.000000 0.000000 0.000000 0.000000 0.000000 0.000000 0.000000 0.000000 0.000000 0.000000 0.000000 0.000000 0.000000 0.000000 0.000000 0.000000 0.844400 0.844400 0.842817 0.844400 0.843345 0.000000 0.129475 0.194212 0.265506 0.113833 0.090314 0.177943 0.222375 0.099650 0.082750 0.000015 0.232464 0.271228 0.000019 0.480145 0.364012 0.000000 0.000004 0.195166 0.502139 0.792511 0.102292 0.442021 0.158324 0.508785 0.081581 0.000545 0.243681 0.531139 0.000000 0.466825 0.072964 0.152255 0.718413 0.000565 0.000717 0.000443 0.000000 0.000000 0.000000 0.000000 -9999.000000 -9999.000000 -9999.000000 
0.000000 0.000000 0.000000 0.000000 0.000000 0.000000 0.000000 0.000000 0.000000 0.000000 0.000000 0.000000 0.000000 0.000000 0.000000 0.000000 0.000000 0.000000 0.000000 0.000000 0.000000 0.000000 0.000000 0.000000 0.000000 0.000000 0.000000 0.000000 0.000000 0.281467 0.562569 0.843797 0.841233 0.632113 0.000000 0.115913 0.000000 0.123111 0.001128 0.004302 0.034260 0.063502 0.027713 0.090909 0.002914 0.272858 0.158733 0.000190 0.000029 0.000000 0.000002 0.000000 0.000083 0.000348 0.000821 0.000000 0.000200 0.000512 0.000881 0.000000 0.000130 0.000216 0.000213 0.000083 0.000000 0.111102 0.618760 0.059730 0.001818 0.002096 0.001970 0.000401 0.000000 0.000000 0.000000 -9999.000000 -9999.000000 -9999.000000 
0.000000 0.000000 0.000000 0.000000 0.000000 0.000000 0.000000 0.000000 0.000000 0.000000 0.000000 0.000000 0.000000 0.000000 0.000000 0.000000 0.000000 0.000000 0.000000 0.000000 0.000000 0.000000 0.000000 0.000000 0.000000 0.000000 0.000000 0.000000 0.000000 0.000000 0.000000 0.844400 0.842817 0.000000 0.211100 0.030705 0.153527 0.413986 0.000435 0.003496 0.140217 0.041381 0.044845 0.136719 0.398812 0.458501 0.630476 0.000331 0.000169 0.000012 0.000009 0.000081 0.000145 0.000396 0.350738 0.152867 0.000107 0.000055 0.000000 0.004335 0.001311 0.000792 0.000326 0.000000 0.000000 0.190129 0.648439 0.183992 0.156440 0.002286 0.001903 0.001453 0.000296 0.000000 0.000000 0.000000 0.000000 -9999.000000 
0.000000 0.000000 0.000000 0.000000 0.000000 0.000000 0.000000 0.000000 0.000000 0.000000 0.000000 0.000000 0.000000 0.000000 0.000000 0.000000 0.000000 0.000000 0.000000 0.000000 0.000000 0.000000 0.000000 0.000000 0.000000 0.000000 0.000000 0.000000 0.000000 0.000000 0.281467 0.675016 0.843462 0.844400 0.000000 0.000000 0.000000 0.196323 0.150372 0.186832 0.277679 0.043121 0.000061 0.000726 0.049106 0.345644 0.371654 0.000613 0.000000 0.000000 0.000005 0.000000 0.000251 0.001348 0.081214 0.067056 0.001392 0.000223 0.000431 0.000974 0.000000 0.028490 0.036217 0.000296 0.141524 0.000000 0.000000 0.001550 0.842181 0.374987 0.000817 0.000678 0.000816 0.000000 0.000000 0.000000 -9999.000000 -9999.000000 
0.000000 0.000000 0.000000 0.000000 0.000000 0.000000 0.000000 0.000000 0.000000 0.000000 0.000000 0.000000 0.000000 0.000000 0.000000 0.000000 0.000000 0.000000 0.000000 0.000000 0.000000 0.000000 0.000000 0.000000 0.000000 0.000000 0.000000 0.000000 0.000000 0.000000 0.000000 0.843931 0.844400 0.794299 0.562933 0.000000 0.000000 0.420994 0.446969 0.367438 0.107226 0.000000 0.209790 0.099079 0.143205 0.335131 0.383012 0.000000 0.000189 0.000000 0.085472 0.398868 0.000000 0.006659 0.486388 0.587173 0.059119 0.079365 0.000000 0.000095 0.000000 0.091084 0.170991 0.045876 0.538998 0.312727 0.216648 0.155886 0.264712 0.162777 0.305113 0.222077 0.007297 0.000112 0.000000 0.000000 0.034818 -9999.000000 
0.000000 0.000000 0.000000 0.000000 0.000000 0.000000 0.000000 0.000000 0.000000 0.000000 0.000000 0.000000 0.000000 0.000000 0.000000 0.000000 0.000000 0.000000 0.000000 0.000000 0.000000 0.000000 0.000000 0.000000 0.000000 0.000000 0.000000 0.000000 0.000000 0.000000 0.000000 0.844400 0.822111 0.806402 0.844400 0.000000 0.351632 0.844400 0.829201 0.030013 0.032463 0.000019 0.057886 0.275226 0.234266 0.150391 0.132810 0.000000 0.000002 0.000000 0.025762 0.190355 0.000000 0.000754 0.000285 0.503461 0.004676 0.069788 0.000000 0.000000 0.000005 0.000000 0.375478 0.080468 0.233850 0.235820 0.111935 0.345526 0.111988 0.122315 0.209608 0.393647 0.025603 0.000103 0.000000 0.000000 -9999.000000 0.054162 
0.000000 0.000000 0.000000 0.000000 0.000000 0.000000 0.000000 0.000000 0.000000 0.000000 0.000000 0.000000 0.000000 0.000000 0.000000 0.000000 0.000000 0.000000 0.000000 0.000000 0.000000 0.000000 0.000000 0.000000 0.000000 0.000000 0.000000 0.000000 0.000000 0.000000 0.000000 0.000000 0.800949 0.843344 0.842711 0.491611 0.445421 0.844400 0.844400 0.000010 0.465902 0.000000 0.000000 0.000185 0.098978 0.240559 0.196094 0.000000 0.000001 0.000000 0.000000 0.000000 0.000343 0.000252 0.352296 0.507497 0.000000 0.000000 0.000000 0.000000 0.000000 0.000001 0.065073 0.114894 0.101816 0.077226 0.000000 0.001801 0.011438 0.004322 0.122640 0.091850 0.002250 0.000083 0.000000 0.000000 -9999.000000 -9999.000000 
0.000000 0.000000 0.000000 0.000000 0.000000 0.000000 0.000000 0.000000 0.000000 0.000000 0.000000 0.000000 0.000000 0.000000 0.000000 0.000000 0.000000 0.000000 0.000000 0.000000 0.000000 0.000000 0.000000 0.000000 0.000000 0.000000 0.000000 0.000000 0.000000 0.000000 0.000000 0.000000 0.810487 0.753099 0.841761 0.420793 0.000000 0.562933 0.587826 0.821225 0.448628 0.151724 0.000236 0.000086 0.532659 0.195990 0.131050 0.000000 0.000000 0.000000 0.000000 0.000000 0.000713 0.000487 0.107611 0.327982 0.000015 0.000000 0.000110 0.000006 0.000010 0.000000 0.000000 0.000000 0.000000 0.004263 0.000000 0.000000 0.021410 0.000000 0.001006 0.001936 0.002085 0.001103 0.000000 0.000000 0.000000 0.000000 
0.000000 0.000000 0.000000 0.000000 0.000000 0.000000 0.000000 0.000000 0.000000 0.000000 0.000000 0.000000 0.000000 0.000000 0.000000 0.000000 0.000000 0.000000 0.000000 0.000000 0.000000 0.000000 0.000000 0.000000 0.000000 0.000000 0.000000 0.000000 0.000000 0.000000 0.000000 0.000000 0.794059 0.835018 0.844400 0.489048 0.000000 0.000000 0.844400 0.785292 0.147242 0.000000 0.001091 0.135869 0.341470 0.231183 0.045206 0.000000 0.000018 0.000000 0.000000 0.000529 0.001565 0.031579 0.046765 0.326420 0.000008 0.000021 0.000034 0.000000 0.000000 0.000001 0.000000 0.000000 0.000000 0.000000 0.000268 0.000000 0.000000 0.000000 0.000593 0.001568 0.001987 0.001441 0.000000 0.000000 0.000000 0.122617 
