ncols        78
nrows        66
xllcorner    -87.500000000000
yllcorner    25.000000000000
cellsize     0.083333333333
NODATA_value -9999.000000
-9999.000000 -9999.000000 -9999.000000 -9999.000000 0.000001 0.000001 -9999.000000 -9999.000000 -9999.000000 -9999.000000 -9999.000000 0.011968 0.002337 0.000186 0.000118 0.000005 -9999.000000 -9999.000000 -9999.000000 -9999.000000 -9999.000000 -9999.000000 -9999.000000 -9999.000000 -9999.000000 -9999.000000 -9999.000000 -9999.000000 -9999.000000 -9999.000000 -9999.000000 -9999.000000 -9999.000000 -9999.000000 -9999.000000 -9999.000000 -9999.000000 -9999.000000 -9999.000000 -9999.000000 -9999.000000 -9999.000000 -9999.000000 -9999.000000 -9999.000000 -9999.000000 -9999.000000 -9999.000000 -9999.000000 -9999.000000 -9999.000000 -9999.000000 -9999.000000 -9999.000000 -9999.000000 -9999.000000 -9999.000000 -9999.000000 -9999.000000 -9999.000000 -9999.000000 -9999.000000 -9999.000000 -9999.000000 -9999.000000 -9999.000000 -9999.000000 -9999.000000 -9999.000000 -9999.000000 -9999.000000 -9999.000000 0.000000 0.000000 0.000000 0.006075 0.009754 0.053887 
-9999.000000 -9999.000000 -9999.000000 0.000003 0.001841 0.000006 0.000000 0.000000 0.000000 0.000000 0.000000 0.000000 0.000182 0.000000 0.000000 -9999.000000 -9999.000000 -9999.000000 -9999.000000 -9999.000000 -9999.000000 -9999.000000 -9999.000000 -9999.000000 -9999.000000 -9999.000000 -9999.000000 -9999.000000 -9999.000000 -9999.000000 -9999.000000 -9999.000000 -9999.000000 -9999.000000 -9999.000000 -9999.000000 -9999.000000 -9999.000000 -9999.000000 -9999.000000 -9999.000000 -9999.000000 -9999.000000 -9999.000000 -9999.000000 -9999.000000 -9999.000000 -9999.000000 -9999.000000 -9999.000000 -9999.000000 -9999.000000 -9999.000000 -9999.000000 -9999.000000 -9999.000000 -9999.000000 -9999.000000 -9999.000000 -9999.000000 -9999.000000 -9999.000000 -9999.000000 -9999.000000 -9999.000000 -9999.000000 -9999.000000 -9999.000000 -9999.000000 -9999.000000 -9999.000000 -9999.000000 -9999.000000 0.000000 0.000000 0.006075 0.012409 0.021892 
0.000029 0.000077 0.000000 0.000000 0.000042 0.000000 0.000000 0.007153 0.000000 0.000000 0.003789 0.006189 0.002303 0.002904 0.007140 0.005726 0.003564 -9999.000000 -9999.000000 -9999.000000 -9999.000000 -9999.000000 -9999.000000 -9999.000000 -9999.000000 -9999.000000 -9999.000000 -9999.000000 -9999.000000 -9999.000000 -9999.000000 -9999.000000 -9999.000000 -9999.000000 -9999.000000 -9999.000000 -9999.000000 -9999.000000 -9999.000000 -9999.000000 -9999.000000 -9999.000000 -9999.000000 -9999.000000 -9999.000000 -9999.000000 -9999.000000 -9999.000000 -9999.000000 -9999.000000 -9999.000000 -9999.000000 -9999.000000 -9999.000000 -9999.000000 -9999.000000 -9999.000000 -9999.000000 -9999.000000 -9999.000000 -9999.000000 -9999.000000 -9999.000000 -9999.000000 -9999.000000 -9999.000000 -9999.000000 -9999.000000 -9999.000000 -9999.000000 -9999.000000 -9999.000000 -9999.000000 0.010206 0.002187 0.005650 0.023734 0.040966 
0.000000 0.000000 0.000000 0.003363 0.000000 0.000031 0.000118 0.000532 0.000251 0.000000 0.000000 0.014365 0.006906 0.000237 0.012541 0.000273 0.007712 0.019288 0.015391 0.008872 0.003085 0.000198 -9999.000000 -9999.000000 -9999.000000 -9999.000000 -9999.000000 -9999.000000 -9999.000000 -9999.000000 -9999.000000 -9999.000000 -9999.000000 -9999.000000 -9999.000000 -9999.000000 -9999.000000 -9999.000000 -9999.000000 -9999.000000 -9999.000000 -9999.000000 -9999.000000 -9999.000000 -9999.000000 -9999.000000 -9999.000000 -9999.000000 -9999.000000 -9999.000000 -9999.000000 -9999.000000 -9999.000000 -9999.000000 -9999.000000 -9999.000000 -9999.000000 -9999.000000 -9999.000000 -9999.000000 -9999.000000 -9999.000000 -9999.000000 -9999.000000 -9999.000000 -9999.000000 -9999.000000 -9999.000000 -9999.000000 -9999.000000 -9999.000000 -9999.000000 -9999.000000 0.073483 0.018164 0.012454 0.000000 0.012022 
0.000000 0.000000 0.000000 0.000000 0.000000 0.000413 0.014243 0.042725 0.060118 0.006293 0.000051 0.000000 0.000000 0.000006 0.000117 0.006401 0.000610 0.007805 0.012532 0.000319 0.000000 0.000000 0.000000 0.000000 -9999.000000 -9999.000000 -9999.000000 -9999.000000 -9999.000000 -9999.000000 -9999.000000 -9999.000000 -9999.000000 -9999.000000 -9999.000000 -9999.000000 -9999.000000 -9999.000000 -9999.000000 -9999.000000 -9999.000000 0.000000 -9999.000000 -9999.000000 -9999.000000 -9999.000000 -9999.000000 -9999.000000 -9999.000000 -9999.000000 -9999.000000 -9999.000000 -9999.000000 -9999.000000 -9999.000000 -9999.000000 -9999.000000 -9999.000000 -9999.000000 -9999.000000 -9999.000000 -9999.000000 -9999.000000 -9999.000000 -9999.000000 -9999.000000 -9999.000000 -9999.000000 -9999.000000 -9999.000000 -9999.000000 -9999.000000 -9999.000000 -9999.000000 0.000000 0.002855 0.015673 0.000000 
0.000000 0.000000 0.000000 0.000000 0.000000 0.010806 0.146240 0.017995 0.003026 0.089552 0.006320 0.002701 0.000000 0.000000 0.000001 0.000529 0.000589 0.001853 0.001760 0.002905 0.000652 0.000000 0.000000 0.000000 -9999.000000 -9999.000000 -9999.000000 -9999.000000 -9999.000000 -9999.000000 -9999.000000 -9999.000000 -9999.000000 -9999.000000 -9999.000000 -9999.000000 -9999.000000 -9999.000000 0.000000 0.001823 0.000000 0.000000 0.000000 0.000000 -9999.000000 -9999.000000 -9999.000000 -9999.000000 -9999.000000 -9999.000000 -9999.000000 -9999.000000 -9999.000000 -9999.000000 -9999.000000 -9999.000000 -9999.000000 -9999.000000 -9999.000000 -9999.000000 -9999.000000 -9999.000000 -9999.000000 -9999.000000 -9999.000000 -9999.000000 -9999.000000 -9999.000000 -9999.000000 -9999.000000 -9999.000000 -9999.000000 -9999.000000 -9999.000000 0.000000 0.012029 0.008616 0.038767 
0.004394 0.000000 0.000000 0.000557 0.030127 0.091605 0.057795 0.005956 0.000000 0.000000 0.150839 0.418059 0.146575 0.003561 0.000019 0.000058 0.000005 0.000280 0.000000 0.000447 0.000000 0.000000 0.000000 0.000000 -9999.000000 -9999.000000 -9999.000000 -9999.000000 -9999.000000 -9999.000000 -9999.000000 -9999.000000 -9999.000000 -9999.000000 -9999.000000 -9999.000000 -9999.000000 -9999.000000 0.000000 0.001697 0.001928 0.001033 0.000019 0.000000 0.000000 -9999.000000 -9999.000000 -9999.000000 -9999.000000 -9999.000000 -9999.000000 -9999.000000 -9999.000000 -9999.000000 -9999.000000 -9999.000000 -9999.000000 -9999.000000 -9999.000000 -9999.000000 -9999.000000 -9999.000000 -9999.000000 -9999.000000 -9999.000000 -9999.000000 -9999.000000 -9999.000000 -9999.000000 -9999.000000 -9999.000000 -9999.000000 -9999.000000 -9999.000000 0.000000 0.003443 0.007473 0.008302 
0.001928 0.000000 0.059668 0.273997 0.038060 0.000766 0.000163 0.000000 0.000000 0.000000 0.000000 0.103797 0.124457 0.000000 0.000000 0.000000 0.000000 0.000114 0.000000 0.000118 0.000000 0.000000 0.000000 0.000000 0.000000 0.000000 -9999.000000 -9999.000000 -9999.000000 -9999.000000 -9999.000000 -9999.000000 -9999.000000 -9999.000000 -9999.000000 -9999.000000 0.001523 0.001576 0.004769 0.006836 0.003304 0.001304 0.000441 0.000051 0.000018 0.000000 -9999.000000 -9999.000000 -9999.000000 -9999.000000 -9999.000000 -9999.000000 -9999.000000 -9999.000000 -9999.000000 -9999.000000 -9999.000000 -9999.000000 -9999.000000 -9999.000000 -9999.000000 -9999.000000 -9999.000000 -9999.000000 -9999.000000 -9999.000000 -9999.000000 -9999.000000 -9999.000000 -9999.000000 -9999.000000 -9999.000000 -9999.000000 -9999.000000 0.000000 0.000469 0.019210 0.001909 
0.000000 0.011230 0.045887 0.037926 0.033354 0.000000 0.000000 0.000000 0.000000 0.000000 0.000000 0.000000 0.000000 0.000000 0.000000 0.000000 0.000053 0.000000 0.000248 0.000000 0.000000 0.000000 0.000000 0.000000 0.000000 0.000026 -9999.000000 -9999.000000 -9999.000000 -9999.000000 -9999.000000 -9999.000000 0.000000 0.000166 0.002785 0.001887 0.006852 0.006500 0.002426 0.014086 0.001401 0.000159 0.000000 0.000000 0.000185 0.000142 0.000005 -9999.000000 -9999.000000 -9999.000000 -9999.000000 -9999.000000 -9999.000000 -9999.000000 -9999.000000 -9999.000000 -9999.000000 -9999.000000 -9999.000000 -9999.000000 -9999.000000 -9999.000000 -9999.000000 -9999.000000 -9999.000000 -9999.000000 -9999.000000 -9999.000000 -9999.000000 -9999.000000 -9999.000000 -9999.000000 -9999.000000 -9999.000000 -9999.000000 0.001210 0.008921 0.001008 
0.041790 0.296539 0.031377 0.010730 0.013436 0.000000 0.000000 0.000000 0.000000 0.000000 0.000000 0.000000 0.000000 0.000000 0.000000 0.000000 0.000109 0.000000 0.000000 0.000000 0.000000 0.000000 0.000000 0.000000 0.000378 0.000216 0.000012 -9999.000000 -9999.000000 -9999.000000 0.000000 0.000000 0.000066 0.000235 0.001147 0.009967 0.000000 0.021757 0.002278 0.002342 0.005854 0.014798 0.000000 0.000971 0.000305 0.000207 0.000039 0.000000 -9999.000000 -9999.000000 -9999.000000 -9999.000000 -9999.000000 -9999.000000 -9999.000000 -9999.000000 -9999.000000 -9999.000000 -9999.000000 -9999.000000 -9999.000000 -9999.000000 -9999.000000 -9999.000000 -9999.000000 -9999.000000 -9999.000000 -9999.000000 -9999.000000 -9999.000000 -9999.000000 -9999.000000 -9999.000000 -9999.000000 -9999.000000 0.000000 0.001056 0.000000 
0.497896 0.565728 0.031414 0.000000 0.002146 0.000000 0.000000 0.000000 0.000000 0.000000 0.000000 0.000000 0.000000 0.000054 0.000000 0.002312 0.000000 0.011426 0.000000 0.000795 0.000000 0.000000 0.000000 0.000000 0.000000 0.000045 0.000013 0.000000 0.000000 0.000000 0.000000 0.000000 0.000000 0.001693 0.012841 0.011696 0.000461 0.000417 0.020349 0.003673 0.009067 0.008282 0.000000 0.000250 0.000171 0.000000 0.000011 0.000000 0.000000 -9999.000000 -9999.000000 -9999.000000 -9999.000000 -9999.000000 -9999.000000 -9999.000000 -9999.000000 -9999.000000 -9999.000000 -9999.000000 -9999.000000 -9999.000000 -9999.000000 -9999.000000 -9999.000000 -9999.000000 -9999.000000 -9999.000000 -9999.000000 -9999.000000 -9999.000000 -9999.000000 -9999.000000 -9999.000000 -9999.000000 -9999.000000 0.002358 0.003324 
0.362747 0.057795 0.035484 0.029780 0.006979 0.000000 0.000000 0.005142 0.000000 0.000000 0.000000 0.000000 0.000000 0.000000 0.000140 0.007518 0.054630 0.217514 0.290879 0.000000 0.000000 0.000000 0.000000 0.000000 0.000005 0.000000 0.000000 0.000000 0.000000 0.000000 0.000000 0.000000 0.000689 0.000122 0.000580 0.001654 0.000000 0.000713 0.000237 0.020947 0.012499 0.001663 0.000539 0.000123 0.000000 0.000000 0.000000 0.000638 0.000000 -9999.000000 -9999.000000 -9999.000000 -9999.000000 -9999.000000 -9999.000000 -9999.000000 -9999.000000 -9999.000000 -9999.000000 -9999.000000 -9999.000000 -9999.000000 -9999.000000 -9999.000000 -9999.000000 -9999.000000 -9999.000000 -9999.000000 -9999.000000 -9999.000000 -9999.000000 -9999.000000 -9999.000000 -9999.000000 -9999.000000 -9999.000000 0.001156 0.000409 
0.090029 0.042185 0.042248 0.040061 0.046566 0.027914 0.035994 0.000000 0.000000 0.000000 0.000000 0.000000 0.000000 0.000000 0.000053 0.010859 0.227568 0.144343 0.000000 0.013375 0.000000 0.000000 0.000000 0.000095 0.000000 0.000000 0.000000 0.000000 0.000000 0.000042 0.000000 0.002268 0.000258 0.000009 0.000000 0.000000 0.000064 0.002487 0.000000 0.000012 0.002336 0.000460 0.001201 0.000000 0.000328 0.013987 0.000000 0.003703 0.003709 0.000430 0.000000 -9999.000000 -9999.000000 -9999.000000 -9999.000000 -9999.000000 -9999.000000 -9999.000000 -9999.000000 -9999.000000 -9999.000000 -9999.000000 -9999.000000 -9999.000000 -9999.000000 -9999.000000 -9999.000000 -9999.000000 -9999.000000 -9999.000000 -9999.000000 -9999.000000 -9999.000000 -9999.000000 -9999.000000 -9999.000000 0.000533 0.000000 
0.033394 0.042450 0.042450 0.021174 0.027940 0.111785 0.089428 0.000000 0.000000 0.000000 0.000000 0.000000 0.000000 0.000000 0.000000 0.000000 0.056027 0.188953 0.000270 0.000743 0.012720 0.000000 0.001924 0.000000 0.000000 0.000003 0.000000 0.000000 0.000000 0.000000 0.000000 0.000000 0.000000 0.000023 0.000468 0.002364 0.000010 0.000263 0.000000 0.000000 0.000000 0.000811 0.005748 0.006798 0.007083 0.027847 0.000075 0.011991 0.006509 0.001915 0.000000 0.000000 -9999.000000 -9999.000000 -9999.000000 -9999.000000 -9999.000000 -9999.000000 -9999.000000 -9999.000000 -9999.000000 -9999.000000 -9999.000000 -9999.000000 -9999.000000 -9999.000000 -9999.000000 -9999.000000 -9999.000000 -9999.000000 -9999.000000 -9999.000000 -9999.000000 -9999.000000 -9999.000000 -9999.000000 -9999.000000 0.000000 
0.037922 0.039431 0.021225 0.000000 0.000000 0.000000 0.000000 0.000000 0.000000 0.000000 0.000000 0.000000 0.000000 0.000000 0.000000 0.000000 0.000253 0.000000 0.000000 0.011240 0.050133 0.000000 0.004744 0.003940 0.062164 0.000000 0.000000 0.000000 0.000000 0.000000 0.000000 0.000000 0.000000 0.000000 0.000103 0.000845 0.000000 0.000000 0.000000 0.000000 0.000000 0.000011 0.000603 0.000000 0.015769 0.000000 0.003556 0.000813 0.000000 0.002439 0.004633 0.000000 -9999.000000 -9999.000000 -9999.000000 -9999.000000 -9999.000000 -9999.000000 -9999.000000 -9999.000000 -9999.000000 -9999.000000 -9999.000000 -9999.000000 -9999.000000 -9999.000000 -9999.000000 -9999.000000 -9999.000000 -9999.000000 0.000000 0.000000 -9999.000000 -9999.000000 -9999.000000 -9999.000000 -9999.000000 0.000000 
0.000000 0.000000 0.000000 0.000000 0.000000 0.000000 0.000000 0.000000 0.000000 0.000000 0.000000 0.000000 0.000000 0.000000 0.000000 0.000000 0.000000 0.000000 0.000000 0.000000 0.000000 0.015778 0.000645 0.005668 0.000000 0.000000 0.000000 0.000000 0.000000 0.000000 0.000000 0.000000 0.000000 0.000000 0.000000 0.000000 0.000000 0.000000 0.000000 0.000000 0.000115 0.000097 0.000047 0.000121 0.000000 0.004478 0.005003 0.014713 0.020628 0.037160 0.047175 0.017103 0.000000 -9999.000000 -9999.000000 -9999.000000 -9999.000000 -9999.000000 -9999.000000 -9999.000000 -9999.000000 -9999.000000 -9999.000000 -9999.000000 -9999.000000 -9999.000000 -9999.000000 -9999.000000 -9999.000000 -9999.000000 -9999.000000 0.000000 -9999.000000 -9999.000000 -9999.000000 -9999.000000 -9999.000000 -9999.000000 
0.000000 0.000000 0.000000 0.000000 0.000000 0.000000 0.000000 0.000000 0.000000 0.000000 0.000000 0.000000 0.000000 0.000000 0.000000 0.000000 0.000000 0.000000 0.000000 0.000000 0.007375 0.000119 0.000033 0.000000 0.000000 0.000000 0.000000 0.000024 0.000000 0.000000 0.000349 0.000000 0.000000 0.000000 0.000000 0.000000 0.000494 0.000000 0.000006 0.000000 0.000000 0.000000 0.000000 0.000000 0.000107 0.000353 0.000000 0.054330 0.030461 0.044453 0.091583 0.112561 0.024090 0.000000 0.000000 0.000000 -9999.000000 -9999.000000 -9999.000000 -9999.000000 -9999.000000 -9999.000000 -9999.000000 -9999.000000 -9999.000000 -9999.000000 -9999.000000 -9999.000000 -9999.000000 -9999.000000 -9999.000000 -9999.000000 0.000000 -9999.000000 -9999.000000 -9999.000000 -9999.000000 -9999.000000 
0.000000 0.000000 0.000000 0.000000 0.000000 0.000000 0.000000 0.000000 0.000000 0.000000 0.000000 0.000000 0.000000 0.000000 0.000000 0.000000 0.000000 0.000000 0.000000 0.000000 0.001904 0.001708 0.000018 0.000000 0.023175 0.069062 0.062294 0.000000 0.000000 0.000000 0.000000 0.000000 0.000000 0.000021 0.000000 0.000097 0.001426 0.004255 0.000000 0.000259 0.000000 0.000000 0.000000 0.000127 0.000107 0.000404 0.000576 0.040587 0.043141 0.043973 0.202660 0.158728 0.083805 0.025783 0.000000 0.000000 0.000000 -9999.000000 -9999.000000 -9999.000000 -9999.000000 -9999.000000 -9999.000000 -9999.000000 -9999.000000 -9999.000000 -9999.000000 -9999.000000 -9999.000000 -9999.000000 -9999.000000 -9999.000000 -9999.000000 -9999.000000 -9999.000000 -9999.000000 -9999.000000 -9999.000000 
0.000000 0.000000 0.000000 0.000000 0.000000 0.000000 0.000000 0.000000 0.000000 0.000000 0.000000 0.000000 0.000000 0.000000 0.000000 0.000000 0.000000 0.000000 0.000000 0.000000 0.000171 0.000613 0.000004 0.000000 0.000013 0.031032 0.157144 0.000354 0.000136 0.000000 0.000000 0.000000 0.000000 0.000000 0.000135 0.000637 0.000000 0.000000 0.000000 0.000000 0.000000 0.000000 0.000768 0.000126 0.000000 0.000000 0.000011 0.003051 0.005203 0.000841 0.074264 0.054352 0.032159 0.026093 0.000116 0.000000 0.000000 -9999.000000 -9999.000000 -9999.000000 -9999.000000 -9999.000000 -9999.000000 -9999.000000 -9999.000000 -9999.000000 -9999.000000 -9999.000000 -9999.000000 -9999.000000 -9999.000000 -9999.000000 -9999.000000 -9999.000000 -9999.000000 -9999.000000 -9999.000000 -9999.000000 
0.000000 0.011296 0.000000 0.000000 0.000000 0.000000 0.000000 0.000000 0.000000 0.000000 0.000000 0.000000 0.000000 0.000000 0.000000 0.000000 0.000000 0.000000 0.000000 0.000000 0.000000 0.000000 0.000001 0.000001 0.000000 0.000000 0.004417 0.013167 0.054136 0.000000 0.000000 0.000000 0.000000 0.000125 0.000000 0.000000 0.000000 0.000000 0.000000 0.001740 0.000000 0.000516 0.027849 0.002787 0.000000 0.000728 0.002094 0.007891 0.002593 0.000000 0.004657 0.000916 0.003579 0.006013 0.000867 0.000000 0.000000 0.000000 -9999.000000 -9999.000000 -9999.000000 -9999.000000 -9999.000000 -9999.000000 -9999.000000 -9999.000000 -9999.000000 -9999.000000 -9999.000000 -9999.000000 -9999.000000 -9999.000000 -9999.000000 -9999.000000 -9999.000000 -9999.000000 -9999.000000 -9999.000000 
0.045186 0.000000 0.000000 0.000000 0.000000 0.000000 0.000000 0.000000 0.000000 0.000000 0.000000 0.000000 0.000000 0.000000 0.000000 0.000000 0.000000 0.000000 0.000000 0.000000 0.000000 0.000000 0.000000 0.000000 0.000000 0.000000 0.000000 0.000000 0.001781 0.000000 0.000000 0.000074 0.000000 0.000000 0.000000 0.000000 0.000000 0.000000 0.000000 0.000000 0.000000 0.000766 0.000043 0.000198 0.000744 0.001768 0.001223 0.000000 0.008838 0.010210 0.000000 0.005753 0.000000 0.001292 0.001230 0.000482 0.000000 0.000000 -9999.000000 -9999.000000 -9999.000000 -9999.000000 -9999.000000 -9999.000000 -9999.000000 -9999.000000 -9999.000000 -9999.000000 -9999.000000 -9999.000000 -9999.000000 -9999.000000 -9999.000000 -9999.000000 -9999.000000 -9999.000000 -9999.000000 0.000000 
0.141500 0.082046 0.000000 0.000000 0.000000 0.000000 0.000000 0.000000 0.000000 0.000000 0.000000 0.000000 0.000000 0.000000 0.000000 0.000000 0.000000 0.000000 0.000000 0.000000 0.000000 0.000000 0.000000 0.000000 0.000000 0.000000 0.000052 0.000000 0.000000 0.000006 0.000000 0.000000 0.000000 0.000000 0.000000 0.000000 0.021336 0.128189 0.040746 0.009987 0.010001 0.000000 0.000022 0.000254 0.000288 0.000000 0.000000 0.008645 0.037263 0.018877 0.125625 0.035133 0.003829 0.003439 0.003712 0.000653 0.000000 0.000000 -9999.000000 -9999.000000 -9999.000000 -9999.000000 -9999.000000 -9999.000000 -9999.000000 -9999.000000 -9999.000000 -9999.000000 -9999.000000 -9999.000000 -9999.000000 -9999.000000 -9999.000000 -9999.000000 -9999.000000 -9999.000000 -9999.000000 -9999.000000 
0.141500 0.084900 0.000000 0.000000 0.000000 0.000000 0.000000 0.000000 0.000000 0.000000 0.000000 0.000000 0.000000 0.000000 0.000000 0.000000 0.000000 0.000000 0.000000 0.000000 0.000000 0.000000 0.000000 0.000000 0.000000 0.000000 0.000000 0.000000 0.000000 0.000000 0.000000 0.000000 0.001005 0.000718 0.000000 0.000000 0.086668 0.271958 0.193617 0.040018 0.000305 0.000000 0.000000 0.000000 0.000000 0.000355 0.000025 0.000000 0.009654 0.029882 0.133634 0.010014 0.000000 0.001368 0.001113 0.000500 0.000000 0.000000 -9999.000000 -9999.000000 -9999.000000 -9999.000000 -9999.000000 -9999.000000 -9999.000000 -9999.000000 -9999.000000 -9999.000000 -9999.000000 -9999.000000 -9999.000000 -9999.000000 -9999.000000 -9999.000000 -9999.000000 -9999.000000 -9999.000000 -9999.000000 
0.141500 0.000000 0.000000 0.000000 0.000000 0.000000 0.000000 0.000000 0.000000 0.000000 0.000000 0.000000 0.000000 0.000000 0.000000 0.000000 0.000000 0.000000 0.000000 0.000000 0.000000 0.000000 0.000000 0.000000 0.000000 0.000000 0.000000 0.000000 0.000000 0.000000 0.000000 0.002051 0.000362 0.005024 0.000000 0.000000 0.012903 0.518047 0.145170 0.002939 0.000000 0.000000 0.000000 0.000000 0.000245 0.000000 0.000000 0.003081 0.000000 0.000042 0.015900 0.000000 0.000000 0.000207 0.001081 0.000255 0.000000 0.000000 -9999.000000 -9999.000000 -9999.000000 -9999.000000 -9999.000000 -9999.000000 -9999.000000 -9999.000000 -9999.000000 -9999.000000 -9999.000000 -9999.000000 -9999.000000 -9999.000000 -9999.000000 -9999.000000 -9999.000000 -9999.000000 -9999.000000 -9999.000000 
0.141500 0.069600 0.000000 0.000000 0.000000 0.000000 0.000000 0.000000 0.000000 0.000000 0.000000 0.000000 0.000000 0.000000 0.000000 0.000000 0.000000 0.000000 0.000000 0.000000 0.000000 0.000000 0.000000 0.000000 0.000000 0.000000 0.000000 0.000000 0.000000 0.000000 0.000000 0.003254 0.012115 0.029645 0.000729 0.000000 0.036426 0.243173 0.276779 0.180089 0.000000 0.000000 0.000000 0.000000 0.000000 0.000000 0.000000 0.000000 0.000226 0.000000 0.000334 0.000000 0.000150 0.000992 0.002343 0.001407 0.000000 0.000000 -9999.000000 -9999.000000 -9999.000000 -9999.000000 -9999.000000 -9999.000000 -9999.000000 -9999.000000 -9999.000000 -9999.000000 -9999.000000 -9999.000000 -9999.000000 -9999.000000 -9999.000000 -9999.000000 -9999.000000 -9999.000000 -9999.000000 -9999.000000 
0.141500 0.141311 0.141298 0.000000 0.000000 0.000000 0.000000 0.047167 0.000000 0.000000 0.000000 0.000000 0.000000 0.000000 0.000000 0.000000 0.000000 0.000000 0.000000 0.000000 0.000000 0.000000 0.000000 0.000000 0.000000 0.000000 0.000000 0.000000 0.000000 0.000000 0.000000 0.001132 0.012501 0.007647 0.000176 0.000000 0.000000 0.040120 0.141653 0.171038 0.293983 0.000000 0.000000 0.000000 0.000015 0.000000 0.000594 0.000090 0.000000 0.000177 0.001443 0.001175 0.000000 0.004344 0.007476 0.002486 0.000000 -9999.000000 -9999.000000 -9999.000000 -9999.000000 -9999.000000 -9999.000000 -9999.000000 -9999.000000 -9999.000000 -9999.000000 -9999.000000 -9999.000000 -9999.000000 -9999.000000 -9999.000000 -9999.000000 -9999.000000 -9999.000000 -9999.000000 -9999.000000 -9999.000000 
0.141437 0.141500 0.141500 0.141500 0.080857 0.141500 0.141500 0.106125 0.141500 0.047167 0.000000 0.000000 0.000000 0.000000 0.000000 0.000000 0.000000 0.000000 0.000000 0.000000 0.000000 0.000000 0.000000 0.000000 0.000000 0.000000 0.000000 0.000000 0.000000 0.000000 0.000000 0.000000 0.018126 0.002532 0.000569 0.000000 0.000000 0.006182 0.130859 0.211376 0.384435 0.054314 0.000000 0.000000 0.000000 0.000000 0.000000 0.000000 0.000125 0.000000 0.000521 0.000000 0.005980 0.013843 0.012001 0.003011 0.000000 -9999.000000 -9999.000000 -9999.000000 -9999.000000 -9999.000000 -9999.000000 -9999.000000 -9999.000000 -9999.000000 -9999.000000 -9999.000000 -9999.000000 -9999.000000 -9999.000000 -9999.000000 -9999.000000 -9999.000000 -9999.000000 -9999.000000 -9999.000000 -9999.000000 
0.141500 0.141500 0.141500 0.141500 0.141500 0.141500 0.141500 0.141500 0.141500 0.094333 0.000000 0.000000 0.000000 0.000000 0.000000 0.000000 0.000000 0.000000 0.000000 0.000000 0.000000 0.000000 0.000000 0.000000 0.000000 0.000000 0.000000 0.000000 0.000000 0.000000 0.000000 0.001204 0.000000 0.000000 0.000000 0.000000 0.000000 0.000000 0.028108 0.132219 0.284620 0.349353 0.250006 0.000000 0.000000 0.001467 0.001667 0.000000 0.000306 0.000149 0.004969 0.023426 0.000445 0.003106 0.008545 0.001717 0.000000 -9999.000000 -9999.000000 -9999.000000 -9999.000000 -9999.000000 -9999.000000 -9999.000000 -9999.000000 -9999.000000 -9999.000000 -9999.000000 -9999.000000 -9999.000000 -9999.000000 -9999.000000 -9999.000000 -9999.000000 -9999.000000 -9999.000000 -9999.000000 -9999.000000 
0.000000 0.070750 0.141500 0.094333 0.070750 0.070750 0.094333 0.141500 0.141500 0.141500 0.047167 0.000000 0.070750 0.141500 0.000000 0.000000 0.000000 0.000000 0.000000 0.000000 0.000000 0.000000 0.000000 0.000000 0.000000 0.000000 0.000000 0.000000 0.000000 0.000000 0.000000 0.000000 0.000000 0.000000 0.000000 0.000000 0.000000 0.008128 0.098532 0.182700 0.034827 0.127205 0.077119 0.025375 0.000532 0.001134 0.000000 0.000000 0.000000 0.000000 0.019704 0.037664 0.211812 0.078425 0.019059 0.001586 -9999.000000 -9999.000000 -9999.000000 -9999.000000 -9999.000000 -9999.000000 -9999.000000 -9999.000000 -9999.000000 -9999.000000 -9999.000000 -9999.000000 -9999.000000 -9999.000000 -9999.000000 -9999.000000 -9999.000000 -9999.000000 -9999.000000 -9999.000000 -9999.000000 -9999.000000 
0.000000 0.000000 0.000000 0.000000 0.000000 0.000000 0.000000 0.141500 0.141500 0.141500 0.094333 0.141500 0.141500 0.141500 0.141243 0.070686 0.000000 0.000000 0.000000 0.000000 0.000000 0.000000 0.000000 0.000000 0.000000 0.000000 0.000000 0.000000 0.000000 0.000000 0.000000 0.000000 0.000000 0.000000 0.000000 0.000000 0.000000 0.000000 0.060931 0.054382 0.000000 0.032406 0.000000 0.000000 0.000000 0.000164 0.000000 0.000000 0.000000 0.000000 0.002113 0.000000 0.000408 0.019574 0.010602 0.006070 -9999.000000 -9999.000000 -9999.000000 -9999.000000 -9999.000000 -9999.000000 -9999.000000 -9999.000000 -9999.000000 -9999.000000 -9999.000000 -9999.000000 -9999.000000 -9999.000000 -9999.000000 -9999.000000 -9999.000000 -9999.000000 -9999.000000 -9999.000000 -9999.000000 -9999.000000 
0.000000 0.000000 0.000000 0.000000 0.000000 0.000000 0.000000 0.000000 0.000000 0.000000 0.141500 0.141500 0.141500 0.070750 0.094090 0.141243 0.141500 0.000000 0.046044 0.108071 0.000000 0.000000 0.000000 0.000000 0.000000 0.000000 0.000000 0.000000 0.000000 0.000000 0.000000 0.000000 0.000000 0.000000 0.000000 0.000000 0.000000 0.000000 0.000000 0.000084 0.000000 0.000000 0.000000 0.000000 0.000000 0.000000 0.000000 0.000000 0.000000 0.000000 0.000000 0.000000 0.026547 0.053778 0.033277 0.012119 -9999.000000 -9999.000000 0.000000 0.000000 -9999.000000 -9999.000000 -9999.000000 -9999.000000 -9999.000000 -9999.000000 -9999.000000 -9999.000000 -9999.000000 -9999.000000 -9999.000000 -9999.000000 -9999.000000 -9999.000000 -9999.000000 -9999.000000 -9999.000000 -9999.000000 
0.000000 0.000000 0.000000 0.000000 0.000000 0.000000 0.000000 0.000000 0.000000 0.000000 0.141500 0.070750 0.000000 0.000000 0.070568 0.141028 0.076764 0.076107 0.108071 0.133113 0.141461 0.141441 0.141500 0.000000 0.000000 0.000000 0.000000 0.000000 0.000000 0.000000 0.000000 0.000000 0.000000 0.000000 0.000165 0.000000 0.000000 0.000292 0.000000 0.001846 0.003136 0.000000 0.000000 0.000000 0.000000 0.000000 0.000000 0.000000 0.000000 0.000000 0.000000 0.012064 0.068356 0.081840 0.012659 0.009972 -9999.000000 -9999.000000 0.000000 0.007401 0.000000 -9999.000000 -9999.000000 -9999.000000 -9999.000000 -9999.000000 -9999.000000 -9999.000000 -9999.000000 -9999.000000 -9999.000000 -9999.000000 -9999.000000 -9999.000000 -9999.000000 -9999.000000 -9999.000000 -9999.000000 
0.000000 0.000000 0.000000 0.000000 0.000000 0.000000 0.000000 0.000000 0.000000 0.000000 0.000000 0.000000 0.000000 0.000000 0.047009 0.072597 0.000000 0.129574 0.141500 0.141500 0.141382 0.141500 0.092061 0.000000 0.000000 0.000000 0.000000 0.000000 0.000000 0.000000 0.000000 0.000000 0.000000 0.000549 0.003419 0.001861 0.000061 0.000000 0.000000 0.008929 0.005985 0.001780 0.000000 0.000000 0.000000 0.000000 0.000000 0.000000 0.000000 0.000024 0.003362 0.007212 0.151152 0.085153 0.038377 0.001742 0.001528 -9999.000000 -9999.000000 0.000548 0.000000 -9999.000000 -9999.000000 -9999.000000 -9999.000000 -9999.000000 -9999.000000 -9999.000000 -9999.000000 -9999.000000 -9999.000000 -9999.000000 -9999.000000 -9999.000000 -9999.000000 -9999.000000 -9999.000000 -9999.000000 
0.000000 0.000000 0.000000 0.000000 0.000000 0.000000 0.000000 0.000000 0.000000 0.000000 0.000000 0.000000 0.000000 0.000000 0.000000 0.000000 0.064787 0.090358 0.103277 0.103810 0.090825 0.134682 0.000000 0.037726 0.023583 0.000000 0.000000 0.000000 0.000000 0.000000 0.000000 0.000000 0.000000 0.000671 0.009741 0.019105 0.001030 0.000000 0.000000 0.027125 0.002747 0.000007 0.000000 0.000000 0.000000 0.000113 0.000000 0.000000 0.000062 0.000000 0.000000 0.009435 0.000698 0.019330 0.018946 0.005027 0.005946 0.022772 0.002164 0.000000 -9999.000000 -9999.000000 -9999.000000 -9999.000000 -9999.000000 -9999.000000 -9999.000000 -9999.000000 -9999.000000 -9999.000000 -9999.000000 -9999.000000 -9999.000000 -9999.000000 -9999.000000 -9999.000000 -9999.000000 -9999.000000 
0.000000 0.000000 0.000000 0.000000 0.000000 0.000000 0.000000 0.000000 0.000000 0.000000 0.000000 0.000000 0.000000 0.000000 0.000000 0.000000 0.000000 0.000000 0.051905 0.000000 0.014150 0.125345 0.103737 0.047167 0.000000 0.000000 0.000000 0.000000 0.000000 0.000000 0.000000 0.000000 0.000000 0.000197 0.000000 0.009955 0.000108 0.000000 0.000000 0.000709 0.000000 0.000000 0.000000 0.000000 0.000000 0.000000 0.000000 0.000000 0.002143 0.000000 0.000000 0.002720 0.005520 0.008880 0.005701 0.013811 0.009685 0.004532 0.000000 0.000000 -9999.000000 -9999.000000 -9999.000000 -9999.000000 -9999.000000 -9999.000000 -9999.000000 -9999.000000 -9999.000000 -9999.000000 -9999.000000 -9999.000000 -9999.000000 -9999.000000 -9999.000000 -9999.000000 -9999.000000 -9999.000000 
0.000000 0.000000 0.000000 0.000000 0.000000 0.000000 0.000000 0.000000 0.000000 0.000000 0.000000 0.000000 0.000000 0.000000 0.000000 0.000000 0.000000 0.000000 0.000000 0.007075 0.070249 0.141500 0.141500 0.084523 0.000000 0.038031 0.003571 0.000000 0.000000 0.000000 0.000000 0.141500 0.070750 0.000000 0.000176 0.000000 0.024143 0.002503 0.000943 0.004353 0.000000 0.000000 0.000000 0.000000 0.000000 0.000000 0.000000 0.000000 0.000247 0.000012 0.000000 0.000000 0.001942 0.007014 0.009154 0.024503 0.000000 0.001907 0.000094 -9999.000000 -9999.000000 -9999.000000 -9999.000000 -9999.000000 -9999.000000 -9999.000000 -9999.000000 -9999.000000 -9999.000000 -9999.000000 -9999.000000 -9999.000000 -9999.000000 -9999.000000 -9999.000000 -9999.000000 -9999.000000 -9999.000000 
0.000000 0.000000 0.000000 0.000000 0.000000 0.000000 0.000000 0.000000 0.000000 0.000000 0.000000 0.000000 0.000000 0.000000 0.000000 0.000000 0.000000 0.000000 0.000000 0.000000 0.141500 0.141500 0.141500 0.141382 0.141412 0.010714 0.020646 0.000000 0.000000 0.000000 0.141500 0.141471 0.141500 0.070728 0.000000 0.000164 0.056075 0.017023 0.000000 0.004906 0.003199 0.023962 0.007034 0.000000 0.000000 0.000000 0.000000 0.000000 0.000000 0.000204 0.000246 0.001764 0.006228 0.002527 0.039274 0.012888 0.005374 0.002136 -9999.000000 -9999.000000 -9999.000000 -9999.000000 -9999.000000 -9999.000000 -9999.000000 -9999.000000 -9999.000000 -9999.000000 -9999.000000 -9999.000000 -9999.000000 -9999.000000 -9999.000000 -9999.000000 -9999.000000 -9999.000000 -9999.000000 -9999.000000 
0.000000 0.000000 0.000000 0.000000 0.000000 0.000000 0.000000 0.000000 0.000000 0.000000 0.000000 0.000000 0.000000 0.000000 0.000000 0.000000 0.000000 0.000000 0.000000 0.000000 0.000000 0.077825 0.103271 0.141500 0.141500 0.051223 0.067812 0.000000 0.000000 0.000000 0.141500 0.141500 0.141412 0.141398 0.000000 0.000267 0.022315 0.008087 0.000000 0.011225 0.016501 0.017829 0.005588 0.000000 0.000040 0.000000 0.000000 0.000000 0.000000 0.000000 0.000000 0.000000 0.001645 0.006633 0.010039 0.000914 0.001718 0.046323 0.018599 -9999.000000 -9999.000000 -9999.000000 -9999.000000 -9999.000000 -9999.000000 -9999.000000 -9999.000000 -9999.000000 -9999.000000 -9999.000000 -9999.000000 -9999.000000 -9999.000000 -9999.000000 -9999.000000 -9999.000000 -9999.000000 -9999.000000 
0.000000 0.000000 0.000000 0.000000 0.000000 0.000000 0.000000 0.000000 0.000000 0.000000 0.000000 0.000000 0.000000 0.000000 0.000000 0.000000 0.000000 0.000000 0.000000 0.000000 0.000000 0.014150 0.014150 0.077825 0.141500 0.141500 0.118931 0.141500 0.000000 0.000000 0.141500 0.141500 0.141282 0.141347 0.000000 0.000000 0.000000 0.001461 0.000000 0.005829 0.013100 0.014009 0.031430 0.026042 0.001827 0.000000 0.000657 0.000000 0.000000 0.000353 0.000236 0.000017 0.000178 0.000088 0.000000 0.001931 0.004688 0.019636 0.012853 0.004958 -9999.000000 -9999.000000 -9999.000000 -9999.000000 -9999.000000 -9999.000000 -9999.000000 -9999.000000 -9999.000000 -9999.000000 -9999.000000 -9999.000000 -9999.000000 -9999.000000 -9999.000000 -9999.000000 -9999.000000 -9999.000000 
0.000000 0.000000 0.000000 0.000000 0.000000 0.000000 0.000000 0.000000 0.000000 0.000000 0.000000 0.000000 0.000000 0.000000 0.000000 0.000000 0.000000 0.000000 0.000000 0.000000 0.000000 0.014150 0.014150 0.077825 0.141500 0.141500 0.141500 0.141500 0.141500 0.000000 0.047167 0.070696 0.094261 0.141282 0.000000 0.000000 0.000000 0.000000 0.000073 0.010240 0.001027 0.043716 0.023926 0.018016 0.003176 0.002547 0.001393 0.000000 0.002100 0.000000 0.000000 0.000040 0.000000 0.000000 0.000000 0.000228 0.008750 0.000854 0.000592 0.004677 -9999.000000 -9999.000000 -9999.000000 -9999.000000 -9999.000000 -9999.000000 -9999.000000 -9999.000000 -9999.000000 -9999.000000 -9999.000000 -9999.000000 -9999.000000 -9999.000000 -9999.000000 -9999.000000 -9999.000000 -9999.000000 
0.000000 0.000000 0.000000 0.000000 0.000000 0.000000 0.000000 0.000000 0.000000 0.000000 0.000000 0.000000 0.000000 0.000000 0.000000 0.000000 0.000000 0.000000 0.000000 0.000000 0.000000 0.014150 0.045988 0.077825 0.100465 0.141500 0.141500 0.141500 0.141500 0.000000 0.000000 0.000000 0.000000 0.000000 0.000000 0.000000 0.000000 0.000000 0.000000 0.000051 0.000000 0.000000 0.015911 0.008292 0.000275 0.006678 0.004180 0.000052 0.000924 0.000033 0.000000 0.000000 0.000000 0.000023 0.000000 0.000000 0.000000 0.000000 0.000000 0.000000 -9999.000000 -9999.000000 -9999.000000 -9999.000000 -9999.000000 -9999.000000 -9999.000000 -9999.000000 -9999.000000 -9999.000000 -9999.000000 -9999.000000 -9999.000000 -9999.000000 -9999.000000 -9999.000000 -9999.000000 -9999.000000 
0.000000 0.000000 0.000000 0.000000 0.000000 0.000000 0.000000 0.000000 0.000000 0.000000 0.000000 0.000000 0.000000 0.000000 0.000000 0.000000 0.000000 0.000000 0.000000 0.000000 0.000000 0.000000 0.000000 0.000000 0.047167 0.000000 0.141500 0.141500 0.120806 0.050056 0.000000 0.000000 0.000000 0.000000 0.000000 0.000003 0.000000 0.000000 0.000000 0.000000 0.000000 0.000000 0.000328 0.000000 0.000000 0.000000 0.001493 0.000325 0.001479 0.005429 0.000251 0.000408 0.000000 0.000000 0.000000 0.000000 0.000000 0.000038 0.003126 0.000000 0.000250 -9999.000000 -9999.000000 -9999.000000 -9999.000000 -9999.000000 -9999.000000 -9999.000000 -9999.000000 -9999.000000 -9999.000000 -9999.000000 -9999.000000 -9999.000000 -9999.000000 -9999.000000 -9999.000000 -9999.000000 
0.000000 0.000000 0.000000 0.000000 0.000000 0.000000 0.000000 0.000000 0.000000 0.000000 0.000000 0.000000 0.000000 0.000000 0.000000 0.000000 0.000000 0.000000 0.000000 0.000000 0.000000 0.000000 0.000000 0.000000 0.000000 0.000000 0.084000 0.123780 0.113908 0.086315 0.057173 0.028300 0.000000 0.000000 0.000000 0.000020 0.000052 0.000000 0.000000 0.000000 0.000000 0.000000 0.000000 0.000000 0.000000 0.000000 0.000049 0.000000 0.000000 0.001036 0.007130 0.000000 0.000012 0.000070 0.000000 0.000000 0.000000 0.000000 0.001024 0.005153 0.000292 -9999.000000 -9999.000000 -9999.000000 -9999.000000 -9999.000000 -9999.000000 -9999.000000 -9999.000000 -9999.000000 -9999.000000 -9999.000000 -9999.000000 -9999.000000 -9999.000000 -9999.000000 -9999.000000 -9999.000000 
0.000000 0.000000 0.000000 0.000000 0.000000 0.000000 0.000000 0.000000 0.000000 0.000000 0.000000 0.000000 0.000000 0.000000 0.000000 0.000000 0.000000 0.000000 0.000000 0.000000 0.000000 0.000000 0.000000 0.000000 0.000000 0.000000 0.039945 0.136998 0.084994 0.115221 0.141500 0.000000 0.000000 0.000000 0.000000 0.001029 0.001644 0.000000 0.000028 0.000000 0.000000 0.012265 0.020202 0.000000 0.000000 0.026859 0.000349 0.000296 0.004878 0.011070 0.010519 0.000000 0.000000 0.000018 0.001424 0.000000 0.000047 0.000000 0.000166 0.000000 0.000279 0.000514 -9999.000000 -9999.000000 0.000000 -9999.000000 -9999.000000 -9999.000000 -9999.000000 -9999.000000 -9999.000000 -9999.000000 -9999.000000 -9999.000000 -9999.000000 -9999.000000 -9999.000000 -9999.000000 
0.000000 0.000000 0.000000 0.000000 0.000000 0.000000 0.000000 0.000000 0.000000 0.000000 0.000000 0.000000 0.000000 0.000000 0.000000 0.000000 0.000000 0.000000 0.000000 0.000000 0.000000 0.000000 0.000000 0.000000 0.000000 0.000000 0.000000 0.022782 0.015021 0.130289 0.141282 0.084617 0.000000 0.000000 0.030705 0.001619 0.000999 0.000003 0.000179 0.000000 0.000003 0.000000 0.061325 0.039687 0.035489 0.128816 0.023655 0.010867 0.005513 0.015873 0.015938 0.000004 0.000347 0.003625 0.011409 0.000883 0.000000 0.002831 0.001052 0.000148 0.005873 0.001357 0.000781 0.000076 0.000000 -9999.000000 -9999.000000 -9999.000000 -9999.000000 -9999.000000 -9999.000000 -9999.000000 -9999.000000 -9999.000000 -9999.000000 -9999.000000 -9999.000000 -9999.000000 
0.000000 0.000000 0.000000 0.000000 0.000000 0.000000 0.000000 0.000000 0.000000 0.000000 0.000000 0.000000 0.000000 0.000000 0.000000 0.000000 0.000000 0.000000 0.000000 0.000000 0.000000 0.000000 0.000000 0.000000 0.000000 0.000000 0.000000 0.000435 0.000000 0.047167 0.130799 0.082879 0.000000 0.000000 0.042652 0.001379 0.000600 0.000000 0.000037 0.000012 0.000000 0.000000 0.003951 0.037486 0.103584 0.155099 0.029026 0.007537 0.005173 0.005878 0.006882 0.001171 0.000746 0.000345 0.013892 0.000207 0.000800 0.000234 0.001052 0.000417 0.000000 0.000000 0.000679 0.000478 0.000000 -9999.000000 -9999.000000 -9999.000000 -9999.000000 -9999.000000 -9999.000000 -9999.000000 -9999.000000 -9999.000000 -9999.000000 -9999.000000 -9999.000000 -9999.000000 
0.000000 0.000000 0.000000 0.000000 0.000000 0.000000 0.000000 0.000000 0.000000 0.000000 0.000000 0.000000 0.000000 0.000000 0.000000 0.000000 0.000000 0.000000 0.000000 0.000000 0.000000 0.000000 0.000000 0.000000 0.000000 0.000000 0.000073 0.000000 0.000000 0.141500 0.140527 0.123459 0.000000 0.007109 0.000000 0.000000 0.000230 0.000000 0.000000 0.000000 0.000000 0.000000 0.000000 0.018094 0.081539 0.000262 0.000000 0.000000 0.000000 0.000000 0.000000 0.000000 0.000315 0.000460 0.000131 0.000008 0.002969 0.000000 0.000205 0.000501 0.001636 0.000000 0.000046 0.000000 -9999.000000 -9999.000000 -9999.000000 -9999.000000 -9999.000000 -9999.000000 -9999.000000 -9999.000000 -9999.000000 -9999.000000 -9999.000000 -9999.000000 -9999.000000 -9999.000000 
0.000000 0.000000 0.000000 0.000000 0.000000 0.000000 0.000000 0.000000 0.000000 0.000000 0.000000 0.000000 0.000000 0.000000 0.000000 0.000000 0.000000 0.000000 0.000000 0.000000 0.000000 0.000000 0.000000 0.000000 0.000000 0.000000 0.000000 0.000000 0.000000 0.106597 0.141406 0.141500 0.000000 0.000000 0.000000 0.000000 0.000000 0.000000 0.000000 0.000000 0.000000 0.000000 0.000000 0.000787 0.064893 0.000000 0.000000 0.000000 0.000000 0.000000 0.000000 0.000316 0.000190 0.001894 0.000000 0.000404 0.000000 0.000085 0.000141 0.000295 0.000000 0.000000 0.000000 0.000000 -9999.000000 -9999.000000 -9999.000000 -9999.000000 -9999.000000 -9999.000000 -9999.000000 -9999.000000 -9999.000000 -9999.000000 -9999.000000 -9999.000000 -9999.000000 -9999.000000 
0.000000 0.000000 0.000000 0.000000 0.000000 0.000000 0.000000 0.000000 0.000000 0.000000 0.000000 0.000000 0.000000 0.000000 0.000000 0.000000 0.000000 0.000000 0.000000 0.000000 0.000000 0.000000 0.000000 0.000000 0.000000 0.000000 0.000000 0.000000 0.000000 0.008667 0.131683 0.141264 0.000000 0.005896 0.000000 0.000000 0.000000 0.000000 0.000000 0.000000 0.000000 0.000000 0.000000 0.000099 0.073195 0.026380 0.000000 0.000000 0.000000 0.000000 0.000000 0.003665 0.000012 0.000626 0.000000 0.000000 0.000000 0.000018 0.000020 0.000041 0.000000 0.000207 0.000000 0.000007 0.000013 0.000000 0.000000 0.000000 -9999.000000 -9999.000000 -9999.000000 -9999.000000 -9999.000000 -9999.000000 -9999.000000 -9999.000000 -9999.000000 -9999.000000 
0.000000 0.000000 0.000000 0.000000 0.000000 0.000000 0.000000 0.000000 0.000000 0.000000 0.000000 0.000000 0.000000 0.000000 0.000000 0.000000 0.000000 0.000000 0.000000 0.000000 0.000000 0.000000 0.000000 0.000000 0.000000 0.000000 0.000000 0.021464 0.141500 0.068203 0.126819 0.105353 0.017687 0.008623 0.032191 0.000000 0.000000 0.000858 0.000000 0.000000 0.000000 0.000000 0.000000 0.000000 0.036521 0.101061 0.000000 0.000000 0.000000 0.000000 0.016033 0.018813 0.000108 0.001191 0.000012 0.000000 0.000000 0.000000 0.000000 0.000083 0.000181 0.000202 0.000000 0.000050 0.000000 0.000060 0.000039 0.000000 -9999.000000 -9999.000000 -9999.000000 -9999.000000 -9999.000000 -9999.000000 -9999.000000 -9999.000000 -9999.000000 -9999.000000 
0.000000 0.000000 0.000000 0.000000 0.000000 0.000000 0.000000 0.000000 0.000000 0.000000 0.000000 0.000000 0.000000 0.000000 0.000000 0.000000 0.000000 0.000000 0.000000 0.000000 0.000000 0.000000 0.000000 0.000000 0.000000 0.000000 0.000000 0.000000 0.008747 0.128500 0.061110 0.003868 0.016803 0.000000 0.064383 0.128765 0.128765 0.001716 0.000000 0.000474 0.001127 0.000000 0.000039 0.000000 0.029378 0.027017 0.000000 0.000000 0.000000 0.000000 0.005382 0.012969 0.000000 0.003525 0.009728 0.000000 0.003537 0.001134 0.001514 0.001674 0.000608 0.001495 0.000816 0.000825 0.000552 0.000000 0.000045 0.000000 -9999.000000 -9999.000000 -9999.000000 -9999.000000 -9999.000000 -9999.000000 -9999.000000 -9999.000000 -9999.000000 -9999.000000 
0.000000 0.000000 0.000000 0.000000 0.000000 0.000000 0.000000 0.000000 0.000000 0.000000 0.000000 0.000000 0.000000 0.000000 0.000000 0.000000 0.000000 0.000000 0.000000 0.000000 0.000000 0.000000 0.000000 0.000000 0.000000 0.000000 0.000000 0.000000 0.000000 0.141500 0.131772 0.113058 0.000000 0.005601 0.085843 0.128765 0.128765 0.000000 0.000000 0.001643 0.003637 0.000000 0.000000 0.000000 0.081710 0.014203 0.000000 0.000000 0.000000 0.000000 0.000000 0.000000 0.008806 0.003552 0.003541 0.000000 0.005672 0.001471 0.005463 0.007985 0.003900 0.010932 0.008401 0.009278 0.000000 0.000300 0.000000 0.000007 -9999.000000 -9999.000000 -9999.000000 -9999.000000 -9999.000000 -9999.000000 -9999.000000 -9999.000000 -9999.000000 -9999.000000 
0.000000 0.000000 0.000000 0.000000 0.000000 0.000000 0.000000 0.000000 0.000000 0.000000 0.000000 0.000000 0.000000 0.000000 0.000000 0.000000 0.000000 0.000000 0.000000 0.000000 0.000000 0.000000 0.000000 0.000000 0.000000 0.000000 0.000000 0.000000 0.070750 0.141500 0.141371 0.141500 0.051698 0.000000 0.064383 0.085843 0.051506 0.000000 0.000639 0.001729 0.001213 0.000520 0.000000 0.000000 0.076601 0.120852 0.000000 0.000000 0.000000 0.000000 0.000000 0.000592 0.016946 0.002937 0.000061 0.000000 0.000000 0.000000 0.000000 0.002890 0.005460 0.007939 0.006045 0.000986 0.000468 0.000000 0.000000 0.000000 -9999.000000 -9999.000000 -9999.000000 -9999.000000 -9999.000000 -9999.000000 -9999.000000 -9999.000000 -9999.000000 -9999.000000 
0.000000 0.000000 0.000000 0.000000 0.000000 0.000000 0.000000 0.000000 0.000000 0.000000 0.000000 0.000000 0.000000 0.000000 0.000000 0.000000 0.000000 0.000000 0.000000 0.000000 0.000000 0.000000 0.000000 0.000000 0.000000 0.000000 0.000000 0.000000 0.141500 0.114972 0.118294 0.055627 0.000000 0.000000 0.000000 0.000000 0.000000 0.009728 0.001722 0.001376 0.000182 0.000052 0.000000 0.000000 0.090921 0.079259 0.032728 0.000000 0.000000 0.000000 0.000000 0.008515 0.023971 0.007163 0.000661 0.000000 0.000000 0.000000 0.000000 0.000000 0.000000 0.003780 0.001125 0.003770 0.001177 0.000000 0.000000 0.000000 0.000947 -9999.000000 -9999.000000 -9999.000000 -9999.000000 -9999.000000 -9999.000000 -9999.000000 -9999.000000 -9999.000000 
0.000000 0.000000 0.000000 0.000000 0.000000 0.000000 0.000000 0.000000 0.000000 0.000000 0.000000 0.000000 0.000000 0.000000 0.000000 0.000000 0.000000 0.000000 0.000000 0.000000 0.000000 0.000000 0.000000 0.000000 0.000000 0.000000 0.000000 0.000000 0.000000 0.106172 0.058722 0.105948 0.141500 0.070750 0.000000 0.000000 0.000000 0.008844 0.020612 0.000115 0.001136 0.000000 0.000000 0.000736 0.006633 0.013300 0.000000 0.000000 0.000000 0.000001 0.000005 0.000000 0.000466 0.000539 0.000679 0.000000 0.000000 0.000000 0.000000 0.000048 0.000000 0.000000 0.000208 0.000220 0.035422 0.011478 0.000000 0.000000 0.000000 0.000000 -9999.000000 -9999.000000 -9999.000000 -9999.000000 -9999.000000 -9999.000000 -9999.000000 -9999.000000 
0.000000 0.000000 0.000000 0.000000 0.000000 0.000000 0.000000 0.000000 0.000000 0.000000 0.000000 0.000000 0.000000 0.000000 0.000000 0.000000 0.000000 0.000000 0.000000 0.000000 0.000000 0.000000 0.000000 0.000000 0.000000 0.000000 0.000000 0.000000 0.000000 0.113908 0.141500 0.139024 0.141500 0.141500 0.000000 0.016273 0.037733 0.024621 0.000000 0.000000 0.000244 0.011256 0.006072 0.000738 0.014392 0.014763 0.000223 0.000000 0.000000 0.000000 0.000000 0.000001 0.000407 0.000594 0.000235 0.000000 0.000000 0.000000 0.000001 0.000183 0.000057 0.000688 0.000092 0.000669 0.044533 0.006237 0.000000 0.000000 0.000000 0.000000 0.000000 0.000000 -9999.000000 -9999.000000 -9999.000000 -9999.000000 -9999.000000 -9999.000000 
0.000000 0.000000 0.000000 0.000000 0.000000 0.000000 0.000000 0.000000 0.000000 0.000000 0.000000 0.000000 0.000000 0.000000 0.000000 0.000000 0.000000 0.000000 0.000000 0.000000 0.000000 0.000000 0.000000 0.000000 0.000000 0.000000 0.000000 0.000000 0.000000 0.141500 0.141500 0.141323 0.141500 0.141500 0.000000 0.032545 0.032545 0.135999 0.016695 0.013863 0.161789 0.135013 0.059573 0.001301 0.030369 0.012200 0.006270 0.000000 0.054145 0.018048 0.000000 0.000000 0.000172 0.000417 0.000249 0.000004 0.001143 0.000294 0.001280 0.000914 0.000006 0.001552 0.002321 0.000002 0.056984 0.010267 0.004860 0.026536 0.000000 0.000000 0.000000 0.000000 0.000000 0.000000 -9999.000000 -9999.000000 -9999.000000 -9999.000000 
0.000000 0.000000 0.000000 0.000000 0.000000 0.000000 0.000000 0.000000 0.000000 0.000000 0.000000 0.000000 0.000000 0.000000 0.000000 0.000000 0.000000 0.000000 0.000000 0.000000 0.000000 0.000000 0.000000 0.000000 0.000000 0.000000 0.000000 0.000000 0.000000 0.141500 0.141500 0.141235 0.141500 0.141323 0.000000 0.021697 0.032545 0.135757 0.058547 0.046058 0.090630 0.122540 0.050979 0.042334 0.000000 0.018408 0.021420 0.000000 0.038020 0.028824 0.000000 0.000000 0.000188 0.000483 0.000763 0.000093 0.003798 0.001358 0.004453 0.000726 0.000005 0.002095 0.004569 0.000000 0.050266 0.007841 0.016394 0.077335 0.000000 0.000000 0.000000 0.000000 0.000000 0.000000 0.000000 -9999.000000 -9999.000000 -9999.000000 
0.000000 0.000000 0.000000 0.000000 0.000000 0.000000 0.000000 0.000000 0.000000 0.000000 0.000000 0.000000 0.000000 0.000000 0.000000 0.000000 0.000000 0.000000 0.000000 0.000000 0.000000 0.000000 0.000000 0.000000 0.000000 0.000000 0.000000 0.000000 0.000000 0.047167 0.094272 0.141399 0.140969 0.105926 0.000000 0.019424 0.000000 0.063014 0.000640 0.002199 0.017865 0.038076 0.014151 0.046508 0.001491 0.021688 0.012569 0.000000 0.000000 0.000000 0.000000 0.000000 0.000000 0.000000 0.000000 0.000000 0.000003 0.000000 0.000035 0.000000 0.000000 0.000000 0.000000 0.000000 0.000000 0.011963 0.066626 0.006324 0.000014 0.000926 0.001268 0.000000 0.000000 0.000000 0.000000 -9999.000000 -9999.000000 -9999.000000 
0.000000 0.000000 0.000000 0.000000 0.000000 0.000000 0.000000 0.000000 0.000000 0.000000 0.000000 0.000000 0.000000 0.000000 0.000000 0.000000 0.000000 0.000000 0.000000 0.000000 0.000000 0.000000 0.000000 0.000000 0.000000 0.000000 0.000000 0.000000 0.000000 0.000000 0.000000 0.141500 0.141235 0.000000 0.035375 0.005145 0.025727 0.211788 0.000115 0.001789 0.068767 0.021170 0.022942 0.069859 0.031741 0.036816 0.049861 0.000000 0.000000 0.000000 0.000000 0.000000 0.000000 0.000000 0.000338 0.000147 0.000000 0.000000 0.000000 0.000000 0.000000 0.000000 0.000000 0.000000 0.000000 0.019926 0.069822 0.019501 0.016929 0.001106 0.001336 0.001158 0.000000 0.000000 0.000000 0.000000 0.000000 -9999.000000 
0.000000 0.000000 0.000000 0.000000 0.000000 0.000000 0.000000 0.000000 0.000000 0.000000 0.000000 0.000000 0.000000 0.000000 0.000000 0.000000 0.000000 0.000000 0.000000 0.000000 0.000000 0.000000 0.000000 0.000000 0.000000 0.000000 0.000000 0.000000 0.000000 0.000000 0.047167 0.113115 0.141343 0.141500 0.000000 0.000000 0.000000 0.032899 0.073549 0.056545 0.054802 0.000915 0.000000 0.000000 0.025122 0.027370 0.029430 0.000000 0.000000 0.000000 0.000000 0.000000 0.000000 0.000000 0.000078 0.000061 0.000000 0.000000 0.000000 0.000000 0.000000 0.000245 0.000311 0.000001 0.001219 0.000000 0.000432 0.000881 0.090484 0.041560 0.000562 0.000537 0.000764 0.000000 0.000000 0.000000 -9999.000000 -9999.000000 
0.000000 0.000000 0.000000 0.000000 0.000000 0.000000 0.000000 0.000000 0.000000 0.000000 0.000000 0.000000 0.000000 0.000000 0.000000 0.000000 0.000000 0.000000 0.000000 0.000000 0.000000 0.000000 0.000000 0.000000 0.000000 0.000000 0.000000 0.000000 0.000000 0.000000 0.000000 0.141421 0.141500 0.133104 0.094333 0.000000 0.000000 0.070548 0.228662 0.177198 0.054855 0.000000 0.107325 0.050519 0.073939 0.034094 0.029552 0.000000 0.000000 0.000000 0.006768 0.031585 0.000000 0.000000 0.000467 0.000564 0.000057 0.000680 0.000000 0.000000 0.000000 0.000783 0.001470 0.000395 0.004627 0.033291 0.023328 0.016718 0.042735 0.017366 0.032854 0.024056 0.001349 0.000000 0.000000 0.000000 0.003749 -9999.000000 
0.000000 0.000000 0.000000 0.000000 0.000000 0.000000 0.000000 0.000000 0.000000 0.000000 0.000000 0.000000 0.000000 0.000000 0.000000 0.000000 0.000000 0.000000 0.000000 0.000000 0.000000 0.000000 0.000000 0.000000 0.000000 0.000000 0.000000 0.000000 0.000000 0.000000 0.000000 0.141500 0.137765 0.135132 0.141500 0.000000 0.058925 0.141500 0.138953 0.015353 0.013835 0.000000 0.029614 0.140317 0.119846 0.012135 0.010512 0.000000 0.000000 0.000000 0.002040 0.015073 0.000000 0.000000 0.000000 0.000484 0.000027 0.000067 0.000000 0.000000 0.000000 0.000000 0.003230 0.000689 0.002012 0.023151 0.012053 0.038317 0.019321 0.015372 0.023034 0.042804 0.003444 0.000000 0.000000 0.000000 -9999.000000 0.005832 
0.000000 0.000000 0.000000 0.000000 0.000000 0.000000 0.000000 0.000000 0.000000 0.000000 0.000000 0.000000 0.000000 0.000000 0.000000 0.000000 0.000000 0.000000 0.000000 0.000000 0.000000 0.000000 0.000000 0.000000 0.000000 0.000000 0.000000 0.000000 0.000000 0.000000 0.000000 0.000000 0.134219 0.141323 0.141217 0.082381 0.074641 0.141500 0.141500 0.000000 0.238345 0.000000 0.000000 0.000018 0.050781 0.015767 0.014744 0.000000 0.000000 0.000000 0.000000 0.000000 0.000000 0.000000 0.000339 0.000489 0.000000 0.000000 0.000000 0.000000 0.000000 0.000000 0.000560 0.000988 0.000787 0.008315 0.000000 0.000000 0.000496 0.000409 0.013451 0.010327 0.000771 0.000000 0.000000 0.000000 -9999.000000 -9999.000000 
0.000000 0.000000 0.000000 0.000000 0.000000 0.000000 0.000000 0.000000 0.000000 0.000000 0.000000 0.000000 0.000000 0.000000 0.000000 0.000000 0.000000 0.000000 0.000000 0.000000 0.000000 0.000000 0.000000 0.000000 0.000000 0.000000 0.000000 0.000000 0.000000 0.000000 0.000000 0.000000 0.135817 0.126200 0.141058 0.070514 0.000000 0.094333 0.098505 0.137609 0.229510 0.077620 0.000015 0.000000 0.042179 0.015145 0.010442 0.000000 0.000000 0.000000 0.000000 0.000000 0.000000 0.000000 0.000104 0.000316 0.000000 0.000000 0.000000 0.000000 0.000000 0.000000 0.000000 0.000000 0.000000 0.012275 0.000000 0.000000 0.000000 0.000000 0.000000 0.000000 0.000000 0.000000 0.000000 0.000000 0.000000 0.000000 
0.000000 0.000000 0.000000 0.000000 0.000000 0.000000 0.000000 0.000000 0.000000 0.000000 0.000000 0.000000 0.000000 0.000000 0.000000 0.000000 0.000000 0.000000 0.000000 0.000000 0.000000 0.000000 0.000000 0.000000 0.000000 0.000000 0.000000 0.000000 0.000000 0.000000 0.000000 0.000000 0.133064 0.139928 0.141500 0.081952 0.000000 0.000000 0.141500 0.131595 0.075326 0.000000 0.000000 0.069364 0.027039 0.016957 0.003675 0.000000 0.000004 0.000000 0.000000 0.000000 0.000000 0.000030 0.000045 0.000314 0.000000 0.000000 0.000000 0.000000 0.000000 0.000000 0.000000 0.000000 0.000000 0.000000 0.000771 0.000000 0.000000 0.000000 0.000000 0.000000 0.000000 0.000000 0.000000 0.000000 0.000000 0.013203 
