ncols        78
nrows        66
xllcorner    -87.500000000000
yllcorner    25.000000000000
cellsize     0.083333333333
NODATA_value -9999.000000
-9999.000000 -9999.000000 -9999.000000 -9999.000000 0.000000 0.000000 -9999.000000 -9999.000000 -9999.000000 -9999.000000 -9999.000000 0.000000 0.000000 0.000000 0.000000 0.000000 -9999.000000 -9999.000000 -9999.000000 -9999.000000 -9999.000000 -9999.000000 -9999.000000 -9999.000000 -9999.000000 -9999.000000 -9999.000000 -9999.000000 -9999.000000 -9999.000000 -9999.000000 -9999.000000 -9999.000000 -9999.000000 -9999.000000 -9999.000000 -9999.000000 -9999.000000 -9999.000000 -9999.000000 -9999.000000 -9999.000000 -9999.000000 -9999.000000 -9999.000000 -9999.000000 -9999.000000 -9999.000000 -9999.000000 -9999.000000 -9999.000000 -9999.000000 -9999.000000 -9999.000000 -9999.000000 -9999.000000 -9999.000000 -9999.000000 -9999.000000 -9999.000000 -9999.000000 -9999.000000 -9999.000000 -9999.000000 -9999.000000 -9999.000000 -9999.000000 -9999.000000 -9999.000000 -9999.000000 -9999.000000 -9999.000000 0.383838 0.633021 0.773644 0.824859 0.849010 0.350250 
-9999.000000 -9999.000000 -9999.000000 0.000000 0.000000 0.000000 0.000000 0.200427 0.475326 0.450666 0.426924 0.336426 0.424048 0.197215 0.000000 -9999.000000 -9999.000000 -9999.000000 -9999.000000 -9999.000000 -9999.000000 -9999.000000 -9999.000000 -9999.000000 -9999.000000 -9999.000000 -9999.000000 -9999.000000 -9999.000000 -9999.000000 -9999.000000 -9999.000000 -9999.000000 -9999.000000 -9999.000000 -9999.000000 -9999.000000 -9999.000000 -9999.000000 -9999.000000 -9999.000000 -9999.000000 -9999.000000 -9999.000000 -9999.000000 -9999.000000 -9999.000000 -9999.000000 -9999.000000 -9999.000000 -9999.000000 -9999.000000 -9999.000000 -9999.000000 -9999.000000 -9999.000000 -9999.000000 -9999.000000 -9999.000000 -9999.000000 -9999.000000 -9999.000000 -9999.000000 -9999.000000 -9999.000000 -9999.000000 -9999.000000 -9999.000000 -9999.000000 -9999.000000 -9999.000000 -9999.000000 -9999.000000 0.558097 0.730697 0.811287 0.781711 0.689783 
0.000000 0.000000 0.000000 0.000000 0.000000 0.000000 0.000000 0.315094 0.829578 0.922528 0.758311 0.810560 0.737763 0.345503 0.000000 0.000000 0.000000 -9999.000000 -9999.000000 -9999.000000 -9999.000000 -9999.000000 -9999.000000 -9999.000000 -9999.000000 -9999.000000 -9999.000000 -9999.000000 -9999.000000 -9999.000000 -9999.000000 -9999.000000 -9999.000000 -9999.000000 -9999.000000 -9999.000000 -9999.000000 -9999.000000 -9999.000000 -9999.000000 -9999.000000 -9999.000000 -9999.000000 -9999.000000 -9999.000000 -9999.000000 -9999.000000 -9999.000000 -9999.000000 -9999.000000 -9999.000000 -9999.000000 -9999.000000 -9999.000000 -9999.000000 -9999.000000 -9999.000000 -9999.000000 -9999.000000 -9999.000000 -9999.000000 -9999.000000 -9999.000000 -9999.000000 -9999.000000 -9999.000000 -9999.000000 -9999.000000 -9999.000000 -9999.000000 -9999.000000 -9999.000000 -9999.000000 0.298709 0.704466 0.887649 0.708503 0.477104 
0.903916 0.875095 0.848822 0.868209 0.803055 0.864025 0.860762 0.756592 0.870439 0.912289 0.841904 0.886160 0.730057 0.783033 0.635733 0.654022 0.719104 0.490638 0.512126 0.330313 0.000000 0.000000 -9999.000000 -9999.000000 -9999.000000 -9999.000000 -9999.000000 -9999.000000 -9999.000000 -9999.000000 -9999.000000 -9999.000000 -9999.000000 -9999.000000 -9999.000000 -9999.000000 -9999.000000 -9999.000000 -9999.000000 -9999.000000 -9999.000000 -9999.000000 -9999.000000 -9999.000000 -9999.000000 -9999.000000 -9999.000000 -9999.000000 -9999.000000 -9999.000000 -9999.000000 -9999.000000 -9999.000000 -9999.000000 -9999.000000 -9999.000000 -9999.000000 -9999.000000 -9999.000000 -9999.000000 -9999.000000 -9999.000000 -9999.000000 -9999.000000 -9999.000000 -9999.000000 -9999.000000 -9999.000000 -9999.000000 -9999.000000 -9999.000000 -9999.000000 -9999.000000 0.135214 0.727803 0.819585 0.866667 0.743335 
0.852351 0.770907 0.856150 0.812858 0.796728 0.648624 0.471539 0.553685 0.497433 0.613736 0.519407 0.514021 0.568269 0.768023 0.775578 0.748075 0.802084 0.718014 0.602822 0.468843 0.367145 0.000000 0.000000 0.000000 -9999.000000 -9999.000000 -9999.000000 -9999.000000 -9999.000000 -9999.000000 -9999.000000 -9999.000000 -9999.000000 -9999.000000 -9999.000000 -9999.000000 -9999.000000 -9999.000000 -9999.000000 -9999.000000 -9999.000000 0.316195 -9999.000000 -9999.000000 -9999.000000 -9999.000000 -9999.000000 -9999.000000 -9999.000000 -9999.000000 -9999.000000 -9999.000000 -9999.000000 -9999.000000 -9999.000000 -9999.000000 -9999.000000 -9999.000000 -9999.000000 -9999.000000 -9999.000000 -9999.000000 -9999.000000 -9999.000000 -9999.000000 -9999.000000 -9999.000000 -9999.000000 -9999.000000 -9999.000000 -9999.000000 -9999.000000 -9999.000000 -9999.000000 0.796717 0.928397 0.696311 0.844795 
0.737655 0.815894 0.768944 0.695075 0.590179 0.375182 0.241849 0.066950 0.046092 0.350690 0.279437 0.292723 0.287483 0.521560 0.176390 0.478460 0.599191 0.735739 0.749252 0.792469 0.680069 0.000000 0.000000 0.000000 -9999.000000 -9999.000000 -9999.000000 -9999.000000 -9999.000000 -9999.000000 -9999.000000 -9999.000000 -9999.000000 -9999.000000 -9999.000000 -9999.000000 -9999.000000 -9999.000000 0.000000 0.000000 0.000000 0.000000 0.000000 0.000000 -9999.000000 -9999.000000 -9999.000000 -9999.000000 -9999.000000 -9999.000000 -9999.000000 -9999.000000 -9999.000000 -9999.000000 -9999.000000 -9999.000000 -9999.000000 -9999.000000 -9999.000000 -9999.000000 -9999.000000 -9999.000000 -9999.000000 -9999.000000 -9999.000000 -9999.000000 -9999.000000 -9999.000000 -9999.000000 -9999.000000 -9999.000000 -9999.000000 -9999.000000 -9999.000000 0.683235 0.695358 0.687678 0.398239 
0.768877 0.739129 0.704589 0.519787 0.403808 0.460996 0.058194 0.014963 0.076436 0.283481 0.381496 0.011306 0.333598 0.373992 0.235786 0.420544 0.695891 0.569364 0.652124 0.828284 0.831927 0.705791 0.339078 0.000000 -9999.000000 -9999.000000 -9999.000000 -9999.000000 -9999.000000 -9999.000000 -9999.000000 -9999.000000 -9999.000000 -9999.000000 -9999.000000 -9999.000000 -9999.000000 -9999.000000 0.000000 0.000000 0.000000 0.000000 0.000000 0.000000 0.000000 -9999.000000 -9999.000000 -9999.000000 -9999.000000 -9999.000000 -9999.000000 -9999.000000 -9999.000000 -9999.000000 -9999.000000 -9999.000000 -9999.000000 -9999.000000 -9999.000000 -9999.000000 -9999.000000 -9999.000000 -9999.000000 -9999.000000 -9999.000000 -9999.000000 -9999.000000 -9999.000000 -9999.000000 -9999.000000 -9999.000000 -9999.000000 -9999.000000 -9999.000000 0.663677 0.580763 0.779633 0.533139 
0.493498 0.792875 0.733660 0.225338 0.424622 0.329672 0.109098 0.090967 0.177062 0.346204 0.443792 0.427125 0.419199 0.536274 0.383720 0.655469 0.597520 0.562600 0.752610 0.755040 0.877099 0.862960 0.540832 0.407340 0.000000 0.000000 -9999.000000 -9999.000000 -9999.000000 -9999.000000 -9999.000000 -9999.000000 -9999.000000 -9999.000000 -9999.000000 -9999.000000 0.000000 0.179788 0.279669 0.198811 0.125145 0.207366 0.345014 0.215947 0.000000 0.000000 -9999.000000 -9999.000000 -9999.000000 -9999.000000 -9999.000000 -9999.000000 -9999.000000 -9999.000000 -9999.000000 -9999.000000 -9999.000000 -9999.000000 -9999.000000 -9999.000000 -9999.000000 -9999.000000 -9999.000000 -9999.000000 -9999.000000 -9999.000000 -9999.000000 -9999.000000 -9999.000000 -9999.000000 -9999.000000 -9999.000000 -9999.000000 -9999.000000 0.829146 0.420192 0.626428 0.769493 
0.774521 0.714268 0.549433 0.254621 0.415383 0.136882 0.148921 0.218045 0.243154 0.264631 0.363579 0.585362 0.526515 0.501459 0.735260 0.776458 0.681710 0.512869 0.633077 0.685641 0.758003 0.752867 0.855179 0.814349 0.000000 0.000000 -9999.000000 -9999.000000 -9999.000000 -9999.000000 -9999.000000 -9999.000000 0.000000 0.000000 0.000000 0.000000 0.000000 0.273891 0.648357 0.499181 0.430378 0.444516 0.751634 0.833890 0.230921 0.000000 0.000000 -9999.000000 -9999.000000 -9999.000000 -9999.000000 -9999.000000 -9999.000000 -9999.000000 -9999.000000 -9999.000000 -9999.000000 -9999.000000 -9999.000000 -9999.000000 -9999.000000 -9999.000000 -9999.000000 -9999.000000 -9999.000000 -9999.000000 -9999.000000 -9999.000000 -9999.000000 -9999.000000 -9999.000000 -9999.000000 -9999.000000 -9999.000000 -9999.000000 0.501507 0.578163 0.438778 
0.803172 0.212997 0.333567 0.025141 0.165284 0.393805 0.246057 0.239544 0.294790 0.288719 0.324029 0.365173 0.309010 0.560620 0.813039 0.808442 0.692342 0.677645 0.625503 0.553340 0.691656 0.705905 0.768880 0.733602 0.000000 0.000000 0.000000 -9999.000000 -9999.000000 -9999.000000 0.000000 0.000000 0.000000 0.000000 0.364916 0.461428 0.673074 0.514619 0.806349 0.488822 0.303147 0.234552 0.525605 0.678643 0.267958 0.000000 0.000000 0.000000 -9999.000000 -9999.000000 -9999.000000 -9999.000000 -9999.000000 -9999.000000 -9999.000000 -9999.000000 -9999.000000 -9999.000000 -9999.000000 -9999.000000 -9999.000000 -9999.000000 -9999.000000 -9999.000000 -9999.000000 -9999.000000 -9999.000000 -9999.000000 -9999.000000 -9999.000000 -9999.000000 -9999.000000 -9999.000000 -9999.000000 -9999.000000 0.561581 0.574319 0.639241 
0.000000 0.000000 0.167714 0.163613 0.162895 0.121843 0.027164 0.136162 0.319392 0.341401 0.244742 0.216781 0.252063 0.380713 0.705323 0.620489 0.481689 0.634552 0.659808 0.721060 0.825996 0.939793 0.719343 0.742405 0.455003 0.479819 0.173206 0.168221 0.082264 0.000000 0.000000 0.074029 0.306466 0.242515 0.441070 0.343056 0.777070 0.329568 0.211272 0.610964 0.337880 0.219394 0.284571 0.371594 0.450970 0.353164 0.368506 0.353828 0.000000 -9999.000000 -9999.000000 -9999.000000 -9999.000000 -9999.000000 -9999.000000 -9999.000000 -9999.000000 -9999.000000 -9999.000000 -9999.000000 -9999.000000 -9999.000000 -9999.000000 -9999.000000 -9999.000000 -9999.000000 -9999.000000 -9999.000000 -9999.000000 -9999.000000 -9999.000000 -9999.000000 -9999.000000 -9999.000000 -9999.000000 -9999.000000 0.637462 0.618624 
0.043950 0.344722 0.549309 0.268865 0.118385 0.001259 0.000000 0.036479 0.297913 0.719443 0.374920 0.210191 0.227013 0.265655 0.343747 0.537675 0.327121 0.254361 0.192785 0.875237 0.857498 0.945958 0.894792 0.899303 0.973972 0.937165 0.715594 0.238745 0.266394 0.000000 0.000000 0.273249 0.528386 0.740759 0.566989 0.434718 0.634676 0.718887 0.816029 0.594531 0.450877 0.220015 0.757688 0.444624 0.859187 0.814752 0.850922 0.623218 0.000000 -9999.000000 -9999.000000 -9999.000000 -9999.000000 -9999.000000 -9999.000000 -9999.000000 -9999.000000 -9999.000000 -9999.000000 -9999.000000 -9999.000000 -9999.000000 -9999.000000 -9999.000000 -9999.000000 -9999.000000 -9999.000000 -9999.000000 -9999.000000 -9999.000000 -9999.000000 -9999.000000 -9999.000000 -9999.000000 -9999.000000 -9999.000000 0.293623 0.625010 
0.016491 0.513556 0.587036 0.346208 0.019132 0.000000 0.000000 0.000000 0.011356 0.817550 0.655085 0.308033 0.345155 0.277919 0.177302 0.356702 0.363526 0.612972 0.533525 0.641131 0.823686 0.873571 0.840102 0.797231 0.333258 0.891568 0.671310 0.735152 0.589353 0.574561 0.846646 0.912859 0.610324 0.533735 0.500214 0.572241 0.742180 0.822453 0.849733 0.847290 0.972982 0.675322 0.266706 0.652573 0.577161 0.481030 0.662794 0.410073 0.000000 0.000000 0.000000 -9999.000000 -9999.000000 -9999.000000 -9999.000000 -9999.000000 -9999.000000 -9999.000000 -9999.000000 -9999.000000 -9999.000000 -9999.000000 -9999.000000 -9999.000000 -9999.000000 -9999.000000 -9999.000000 -9999.000000 -9999.000000 -9999.000000 -9999.000000 -9999.000000 -9999.000000 -9999.000000 -9999.000000 -9999.000000 0.424798 0.232323 
0.006274 0.121586 0.436455 0.423580 0.275811 0.002922 0.000000 0.000000 0.022756 0.506625 0.480429 0.351641 0.407945 0.257125 0.105397 0.229456 0.202868 0.445365 0.774699 0.700161 0.827952 0.822015 0.634955 0.610861 0.562500 0.823849 0.598206 0.508847 0.666033 0.782995 0.557802 0.626818 0.644209 0.640863 0.517993 0.522453 0.808542 0.805495 0.802869 0.787576 0.675821 0.000000 0.435539 0.698136 0.570670 0.320785 0.453607 0.149979 0.080011 0.066654 0.000000 0.000000 -9999.000000 -9999.000000 -9999.000000 -9999.000000 -9999.000000 -9999.000000 -9999.000000 -9999.000000 -9999.000000 -9999.000000 -9999.000000 -9999.000000 -9999.000000 -9999.000000 -9999.000000 -9999.000000 -9999.000000 -9999.000000 -9999.000000 -9999.000000 -9999.000000 -9999.000000 -9999.000000 -9999.000000 -9999.000000 0.547138 
0.104239 0.039114 0.358996 0.497172 0.492708 0.090273 0.000000 0.000000 0.004422 0.496534 0.474448 0.335647 0.265783 0.032849 0.052532 0.059607 0.201828 0.354396 0.678204 0.315142 0.539530 0.703779 0.573596 0.703894 0.886729 0.869785 0.638379 0.640861 0.781864 0.926209 0.882282 0.814664 0.370816 0.530267 0.477037 0.476970 0.689475 0.795000 0.778700 0.779596 0.583008 0.555531 0.662935 0.606707 0.204827 0.521773 0.546842 0.393015 0.598572 0.260704 0.000000 0.000000 -9999.000000 -9999.000000 -9999.000000 -9999.000000 -9999.000000 -9999.000000 -9999.000000 -9999.000000 -9999.000000 -9999.000000 -9999.000000 -9999.000000 -9999.000000 -9999.000000 -9999.000000 -9999.000000 -9999.000000 -9999.000000 1.000000 1.000000 -9999.000000 -9999.000000 -9999.000000 -9999.000000 -9999.000000 0.000000 
0.313565 0.044823 0.126894 0.454545 0.434177 0.076679 0.000000 0.000000 0.008855 0.496534 0.470328 0.330177 0.258838 0.011995 0.000631 0.006313 0.140417 0.328232 0.361905 0.320187 0.395088 0.177428 0.730921 0.946014 0.887368 0.598732 0.818758 0.980927 0.965033 0.936789 0.906938 0.885006 0.274407 0.188627 0.396557 0.353220 0.488634 0.798467 0.774153 0.735583 0.706036 0.804353 0.938162 0.931478 0.902612 0.774935 0.576747 0.532102 0.502107 0.535259 0.506950 0.000000 0.000000 -9999.000000 -9999.000000 -9999.000000 -9999.000000 -9999.000000 -9999.000000 -9999.000000 -9999.000000 -9999.000000 -9999.000000 -9999.000000 -9999.000000 -9999.000000 -9999.000000 -9999.000000 -9999.000000 -9999.000000 -9999.000000 1.000000 -9999.000000 -9999.000000 -9999.000000 -9999.000000 -9999.000000 -9999.000000 
0.314196 0.028409 0.079495 0.283912 0.039798 0.018424 0.001266 0.028553 0.250790 0.435606 0.331439 0.303662 0.319243 0.121843 0.001260 0.000000 0.090335 0.250636 0.096774 0.313069 0.166944 0.011366 0.308958 0.829006 0.925737 0.872833 0.964591 0.969618 0.855935 0.947157 0.837957 0.584461 0.730680 0.534350 0.259511 0.355514 0.385001 0.543232 0.542494 0.639680 0.796252 0.777229 0.770893 0.961570 0.970309 0.958419 0.637631 0.495576 0.557652 0.513562 0.504076 0.227587 0.118674 0.000000 0.000000 0.000000 -9999.000000 -9999.000000 -9999.000000 -9999.000000 -9999.000000 -9999.000000 -9999.000000 -9999.000000 -9999.000000 -9999.000000 -9999.000000 -9999.000000 -9999.000000 -9999.000000 -9999.000000 -9999.000000 1.000000 -9999.000000 -9999.000000 -9999.000000 -9999.000000 -9999.000000 
0.166667 0.032828 0.194444 0.260732 0.087066 0.193426 0.020886 0.044192 0.317981 0.223062 0.008197 0.032197 0.160354 0.162879 0.054855 0.000000 0.016383 0.139608 0.111813 0.399242 0.236122 0.003137 0.065746 0.778377 0.888814 0.719717 0.795574 0.780862 0.600000 0.977273 0.848666 0.440657 0.495076 0.123009 0.188447 0.392546 0.422980 0.508389 0.506493 0.682867 0.796896 0.720040 0.552389 0.860497 0.847354 0.683350 0.528466 0.553311 0.643130 0.562300 0.463618 0.480281 0.205100 0.000000 0.000000 0.000000 0.000000 -9999.000000 -9999.000000 -9999.000000 -9999.000000 -9999.000000 -9999.000000 -9999.000000 -9999.000000 -9999.000000 -9999.000000 -9999.000000 -9999.000000 -9999.000000 -9999.000000 -9999.000000 -9999.000000 -9999.000000 -9999.000000 -9999.000000 -9999.000000 -9999.000000 
0.000000 0.040984 0.289141 0.317551 0.369318 0.352459 0.233586 0.210227 0.327020 0.147003 0.001894 0.000631 0.064394 0.173611 0.147541 0.059975 0.211223 0.485840 0.471591 0.492717 0.326726 0.040511 0.228964 0.474383 0.877975 0.677028 0.368899 0.542990 0.621339 0.753943 0.612272 0.236111 0.108352 0.327668 0.412643 0.517860 0.700413 0.651877 0.520314 0.724959 0.839151 0.654444 0.507723 0.559472 0.523444 0.507872 0.560023 0.707778 0.574626 0.576383 0.635168 0.704375 0.863469 0.816651 0.705417 0.278909 0.000000 -9999.000000 -9999.000000 -9999.000000 -9999.000000 -9999.000000 -9999.000000 -9999.000000 -9999.000000 -9999.000000 -9999.000000 -9999.000000 -9999.000000 -9999.000000 -9999.000000 -9999.000000 -9999.000000 -9999.000000 -9999.000000 -9999.000000 -9999.000000 -9999.000000 
0.000000 0.013319 0.292929 0.322398 0.422348 0.389905 0.434343 0.493064 0.443813 0.039723 0.054924 0.140694 0.208333 0.165404 0.154040 0.131313 0.355836 0.495904 0.497484 0.361675 0.039899 0.062262 0.381846 0.206197 0.742977 0.666896 0.513441 0.633560 0.746565 0.544994 0.468472 0.325819 0.203918 0.930558 0.737163 0.737423 0.934487 0.904564 0.796571 0.560337 0.729816 0.602932 0.496300 0.496308 0.460868 0.436002 0.441834 0.608253 0.564706 0.566562 0.730906 0.662801 0.754848 0.789447 0.017985 0.000000 0.000000 0.000000 -9999.000000 -9999.000000 -9999.000000 -9999.000000 -9999.000000 -9999.000000 -9999.000000 -9999.000000 -9999.000000 -9999.000000 -9999.000000 -9999.000000 -9999.000000 -9999.000000 -9999.000000 -9999.000000 -9999.000000 -9999.000000 -9999.000000 -9999.000000 
0.000000 0.000000 0.092172 0.071970 0.137626 0.417929 0.484217 0.492744 0.376574 0.006944 0.103535 0.317350 0.277778 0.038510 0.009470 0.007561 0.040404 0.338812 0.457778 0.112873 0.000000 0.012674 0.273531 0.236341 0.150824 0.354761 0.787881 0.885857 0.905783 0.648696 0.487990 0.395739 0.471985 0.754231 0.694729 0.755420 0.878218 0.889653 0.954800 0.601652 0.496510 0.379213 0.612300 0.505900 0.342354 0.350897 0.435246 0.509787 0.598852 0.501666 0.522454 0.477071 0.610646 0.641683 0.000000 0.000000 0.000000 0.000000 -9999.000000 -9999.000000 -9999.000000 -9999.000000 -9999.000000 -9999.000000 -9999.000000 -9999.000000 -9999.000000 -9999.000000 -9999.000000 -9999.000000 -9999.000000 -9999.000000 -9999.000000 -9999.000000 -9999.000000 -9999.000000 -9999.000000 1.000000 
0.000000 0.004487 0.003149 0.000000 0.101641 0.487697 0.488959 0.282197 0.018262 0.007576 0.116719 0.365931 0.321970 0.005031 0.000000 0.000000 0.000000 0.017078 0.055238 0.000632 0.000000 0.005063 0.056652 0.059085 0.002535 0.074910 0.459722 0.798985 0.928374 0.746673 0.505085 0.456124 0.262385 0.645707 0.887449 0.496202 0.770034 0.657006 0.765694 0.512327 0.197993 0.303997 0.518400 0.464014 0.415872 0.348767 0.420734 0.658882 0.762218 0.589987 0.366484 0.514925 0.591942 0.566987 0.000000 0.000000 0.000000 0.000000 -9999.000000 -9999.000000 -9999.000000 -9999.000000 -9999.000000 -9999.000000 -9999.000000 -9999.000000 -9999.000000 -9999.000000 -9999.000000 -9999.000000 -9999.000000 -9999.000000 -9999.000000 -9999.000000 -9999.000000 -9999.000000 -9999.000000 -9999.000000 
0.000000 0.151515 0.219066 0.075758 0.291667 0.527112 0.463430 0.129419 0.000000 0.090278 0.318182 0.440101 0.435606 0.040201 0.000000 0.000000 0.000000 0.015190 0.058413 0.003159 0.088030 0.153359 0.005685 0.000631 0.005682 0.017088 0.019570 0.277842 0.966371 0.933488 0.779754 0.542115 0.173782 0.498139 0.784674 0.559543 0.430061 0.468830 0.307667 0.470611 0.042961 0.124946 0.506049 0.505188 0.505744 0.394084 0.346841 0.776591 0.893569 0.673919 0.465015 0.725487 0.783034 0.640646 0.000000 0.000000 0.000000 0.000000 -9999.000000 -9999.000000 -9999.000000 -9999.000000 -9999.000000 -9999.000000 -9999.000000 -9999.000000 -9999.000000 -9999.000000 -9999.000000 -9999.000000 -9999.000000 -9999.000000 -9999.000000 -9999.000000 -9999.000000 -9999.000000 -9999.000000 -9999.000000 
0.000000 0.456439 0.351641 0.462121 0.458965 0.424242 0.352904 0.066288 0.000000 0.094637 0.357955 0.415404 0.447319 0.103920 0.000000 0.000000 0.003157 0.173502 0.280000 0.280557 0.468730 0.459545 0.184111 0.272727 0.363636 0.227416 0.187063 0.538897 0.982290 0.827157 0.550826 0.736430 0.482377 0.457674 0.135272 0.919366 0.868509 0.292120 0.554179 0.864415 0.442422 0.424281 0.531033 0.765617 0.693642 0.507926 0.367386 0.708146 0.674520 0.656004 0.790598 0.692550 0.576628 0.366679 0.000000 0.000000 0.000000 0.000000 -9999.000000 -9999.000000 -9999.000000 -9999.000000 -9999.000000 -9999.000000 -9999.000000 -9999.000000 -9999.000000 -9999.000000 -9999.000000 -9999.000000 -9999.000000 -9999.000000 -9999.000000 -9999.000000 -9999.000000 -9999.000000 -9999.000000 -9999.000000 
0.000000 0.223126 0.347634 0.488636 0.416141 0.287247 0.126263 0.069444 0.008805 0.016917 0.130435 0.172653 0.209629 0.118735 0.000000 0.000000 0.001263 0.136192 0.321519 0.435086 0.496222 0.499061 0.486759 0.494637 0.496222 0.525682 0.506024 0.759356 0.937302 0.810177 0.525473 0.847776 0.785578 0.593784 0.292209 0.794807 0.737497 0.541095 0.371159 0.495123 0.607571 0.562434 0.452997 0.691164 0.859350 0.641860 0.484954 0.529301 0.446854 0.710506 0.828060 0.557566 0.706965 0.530927 0.000000 0.000000 0.000000 0.000000 -9999.000000 -9999.000000 -9999.000000 -9999.000000 -9999.000000 -9999.000000 -9999.000000 -9999.000000 -9999.000000 -9999.000000 -9999.000000 -9999.000000 -9999.000000 -9999.000000 -9999.000000 -9999.000000 -9999.000000 -9999.000000 -9999.000000 -9999.000000 
0.000000 0.000558 0.000528 0.484217 0.374369 0.285985 0.194077 0.094697 0.067114 0.000000 0.000000 0.000630 0.030790 0.161616 0.000000 0.000000 0.000000 0.162247 0.325552 0.371843 0.493703 0.500000 0.500000 0.500000 0.500000 0.515496 0.484117 0.686539 0.868104 0.598569 0.515126 0.686287 0.840304 0.692108 0.512880 0.595917 0.866202 0.789271 0.183946 0.026693 0.000762 0.355327 0.413632 0.458339 0.498421 0.492455 0.494902 0.580943 0.468077 0.509848 0.776634 0.509541 0.463470 0.469769 0.000000 0.000000 0.000000 -9999.000000 -9999.000000 -9999.000000 -9999.000000 -9999.000000 -9999.000000 -9999.000000 -9999.000000 -9999.000000 -9999.000000 -9999.000000 -9999.000000 -9999.000000 -9999.000000 -9999.000000 -9999.000000 -9999.000000 -9999.000000 -9999.000000 -9999.000000 -9999.000000 
0.000211 0.000000 0.000000 0.000000 0.155574 0.000000 0.000000 0.040404 0.000000 0.000000 0.001262 0.050410 0.134131 0.160354 0.000000 0.000000 0.000000 0.095328 0.323270 0.340666 0.480854 0.500000 0.500000 0.500000 0.500000 0.310748 0.311631 0.301508 0.362603 0.480964 0.505696 0.534943 0.701100 0.784334 0.516074 0.621605 0.760991 0.380768 0.196793 0.000000 0.000000 0.253818 0.180670 0.332278 0.307595 0.057814 0.261215 0.482121 0.475859 0.429582 0.387261 0.415346 0.649345 0.318733 0.417017 0.033070 0.000000 -9999.000000 -9999.000000 -9999.000000 -9999.000000 -9999.000000 -9999.000000 -9999.000000 -9999.000000 -9999.000000 -9999.000000 -9999.000000 -9999.000000 -9999.000000 -9999.000000 -9999.000000 -9999.000000 -9999.000000 -9999.000000 -9999.000000 -9999.000000 -9999.000000 
0.000000 0.000000 0.000000 0.000000 0.000000 0.000000 0.000000 0.000000 0.000000 0.011740 0.103904 0.157828 0.161616 0.161616 0.000000 0.000000 0.000000 0.015704 0.199598 0.409091 0.500000 0.500000 0.500000 0.500000 0.331015 0.005838 0.010069 0.001259 0.012587 0.400869 0.503795 0.505243 0.511378 0.929129 0.624811 0.490610 0.805271 0.642928 0.686264 0.000000 0.015779 0.000000 0.018461 0.307689 0.127549 0.000605 0.170385 0.649003 0.412874 0.614374 0.818987 0.513358 0.572983 0.634383 0.731095 0.080708 0.000000 -9999.000000 -9999.000000 -9999.000000 -9999.000000 -9999.000000 -9999.000000 -9999.000000 -9999.000000 -9999.000000 -9999.000000 -9999.000000 -9999.000000 -9999.000000 -9999.000000 -9999.000000 -9999.000000 -9999.000000 -9999.000000 -9999.000000 -9999.000000 -9999.000000 
0.500000 0.250000 0.000000 0.016667 0.025000 0.021875 0.001667 0.000000 0.000000 0.000000 0.106902 0.161616 0.080808 0.000000 0.000000 0.000000 0.000000 0.000000 0.000000 0.500000 0.500000 0.500000 0.500000 0.500000 0.251007 0.000000 0.000000 0.000000 0.008788 0.437736 0.504093 0.504738 0.506835 0.995558 0.812824 0.539773 0.873019 0.832120 0.359712 0.000047 0.269286 0.106414 0.126203 0.336405 0.247098 0.117094 0.348245 0.591884 0.494945 0.725069 0.943969 0.836694 0.518767 0.578592 0.670049 0.299927 -9999.000000 -9999.000000 -9999.000000 -9999.000000 -9999.000000 -9999.000000 -9999.000000 -9999.000000 -9999.000000 -9999.000000 -9999.000000 -9999.000000 -9999.000000 -9999.000000 -9999.000000 -9999.000000 -9999.000000 -9999.000000 -9999.000000 -9999.000000 -9999.000000 -9999.000000 
0.500000 0.500000 0.298059 0.050000 0.046875 0.009375 0.000000 0.000000 0.000000 0.000000 0.053872 0.000000 0.000000 0.000000 0.000000 0.001255 0.002519 0.016414 0.127445 0.364000 0.500000 0.500000 0.500000 0.500000 0.250000 0.000000 0.000000 0.000000 0.100071 0.587791 0.575126 0.546090 0.532536 0.578511 0.791766 0.742596 0.611615 0.496831 0.390409 0.268335 0.333754 0.318133 0.507614 0.541295 0.555113 0.669432 0.616518 0.596984 0.501080 0.569021 0.699679 0.679509 0.619950 0.600568 0.544177 0.331579 -9999.000000 -9999.000000 -9999.000000 -9999.000000 -9999.000000 -9999.000000 -9999.000000 -9999.000000 -9999.000000 -9999.000000 -9999.000000 -9999.000000 -9999.000000 -9999.000000 -9999.000000 -9999.000000 -9999.000000 -9999.000000 -9999.000000 -9999.000000 -9999.000000 -9999.000000 
0.500000 0.500000 0.290000 0.050000 0.015635 0.000000 0.002861 0.232109 0.331658 0.161616 0.000000 0.000000 0.000000 0.000000 0.016134 0.000571 0.000000 0.286616 0.219489 0.077962 0.500000 0.500000 0.500000 0.457500 0.250000 0.000000 0.000000 0.420060 1.000000 0.993726 0.989912 0.790108 0.561626 0.054278 0.727964 0.703738 0.576863 0.438354 0.520267 0.486828 0.450374 0.706502 0.630536 0.585206 0.657748 0.679517 0.593397 0.559645 0.504023 0.694826 0.566565 0.550798 0.543810 0.555819 0.470273 0.262802 -9999.000000 -9999.000000 0.000000 0.000000 -9999.000000 -9999.000000 -9999.000000 -9999.000000 -9999.000000 -9999.000000 -9999.000000 -9999.000000 -9999.000000 -9999.000000 -9999.000000 -9999.000000 -9999.000000 -9999.000000 -9999.000000 -9999.000000 -9999.000000 -9999.000000 
0.500000 0.500000 0.275000 0.044726 0.101577 0.261364 0.425972 0.500000 0.472965 0.449958 0.000000 0.000000 0.000000 0.000000 0.022972 0.001610 0.226297 0.169880 0.078502 0.017249 0.000071 0.000135 0.000000 0.276957 0.113087 0.000000 0.000000 0.478917 1.000000 1.000000 1.000000 0.903980 0.655736 0.451197 0.987876 0.670612 0.552082 0.612685 0.507576 0.478683 0.466901 0.786347 0.906403 0.757852 0.524928 0.627629 0.618354 0.689962 0.700000 0.882055 0.886086 0.183579 0.348858 0.631710 0.631057 0.270637 -9999.000000 -9999.000000 0.000000 0.000000 0.000000 -9999.000000 -9999.000000 -9999.000000 -9999.000000 -9999.000000 -9999.000000 -9999.000000 -9999.000000 -9999.000000 -9999.000000 -9999.000000 -9999.000000 -9999.000000 -9999.000000 -9999.000000 -9999.000000 -9999.000000 
0.500000 0.443750 0.360109 0.480534 0.488080 0.498435 0.500000 0.500000 0.446855 0.418350 0.481407 0.033333 0.000000 0.000000 0.011745 0.222787 0.494949 0.033895 0.000000 0.000000 0.000195 0.000000 0.114494 0.226898 0.000000 0.000250 0.000000 0.000000 0.394453 0.984365 1.000000 0.928707 0.659119 0.950449 0.947790 0.585555 0.530342 0.397005 0.360298 0.423150 0.419502 0.621093 0.923144 0.753797 0.502813 0.581205 0.577622 0.503411 0.690440 0.606813 0.689453 0.401308 0.460179 0.715611 0.718696 0.317347 0.000000 -9999.000000 -9999.000000 0.000000 0.000000 -9999.000000 -9999.000000 -9999.000000 -9999.000000 -9999.000000 -9999.000000 -9999.000000 -9999.000000 -9999.000000 -9999.000000 -9999.000000 -9999.000000 -9999.000000 -9999.000000 -9999.000000 -9999.000000 -9999.000000 
0.500000 0.500000 0.493516 0.500000 0.500000 0.500000 0.500000 0.500000 0.338170 0.423611 0.477904 0.276942 0.000000 0.000000 0.005006 0.448299 0.269880 0.153333 0.030697 0.001682 0.069999 0.015544 0.320707 0.097229 0.001046 0.000000 0.000000 0.000000 0.000000 0.420063 1.000000 0.978297 0.658509 0.736110 0.607307 0.181736 0.234168 0.121442 0.074092 0.259993 0.366534 0.567574 0.900997 0.673638 0.528022 0.575541 0.505638 0.461761 0.757750 0.663756 0.462083 0.431886 0.158599 0.565301 0.702180 0.322638 0.000000 0.000000 0.000000 0.000000 -9999.000000 -9999.000000 -9999.000000 -9999.000000 -9999.000000 -9999.000000 -9999.000000 -9999.000000 -9999.000000 -9999.000000 -9999.000000 -9999.000000 -9999.000000 -9999.000000 -9999.000000 -9999.000000 -9999.000000 -9999.000000 
1.000000 1.000000 0.500000 0.500000 0.500000 0.500000 0.500000 0.500000 0.337644 0.418663 0.484848 0.492462 0.000000 0.000000 0.000000 0.500000 0.500000 0.500000 0.000000 0.003788 0.107386 0.036182 0.082167 0.019781 0.000000 0.000000 0.000000 0.000000 0.000000 0.000000 0.000000 0.527182 0.625285 0.262841 0.377736 0.170899 0.311942 0.466039 0.336661 0.440554 0.479495 0.625079 0.894328 0.860060 0.846638 0.816288 0.519539 0.638876 0.903176 0.659264 0.226307 0.553257 0.442799 0.519117 0.490667 0.242597 0.000000 0.000000 0.000000 0.000000 -9999.000000 -9999.000000 -9999.000000 -9999.000000 -9999.000000 -9999.000000 -9999.000000 -9999.000000 -9999.000000 -9999.000000 -9999.000000 -9999.000000 -9999.000000 -9999.000000 -9999.000000 -9999.000000 -9999.000000 -9999.000000 
1.000000 1.000000 0.500000 0.500000 0.500000 0.500000 0.500000 0.435186 0.337200 0.397096 0.473485 0.468813 0.330000 0.165000 0.207500 0.333333 0.500000 0.250195 0.000000 0.008365 0.061593 0.000000 0.000000 0.001016 0.003781 0.136128 0.064862 0.000000 0.000000 0.000000 0.000000 0.000000 0.249210 0.484484 0.584209 0.350306 0.118117 0.399175 0.476245 0.478662 0.501855 0.616339 0.669551 0.681339 0.716702 0.669748 0.835932 0.829528 0.844957 0.498069 0.172993 0.896770 0.793577 0.704906 0.645570 0.229515 0.000000 0.000000 0.000000 -9999.000000 -9999.000000 -9999.000000 -9999.000000 -9999.000000 -9999.000000 -9999.000000 -9999.000000 -9999.000000 -9999.000000 -9999.000000 -9999.000000 -9999.000000 -9999.000000 -9999.000000 -9999.000000 -9999.000000 -9999.000000 -9999.000000 
1.000000 1.000000 1.000000 0.500000 0.500000 0.500000 0.500000 0.418820 0.350727 0.338972 0.330413 0.330000 0.330000 0.330000 0.330000 1.000000 1.000000 0.000000 0.004389 0.043551 0.000000 0.000000 0.000000 0.000282 0.000309 0.462143 0.426246 0.363376 0.000000 0.000000 0.000000 0.000000 0.000000 0.372684 0.438760 0.009419 0.000590 0.240553 0.500945 0.513193 0.629472 0.502797 0.855718 0.913620 0.639811 0.508506 0.787879 0.873106 0.630202 0.549287 0.683345 0.495633 0.053307 0.268165 0.420224 0.601050 0.654815 0.000000 -9999.000000 -9999.000000 -9999.000000 -9999.000000 -9999.000000 -9999.000000 -9999.000000 -9999.000000 -9999.000000 -9999.000000 -9999.000000 -9999.000000 -9999.000000 -9999.000000 -9999.000000 -9999.000000 -9999.000000 -9999.000000 -9999.000000 -9999.000000 
0.000000 0.000000 0.000000 1.000000 1.000000 1.000000 1.000000 1.000000 0.332986 0.330000 0.330000 0.330000 0.330000 0.330000 0.330000 1.000000 1.000000 1.000000 1.000000 1.000000 1.000000 0.000000 0.090426 0.000000 0.000000 0.319000 0.260381 0.500000 0.340836 0.000000 0.000000 0.000000 0.000311 0.000181 0.050849 0.079698 0.160713 0.510878 0.623550 0.525129 0.457200 0.623705 0.939653 0.976280 0.567730 0.498602 0.545410 0.634978 0.627745 0.776818 0.869663 0.845328 0.670857 0.428201 0.702601 0.713053 0.654430 0.000000 0.000000 -9999.000000 -9999.000000 -9999.000000 -9999.000000 -9999.000000 -9999.000000 -9999.000000 -9999.000000 -9999.000000 -9999.000000 -9999.000000 -9999.000000 -9999.000000 -9999.000000 -9999.000000 -9999.000000 -9999.000000 -9999.000000 -9999.000000 
0.000000 0.000000 0.000000 0.000000 1.000000 1.000000 1.000000 1.000000 0.330000 0.330000 0.330000 0.330000 0.330000 0.330000 0.330000 0.000000 0.000000 0.000000 0.000000 0.000000 0.000000 0.900000 0.450000 0.225000 0.000000 0.000000 0.079750 0.000000 0.500000 0.484375 0.000000 0.000000 0.000598 0.000365 0.407055 0.469597 0.496192 0.853632 0.989886 0.686484 0.436717 0.533109 0.637840 0.706079 0.573831 0.499201 0.485670 0.506689 0.478307 0.464650 0.645186 0.782123 0.815619 0.487638 0.559460 0.609299 0.745208 0.000000 0.000000 0.000000 -9999.000000 -9999.000000 -9999.000000 -9999.000000 -9999.000000 -9999.000000 -9999.000000 -9999.000000 -9999.000000 -9999.000000 -9999.000000 -9999.000000 -9999.000000 -9999.000000 -9999.000000 -9999.000000 -9999.000000 -9999.000000 
0.000000 0.000000 0.000000 0.000000 1.000000 1.000000 1.000000 1.000000 0.330000 0.330000 0.330000 0.330000 0.330000 0.330000 0.330000 0.000000 0.000000 0.000000 0.000000 0.000000 0.000000 0.000000 0.225000 0.095000 0.000000 0.000000 0.000000 0.000000 0.000000 0.500000 0.312500 0.250192 0.145480 0.000564 0.493513 0.493799 0.506582 0.738809 0.862173 0.638714 0.647500 0.432693 0.698774 0.617356 0.387458 0.422874 0.467624 0.552571 0.474009 0.591021 0.845213 0.581489 0.405672 0.376879 0.502754 0.347426 0.689712 0.483180 0.146798 0.000000 -9999.000000 -9999.000000 -9999.000000 -9999.000000 -9999.000000 -9999.000000 -9999.000000 -9999.000000 -9999.000000 -9999.000000 -9999.000000 -9999.000000 -9999.000000 -9999.000000 -9999.000000 -9999.000000 -9999.000000 -9999.000000 
0.000000 0.000000 0.000000 0.000000 1.000000 1.000000 1.000000 0.500000 0.443333 0.432000 0.398000 0.372500 0.330000 0.330000 0.000000 0.000000 0.000000 0.000000 0.000000 0.000000 0.000000 0.000000 0.000000 0.000000 0.000000 0.000000 0.000000 0.000000 0.000000 0.500000 0.500000 0.500000 0.425397 0.335013 0.473401 0.488369 0.502422 0.509894 0.587975 0.557613 0.826022 0.992019 0.739890 0.495005 0.349736 0.273876 0.428573 0.636030 0.443349 0.366424 0.327625 0.460408 0.513246 0.344837 0.667089 0.699189 0.720778 0.513633 0.248518 0.199709 -9999.000000 -9999.000000 -9999.000000 -9999.000000 -9999.000000 -9999.000000 -9999.000000 -9999.000000 -9999.000000 -9999.000000 -9999.000000 -9999.000000 -9999.000000 -9999.000000 -9999.000000 -9999.000000 -9999.000000 -9999.000000 
0.000000 0.000000 0.000000 0.000000 1.000000 1.000000 1.000000 0.500000 0.500000 0.500000 0.500000 0.500000 0.500000 1.000000 0.000000 0.000000 0.000000 0.000000 0.000000 0.000000 0.000000 0.000000 0.000000 0.000000 0.000000 0.000000 0.000000 0.000000 0.047177 0.289133 0.498116 0.500000 0.410273 0.331658 0.429296 0.497749 0.501571 0.514040 0.590736 0.628044 0.577592 0.820462 0.785976 0.702414 0.543414 0.439453 0.450552 0.503498 0.464228 0.246392 0.255824 0.497273 0.330785 0.395556 0.441810 0.611146 0.908286 0.748165 0.566732 0.296402 0.000000 -9999.000000 -9999.000000 -9999.000000 -9999.000000 -9999.000000 -9999.000000 -9999.000000 -9999.000000 -9999.000000 -9999.000000 -9999.000000 -9999.000000 -9999.000000 -9999.000000 -9999.000000 -9999.000000 -9999.000000 
0.000000 0.000000 0.000000 0.000000 1.000000 1.000000 1.000000 0.500000 0.500000 0.500000 0.500000 0.500000 0.768354 1.000000 0.000000 0.000000 0.000000 0.000000 0.000000 0.000000 0.000000 0.000000 0.000000 0.000000 0.000000 0.000000 0.008979 0.036734 0.065206 0.135114 0.286102 0.402271 0.465779 0.373808 0.477517 0.531397 0.505919 0.551550 0.567259 0.524746 0.504732 0.550837 0.741143 0.699514 0.587848 0.479370 0.500703 0.501514 0.496387 0.457130 0.474050 0.491568 0.422881 0.474909 0.395223 0.873891 0.709938 0.837212 0.728932 0.493609 0.000000 -9999.000000 -9999.000000 -9999.000000 -9999.000000 -9999.000000 -9999.000000 -9999.000000 -9999.000000 -9999.000000 -9999.000000 -9999.000000 -9999.000000 -9999.000000 -9999.000000 -9999.000000 -9999.000000 -9999.000000 
0.000000 0.000000 0.000000 0.000000 1.000000 1.000000 1.000000 0.500000 0.500000 0.500939 0.527673 0.805184 1.000000 1.000000 1.000000 0.000000 0.000000 0.000000 0.000000 0.000000 0.000000 0.000000 0.000000 0.000000 0.000000 0.070352 0.221497 0.010734 0.132015 0.060257 0.000000 0.502528 0.537730 0.503488 0.537002 0.498957 0.480288 0.817950 0.685225 0.538351 0.554495 0.757778 0.644089 0.586266 0.434185 0.468660 0.525292 0.517113 0.436399 0.319173 0.328572 0.418324 0.492602 0.510517 0.665228 0.863050 0.883781 0.572777 0.700765 0.646059 0.219788 0.058508 -9999.000000 -9999.000000 0.000000 -9999.000000 -9999.000000 -9999.000000 -9999.000000 -9999.000000 -9999.000000 -9999.000000 -9999.000000 -9999.000000 -9999.000000 -9999.000000 -9999.000000 -9999.000000 
0.000000 0.000000 0.000000 0.000000 1.000000 1.000000 1.000000 0.500000 0.500000 0.524290 0.829760 0.996863 1.000000 1.000000 1.000000 0.000000 0.000000 0.000000 0.000000 0.000000 0.000000 1.000000 0.000000 0.060000 0.000000 0.455060 0.461977 0.224124 0.165716 0.008893 0.000170 0.170322 0.826996 0.506936 0.499261 0.522268 0.541717 0.678678 0.832101 0.630172 0.696749 0.921270 0.537386 0.627732 0.548654 0.296041 0.564586 0.539154 0.625312 0.294056 0.388187 0.625478 0.637606 0.615511 0.323035 0.518779 0.710957 0.590042 0.698435 0.746647 0.607783 0.179719 0.000000 0.000000 0.000000 -9999.000000 -9999.000000 -9999.000000 -9999.000000 -9999.000000 -9999.000000 -9999.000000 -9999.000000 -9999.000000 -9999.000000 -9999.000000 -9999.000000 -9999.000000 
1.000000 1.000000 1.000000 1.000000 1.000000 1.000000 1.000000 0.500000 0.500000 0.819672 0.998740 1.000000 1.000000 1.000000 1.000000 1.000000 0.000000 0.000000 0.000000 0.000000 1.000000 1.000000 0.240000 0.180000 0.240000 0.408202 0.454545 0.188573 0.086435 0.026111 0.000287 0.124364 0.791878 0.525284 0.467037 0.491827 0.485887 0.517130 0.788570 0.587158 0.648066 0.928030 0.364542 0.659074 0.390384 0.188102 0.609430 0.656108 0.679509 0.541686 0.623607 0.890264 0.686668 0.637474 0.210788 0.587533 0.678615 0.493896 0.585778 0.727098 0.540007 0.361195 0.105423 0.000000 0.035285 -9999.000000 -9999.000000 -9999.000000 -9999.000000 -9999.000000 -9999.000000 -9999.000000 -9999.000000 -9999.000000 -9999.000000 -9999.000000 -9999.000000 -9999.000000 
1.000000 1.000000 1.000000 1.000000 1.000000 1.000000 1.000000 0.500000 0.755674 0.996241 0.998748 0.996234 0.998748 1.000000 0.666667 1.000000 1.000000 1.000000 1.000000 1.000000 1.000000 1.000000 0.240000 0.240000 0.240000 0.257881 0.294672 0.115530 0.063763 0.000000 0.000109 0.047237 0.722081 0.483886 0.518939 0.507576 0.490394 0.506480 0.520853 0.511450 0.512434 0.528093 0.870722 0.636474 0.403510 0.760447 0.666878 0.692405 0.563015 0.532319 0.572606 0.633094 0.552131 0.538660 0.604309 0.719718 0.499415 0.556804 0.708023 0.659301 0.569866 0.573317 0.644704 0.182777 -9999.000000 -9999.000000 -9999.000000 -9999.000000 -9999.000000 -9999.000000 -9999.000000 -9999.000000 -9999.000000 -9999.000000 -9999.000000 -9999.000000 -9999.000000 -9999.000000 
0.000000 0.000000 1.000000 1.000000 1.000000 1.000000 1.000000 1.000000 0.630257 0.707705 0.588086 0.443599 0.283019 0.000000 0.202278 0.000000 0.000000 1.000000 1.000000 1.000000 1.000000 1.000000 0.240000 0.240000 0.240150 0.241509 0.137626 0.241009 0.191288 0.046250 0.000110 0.000000 0.032258 0.162673 0.511643 0.502832 0.538350 0.589525 0.428815 0.511969 0.505984 0.528387 0.762508 0.607770 0.552508 0.803190 0.609911 0.647619 0.558228 0.690748 0.387342 0.411750 0.512452 0.478505 0.520279 0.493309 0.482968 0.505708 0.500871 0.533199 0.771463 0.795920 0.502782 0.426714 -9999.000000 -9999.000000 -9999.000000 -9999.000000 -9999.000000 -9999.000000 -9999.000000 -9999.000000 -9999.000000 -9999.000000 -9999.000000 -9999.000000 -9999.000000 -9999.000000 
0.000000 0.000000 1.000000 1.000000 0.000000 0.000000 0.000000 0.000000 0.274027 0.184264 0.163820 0.134518 0.107868 0.010069 0.000000 0.000000 0.000000 0.000000 1.000000 1.000000 1.000000 1.000000 0.240000 0.240000 0.225564 0.238005 0.148990 0.234848 0.181187 0.226554 0.016507 0.000017 0.000000 0.076594 0.498423 0.543506 0.661188 0.590859 0.708448 0.747223 0.530147 0.501074 0.375908 0.509274 0.449735 0.488706 0.639771 0.698413 0.416298 0.687817 0.430292 0.483471 0.573977 0.540683 0.630830 0.610023 0.584956 0.484659 0.501100 0.525005 0.707451 0.549546 0.536234 0.398352 0.282650 0.199401 0.470746 0.214545 -9999.000000 -9999.000000 -9999.000000 -9999.000000 -9999.000000 -9999.000000 -9999.000000 -9999.000000 -9999.000000 -9999.000000 
0.000000 0.000000 1.000000 0.000000 0.000000 0.000000 0.000000 0.000000 0.127700 0.204444 0.195942 0.161597 0.076825 0.000000 0.000000 0.000000 0.000000 0.025612 1.000000 1.000000 1.000000 1.000000 0.240000 0.240000 0.130785 0.082071 0.075126 0.141385 0.000000 0.144125 0.029618 0.006386 0.009968 0.011812 0.509801 0.945180 0.974083 0.724542 0.793701 0.792495 0.684290 0.521865 0.447108 0.512511 0.606149 0.209245 0.515719 0.888183 0.843175 0.891708 0.327755 0.270708 0.717149 0.709764 0.754898 0.591096 0.599403 0.462942 0.538949 0.688437 0.832909 0.632664 0.724731 0.704150 0.138466 0.365767 0.498647 0.240422 -9999.000000 -9999.000000 -9999.000000 -9999.000000 -9999.000000 -9999.000000 -9999.000000 -9999.000000 -9999.000000 -9999.000000 
0.220000 0.247500 0.220000 0.082513 0.000000 0.000000 0.000000 0.000000 0.112043 0.252738 0.192771 0.074873 0.002527 0.004414 0.001886 0.015019 0.051339 0.050919 1.000000 1.000000 1.000000 1.000000 0.240000 0.092639 0.000000 0.000000 0.058638 0.160985 0.151625 0.014732 0.069019 0.009841 0.011134 0.008811 0.436137 0.089887 0.089773 0.642711 0.711734 0.566254 0.758771 0.697597 0.680023 0.405832 0.701615 0.508772 0.447752 0.750308 0.835556 0.786435 0.619740 0.513421 0.835554 0.809461 0.245072 0.232579 0.458196 0.759930 0.838675 0.856491 0.881151 0.661260 0.892625 0.933990 0.404842 0.249494 0.693346 0.560850 -9999.000000 -9999.000000 -9999.000000 -9999.000000 -9999.000000 -9999.000000 -9999.000000 -9999.000000 -9999.000000 -9999.000000 
0.330000 0.330000 0.330000 0.000000 0.000000 0.000000 0.000000 0.000000 0.000000 0.330000 0.067626 0.000632 0.075126 0.054259 0.114754 0.135732 0.101928 0.077975 1.000000 1.000000 1.000000 1.000000 1.000000 0.000000 0.000000 0.000000 0.057935 0.158460 0.161616 0.000000 0.008621 0.003402 0.004436 0.115566 0.365592 0.090000 0.090000 0.985857 0.796098 0.538421 0.414513 0.739052 0.661021 0.634052 0.440159 0.608576 0.755542 0.693426 0.703680 0.680737 0.606189 0.460557 0.357874 0.455052 0.348877 0.131566 0.467941 0.653741 0.615943 0.528728 0.706203 0.368132 0.495550 0.469987 0.502423 0.462093 0.785260 0.437863 -9999.000000 -9999.000000 -9999.000000 -9999.000000 -9999.000000 -9999.000000 -9999.000000 -9999.000000 -9999.000000 -9999.000000 
0.330000 0.330000 0.330000 0.000000 0.000000 0.000000 0.000000 0.000000 0.000000 0.056801 0.000000 0.000000 0.152201 0.056818 0.107256 0.130051 0.080808 0.091368 1.000000 1.000000 1.000000 1.000000 1.000000 0.000000 0.000000 0.000000 0.057305 0.153409 0.080808 0.000000 0.000095 0.000000 0.085317 0.503807 0.444316 0.370779 0.555295 0.996203 0.817518 0.367090 0.593142 0.673768 0.636454 0.677644 0.421734 0.266317 0.583281 0.618703 0.691672 0.643411 0.668866 0.488957 0.324602 0.543908 0.558263 0.266426 0.226660 0.150095 0.615501 0.772679 0.636637 0.539212 0.584868 0.762183 0.812343 0.809572 0.879689 0.798232 -9999.000000 -9999.000000 -9999.000000 -9999.000000 -9999.000000 -9999.000000 -9999.000000 -9999.000000 -9999.000000 -9999.000000 
0.330000 0.330000 0.330000 0.000000 0.000000 0.000000 0.000000 0.000000 0.000000 0.000000 0.000000 0.000000 0.200155 0.082155 0.029313 0.074074 0.094978 0.080808 1.000000 1.000000 1.000000 1.000000 1.000000 0.000000 0.000000 0.019006 0.069992 0.124054 0.000000 0.067768 0.039626 0.105427 0.153165 0.574039 0.613636 0.531781 0.515132 0.691634 0.631651 0.593654 0.546162 0.734595 0.746282 0.625553 0.435273 0.423546 0.484666 0.555558 0.578780 0.686586 0.390774 0.436521 0.122777 0.520642 0.460080 0.030885 0.010711 0.181761 0.626192 0.984157 0.986734 0.957856 0.918497 0.799910 0.896463 0.811189 0.433877 0.942514 0.305241 -9999.000000 -9999.000000 -9999.000000 -9999.000000 -9999.000000 -9999.000000 -9999.000000 -9999.000000 -9999.000000 
0.330000 0.330000 0.330000 0.165018 0.000000 0.000000 0.000000 0.000000 0.000000 0.000000 0.000000 0.066341 0.093842 0.103799 0.061793 0.051637 0.074074 0.670000 0.670000 0.670000 0.670000 0.670000 0.670000 1.000000 1.000000 1.000000 1.000000 1.000000 0.444508 0.119062 0.263882 0.098177 0.000000 0.250156 0.529560 0.500313 0.500626 0.535884 0.780245 0.574609 0.520880 0.688065 0.733571 0.580553 0.651542 0.494064 0.865182 0.640374 0.546835 0.725667 0.258298 0.358095 0.224980 0.327370 0.154815 0.299821 0.355278 0.521740 0.688887 0.982413 0.999369 0.986742 0.976405 0.949492 0.576801 0.570437 0.648363 0.906092 0.622780 0.194899 -9999.000000 -9999.000000 -9999.000000 -9999.000000 -9999.000000 -9999.000000 -9999.000000 -9999.000000 
0.330000 0.330000 0.330000 0.220000 0.000000 0.000000 0.000000 0.000000 0.000000 1.000000 1.000000 1.000000 1.000000 1.000000 1.000000 1.000000 0.670000 0.670000 0.670000 0.670000 0.670000 0.670000 0.575865 0.500000 0.500000 1.000000 1.000000 1.000000 0.490675 0.096521 0.000000 0.008317 0.000000 0.000000 0.592160 0.444997 0.390032 0.656524 0.978579 0.914700 0.562903 0.545451 0.744244 0.618404 0.550840 0.613347 0.682276 0.646221 0.650429 0.719265 0.482543 0.389284 0.127378 0.256040 0.483449 0.565946 0.450102 0.665611 0.604108 0.905770 0.997449 0.925152 0.971671 0.489673 0.351906 0.885954 0.615819 0.154488 0.584677 0.662859 0.352699 0.367671 -9999.000000 -9999.000000 -9999.000000 -9999.000000 -9999.000000 -9999.000000 
0.500000 0.331667 0.165000 0.082500 0.000000 0.000000 0.000000 1.000000 1.000000 1.000000 1.000000 1.000000 1.000000 1.000000 1.000000 1.000000 0.670000 0.670000 0.670000 0.670000 0.670000 0.633556 0.500000 0.500000 0.500000 0.500000 1.000000 0.000000 0.248481 0.000000 0.000000 0.000619 0.000000 0.000000 0.603364 0.505587 0.546389 0.370553 0.922145 0.872506 0.362869 0.367657 0.708717 0.729797 0.672853 0.677883 0.715999 0.662707 0.081926 0.529594 0.501573 0.511421 0.460231 0.328080 0.498253 0.545564 0.452332 0.734452 0.684338 0.804902 0.868515 0.789500 0.720562 0.596176 0.282631 0.526854 0.400065 0.238641 0.747419 0.765261 0.853898 0.877491 0.709556 0.484586 -9999.000000 -9999.000000 -9999.000000 -9999.000000 
0.500000 0.250000 0.000000 0.000000 0.000000 0.000000 0.000000 1.000000 1.000000 1.000000 1.000000 1.000000 1.000000 1.000000 1.000000 1.000000 0.670000 0.670000 0.670000 0.670000 0.669173 0.561713 0.500000 0.500000 0.500000 0.500000 0.000000 0.000000 0.000000 0.000000 0.000000 0.000532 0.000000 0.000652 0.685038 0.620356 0.553194 0.364366 0.724232 0.660862 0.434473 0.395019 0.727032 0.612833 0.821255 0.669625 0.566817 0.621263 0.301617 0.420688 0.511421 0.652509 0.668033 0.361686 0.144678 0.622903 0.420164 0.496397 0.368068 0.803317 0.773684 0.730533 0.451390 0.796331 0.474322 0.770538 0.659696 0.194327 0.616584 0.777429 0.866367 0.846251 0.952827 0.591263 0.183544 -9999.000000 -9999.000000 -9999.000000 
0.500000 0.000000 0.000000 0.000000 0.000000 0.000000 0.000000 1.000000 1.000000 1.000000 1.000000 1.000000 1.000000 1.000000 1.000000 1.000000 0.670000 0.670000 0.670000 0.670000 0.654500 0.510692 0.500000 0.500000 0.500000 0.500000 0.000000 0.000000 0.000000 0.000000 0.000000 0.000000 0.001875 0.125703 0.592314 0.815492 0.914719 0.628307 0.710662 0.525913 0.595291 0.488548 0.561190 0.632333 0.806595 0.517302 0.265668 0.321784 0.493110 0.560635 0.300566 0.218493 0.351443 0.642715 0.728366 0.540215 0.598691 0.424273 0.342740 0.755245 0.936695 0.942165 0.980182 0.977206 0.988636 0.792274 0.281979 0.842261 0.775227 0.794673 0.868227 0.842465 0.913291 0.934509 0.453157 -9999.000000 -9999.000000 -9999.000000 
0.500000 0.000000 0.000000 0.000000 0.000000 0.000000 0.191359 0.388604 0.197791 0.000000 0.000000 0.000000 0.000000 0.000000 1.000000 1.000000 0.670000 0.670000 0.670000 0.670000 0.599246 0.500626 0.500000 0.500000 0.500000 0.500000 0.000000 0.000000 0.000000 0.000000 0.000000 0.000000 0.000937 0.497487 0.342803 0.736111 0.817666 0.100749 0.521326 0.501464 0.481202 0.523244 0.455472 0.461048 0.383112 0.316177 0.083146 0.431776 0.363095 0.386172 0.703228 0.351034 0.280594 0.580903 0.457066 0.378167 0.337087 0.071017 0.333333 0.712090 0.916614 0.917472 0.888387 0.986064 0.999368 0.789924 0.279168 0.652404 0.768504 0.958640 0.977176 0.895431 0.971882 0.830799 0.655085 0.003988 0.212196 -9999.000000 
0.250000 0.132265 0.000000 0.000000 0.000000 0.182589 0.380037 0.397177 0.243573 0.000000 0.000000 0.000000 0.000000 0.000000 1.000000 1.000000 0.670000 0.670000 0.670000 0.646494 0.567449 0.500000 0.500000 0.500000 0.500000 0.500000 0.000000 0.000000 0.000000 0.000000 0.000000 0.000502 0.000052 0.000000 0.328283 0.368454 0.834596 0.736974 0.529365 0.485849 0.336496 0.078325 0.094078 0.823279 0.661621 0.497197 0.373197 0.556125 0.236041 0.243671 0.331001 0.109137 0.497723 0.378939 0.569229 0.734939 0.877150 0.313815 0.526389 0.909183 0.999368 0.882599 0.837801 0.893770 0.771423 0.943564 0.952752 0.951935 0.058624 0.485068 0.812963 0.772392 0.946502 0.992386 0.779188 0.372254 -9999.000000 -9999.000000 
0.161616 0.120907 0.161616 0.125420 0.256856 0.354574 0.395833 0.416667 0.407035 0.000000 0.000000 0.000000 0.000000 0.030662 1.000000 1.000000 1.000000 1.000000 1.000000 0.161616 0.275168 0.331658 0.416040 0.500000 0.500000 1.000000 0.000000 0.000000 0.000000 0.000000 0.000000 0.000002 0.000000 0.002285 0.100168 0.499054 0.856692 0.501429 0.040828 0.197988 0.557741 0.659161 0.456533 0.777084 0.663436 0.425741 0.224468 0.468234 0.443233 0.363521 0.258115 0.264799 0.576133 0.551367 0.317451 0.336553 0.657259 0.240272 0.154482 0.753627 0.942405 0.843880 0.774512 0.897301 0.418326 0.518520 0.627638 0.775438 0.626914 0.649429 0.539314 0.615002 0.811335 0.836628 0.694356 0.554921 0.019325 -9999.000000 
0.161616 0.161616 0.161616 0.161616 0.208333 0.348485 0.396595 0.454545 0.376181 0.051136 0.000000 0.020126 0.092322 0.170465 0.309490 0.330000 0.330000 0.330000 0.281973 0.209864 0.161616 0.161616 0.161616 0.246231 0.330000 0.330000 0.330000 0.000000 0.000000 0.000000 0.003677 0.000000 0.000249 0.001280 0.000000 0.496526 0.449836 0.000000 0.018000 0.913708 0.793578 0.672816 0.821921 0.374785 0.385824 0.695947 0.677306 0.575143 0.577125 0.447335 0.476134 0.457162 0.417353 0.415509 0.693108 0.376042 0.632252 0.454173 0.421220 0.751111 0.832486 0.825839 0.574001 0.840417 0.724614 0.634345 0.674075 0.522108 0.789292 0.738015 0.664048 0.475769 0.755935 0.707043 0.656707 0.419683 -9999.000000 0.047047 
0.281649 0.161616 0.161616 0.161616 0.162247 0.292929 0.433712 0.470328 0.345936 0.272096 0.102208 0.153216 0.161616 0.268293 0.330000 0.330000 0.330000 0.330000 0.330000 0.185029 0.161616 0.161616 0.161616 0.262571 0.330000 0.330000 0.247500 0.110000 0.000000 0.000000 0.003762 0.010101 0.000617 0.000026 0.000317 0.295400 0.426976 0.000000 0.000000 0.997983 0.000000 0.532023 0.813286 0.770790 0.347843 0.486533 0.320267 0.511421 0.613817 0.654430 0.578046 0.656980 0.549464 0.744898 0.543145 0.390316 0.604444 0.427302 0.482562 0.797332 0.775588 0.780813 0.850674 0.844471 0.626316 0.483485 0.754707 0.791501 0.835620 0.841907 0.740247 0.753205 0.782750 0.748509 0.708122 0.702532 -9999.000000 -9999.000000 
0.500000 0.301084 0.161616 0.161616 0.102208 0.017045 0.215278 0.416035 0.331870 0.302516 0.164141 0.161616 0.164773 0.303774 0.330000 0.330000 0.329161 0.330000 0.327694 0.206179 0.161616 0.161616 0.162879 0.326405 0.330000 0.330000 0.330000 0.000000 0.000000 0.000000 0.000000 0.004220 0.000135 0.002124 0.001682 0.496580 1.000000 0.333333 0.302708 0.027352 0.035804 0.546831 0.937284 0.890499 0.177523 0.423946 0.237421 0.616213 0.894670 0.552748 0.578313 0.818378 0.424147 0.617831 0.541966 0.518976 0.566155 0.728254 0.403631 0.788701 0.637279 0.617871 0.991766 0.997470 0.769649 0.661732 0.804237 0.764606 0.811757 0.866836 0.932479 0.858638 0.801873 0.762967 0.767812 0.711027 0.768340 0.284875 
0.500000 0.464942 0.170875 0.155593 0.031119 0.000000 0.006711 0.163880 0.330000 0.274937 0.161616 0.161616 0.180672 0.323825 0.330000 0.330000 0.330000 0.330000 0.328321 0.214945 0.161616 0.161616 0.176471 0.326377 0.330000 0.330000 0.330000 0.000000 0.000000 0.000000 0.000000 0.000835 0.000000 0.004285 0.000000 0.420833 1.000000 0.964467 0.000000 0.070000 0.682539 0.999158 0.980371 0.626807 0.332057 0.402954 0.362585 0.609915 0.627939 0.500000 0.644250 0.763734 0.113281 0.264860 0.546872 0.515535 0.578535 0.906994 0.289575 0.622260 0.840372 0.361252 0.960371 0.990749 0.983953 0.955274 0.594585 0.771501 0.820405 0.910624 0.983383 0.914948 0.787284 0.759883 0.810651 0.740051 0.668011 0.211680 
