ncols        78
nrows        66
xllcorner    -87.500000000000
yllcorner    25.000000000000
cellsize     0.083333333333
NODATA_value -9999.00000000
-9999.00000000 -9999.00000000 -9999.00000000 -9999.00000000 0.00000000 0.00000000 -9999.00000000 -9999.00000000 -9999.00000000 -9999.00000000 -9999.00000000 0.00000000 0.00000000 0.00000000 0.00000000 0.00000000 -9999.00000000 -9999.00000000 -9999.00000000 -9999.00000000 -9999.00000000 -9999.00000000 -9999.00000000 -9999.00000000 -9999.00000000 -9999.00000000 -9999.00000000 -9999.00000000 -9999.00000000 -9999.00000000 -9999.00000000 -9999.00000000 -9999.00000000 -9999.00000000 -9999.00000000 -9999.00000000 -9999.00000000 -9999.00000000 -9999.00000000 -9999.00000000 -9999.00000000 -9999.00000000 -9999.00000000 -9999.00000000 -9999.00000000 -9999.00000000 -9999.00000000 -9999.00000000 -9999.00000000 -9999.00000000 -9999.00000000 -9999.00000000 -9999.00000000 -9999.00000000 -9999.00000000 -9999.00000000 -9999.00000000 -9999.00000000 -9999.00000000 -9999.00000000 -9999.00000000 -9999.00000000 -9999.00000000 -9999.00000000 -9999.00000000 -9999.00000000 -9999.00000000 -9999.00000000 -9999.00000000 -9999.00000000 -9999.00000000 -9999.00000000 0.00000000 0.00000000 0.00000000 0.00000000 0.00000000 0.00000000 
-9999.00000000 -9999.00000000 -9999.00000000 0.00000000 0.00000000 0.00000000 0.00000000 0.00047684 0.00005717 0.00005327 0.00022463 0.00008828 0.00000000 0.00003663 0.00007668 -9999.00000000 -9999.00000000 -9999.00000000 -9999.00000000 -9999.00000000 -9999.00000000 -9999.00000000 -9999.00000000 -9999.00000000 -9999.00000000 -9999.00000000 -9999.00000000 -9999.00000000 -9999.00000000 -9999.00000000 -9999.00000000 -9999.00000000 -9999.00000000 -9999.00000000 -9999.00000000 -9999.00000000 -9999.00000000 -9999.00000000 -9999.00000000 -9999.00000000 -9999.00000000 -9999.00000000 -9999.00000000 -9999.00000000 -9999.00000000 -9999.00000000 -9999.00000000 -9999.00000000 -9999.00000000 -9999.00000000 -9999.00000000 -9999.00000000 -9999.00000000 -9999.00000000 -9999.00000000 -9999.00000000 -9999.00000000 -9999.00000000 -9999.00000000 -9999.00000000 -9999.00000000 -9999.00000000 -9999.00000000 -9999.00000000 -9999.00000000 -9999.00000000 -9999.00000000 -9999.00000000 -9999.00000000 -9999.00000000 -9999.00000000 -9999.00000000 -9999.00000000 0.00000000 0.00000000 0.00000000 0.00000000 0.00000000 
0.00000000 0.00000000 0.00000000 0.00041535 0.00062245 0.00000000 0.00000000 0.00000000 0.00034048 0.00000000 0.00074381 0.00000000 0.00000000 0.00008016 0.00003888 0.00010981 0.00007320 -9999.00000000 -9999.00000000 -9999.00000000 -9999.00000000 -9999.00000000 -9999.00000000 -9999.00000000 -9999.00000000 -9999.00000000 -9999.00000000 -9999.00000000 -9999.00000000 -9999.00000000 -9999.00000000 -9999.00000000 -9999.00000000 -9999.00000000 -9999.00000000 -9999.00000000 -9999.00000000 -9999.00000000 -9999.00000000 -9999.00000000 -9999.00000000 -9999.00000000 -9999.00000000 -9999.00000000 -9999.00000000 -9999.00000000 -9999.00000000 -9999.00000000 -9999.00000000 -9999.00000000 -9999.00000000 -9999.00000000 -9999.00000000 -9999.00000000 -9999.00000000 -9999.00000000 -9999.00000000 -9999.00000000 -9999.00000000 -9999.00000000 -9999.00000000 -9999.00000000 -9999.00000000 -9999.00000000 -9999.00000000 -9999.00000000 -9999.00000000 -9999.00000000 -9999.00000000 -9999.00000000 -9999.00000000 -9999.00000000 -9999.00000000 0.00000000 0.00000000 0.00000000 0.00000000 0.00000000 
0.00000000 0.00000000 0.00000000 0.00212369 0.00033780 0.00000000 0.00000000 0.00000000 0.00000000 0.00000000 0.00000000 0.00000000 0.00000000 0.00000000 0.00000000 0.00000000 0.00000000 0.00000000 0.00000000 0.00001714 0.00000000 0.00000000 -9999.00000000 -9999.00000000 -9999.00000000 -9999.00000000 -9999.00000000 -9999.00000000 -9999.00000000 -9999.00000000 -9999.00000000 -9999.00000000 -9999.00000000 -9999.00000000 -9999.00000000 -9999.00000000 -9999.00000000 -9999.00000000 -9999.00000000 -9999.00000000 -9999.00000000 -9999.00000000 -9999.00000000 -9999.00000000 -9999.00000000 -9999.00000000 -9999.00000000 -9999.00000000 -9999.00000000 -9999.00000000 -9999.00000000 -9999.00000000 -9999.00000000 -9999.00000000 -9999.00000000 -9999.00000000 -9999.00000000 -9999.00000000 -9999.00000000 -9999.00000000 -9999.00000000 -9999.00000000 -9999.00000000 -9999.00000000 -9999.00000000 -9999.00000000 -9999.00000000 -9999.00000000 -9999.00000000 -9999.00000000 -9999.00000000 -9999.00000000 -9999.00000000 0.00000000 0.00000000 0.00000000 0.00000000 0.00000000 
0.02507052 0.00081827 0.00000000 0.00012567 0.00586942 0.00000000 0.00000000 0.00000000 0.00000000 0.00020997 0.00010345 0.00000000 0.00000000 0.00029697 0.00000000 0.00000000 0.00000000 0.00000000 0.00015853 0.00011322 0.00000000 0.00000000 0.00000000 0.00000000 -9999.00000000 -9999.00000000 -9999.00000000 -9999.00000000 -9999.00000000 -9999.00000000 -9999.00000000 -9999.00000000 -9999.00000000 -9999.00000000 -9999.00000000 -9999.00000000 -9999.00000000 -9999.00000000 -9999.00000000 -9999.00000000 -9999.00000000 0.00000000 -9999.00000000 -9999.00000000 -9999.00000000 -9999.00000000 -9999.00000000 -9999.00000000 -9999.00000000 -9999.00000000 -9999.00000000 -9999.00000000 -9999.00000000 -9999.00000000 -9999.00000000 -9999.00000000 -9999.00000000 -9999.00000000 -9999.00000000 -9999.00000000 -9999.00000000 -9999.00000000 -9999.00000000 -9999.00000000 -9999.00000000 -9999.00000000 -9999.00000000 -9999.00000000 -9999.00000000 -9999.00000000 -9999.00000000 -9999.00000000 -9999.00000000 -9999.00000000 0.00000000 0.00000000 0.00000000 0.00000000 
0.00000000 0.00000000 0.00000000 0.00000000 0.00000000 0.00000000 0.00000000 0.00000000 0.00000000 0.00000000 0.00000000 0.00000000 0.00000000 0.00000747 0.00000000 0.00000000 0.00000000 0.00000000 0.00000000 0.00002906 0.00043488 0.00031793 0.00000000 0.00000000 -9999.00000000 -9999.00000000 -9999.00000000 -9999.00000000 -9999.00000000 -9999.00000000 -9999.00000000 -9999.00000000 -9999.00000000 -9999.00000000 -9999.00000000 -9999.00000000 -9999.00000000 -9999.00000000 0.00000000 0.00000000 0.00000000 0.00000000 0.00000000 0.00000000 -9999.00000000 -9999.00000000 -9999.00000000 -9999.00000000 -9999.00000000 -9999.00000000 -9999.00000000 -9999.00000000 -9999.00000000 -9999.00000000 -9999.00000000 -9999.00000000 -9999.00000000 -9999.00000000 -9999.00000000 -9999.00000000 -9999.00000000 -9999.00000000 -9999.00000000 -9999.00000000 -9999.00000000 -9999.00000000 -9999.00000000 -9999.00000000 -9999.00000000 -9999.00000000 -9999.00000000 -9999.00000000 -9999.00000000 -9999.00000000 0.00000000 0.00000000 0.00000000 0.00000000 
0.00000000 0.00000000 0.00000000 0.00000000 0.00000000 0.00000000 0.00000000 0.00000000 0.00000000 0.00000000 0.00000000 0.00000000 0.00000000 0.00000000 0.00000000 0.00000000 0.00000000 0.00000000 0.00000000 0.00048484 0.00035883 0.00001801 0.00024242 0.00002680 -9999.00000000 -9999.00000000 -9999.00000000 -9999.00000000 -9999.00000000 -9999.00000000 -9999.00000000 -9999.00000000 -9999.00000000 -9999.00000000 -9999.00000000 -9999.00000000 -9999.00000000 -9999.00000000 0.00000000 0.00000000 0.00000000 0.00000000 0.00000000 0.00000000 0.00000000 -9999.00000000 -9999.00000000 -9999.00000000 -9999.00000000 -9999.00000000 -9999.00000000 -9999.00000000 -9999.00000000 -9999.00000000 -9999.00000000 -9999.00000000 -9999.00000000 -9999.00000000 -9999.00000000 -9999.00000000 -9999.00000000 -9999.00000000 -9999.00000000 -9999.00000000 -9999.00000000 -9999.00000000 -9999.00000000 -9999.00000000 -9999.00000000 -9999.00000000 -9999.00000000 -9999.00000000 -9999.00000000 -9999.00000000 0.00000000 0.00000000 0.00000000 0.00000000 
0.00000000 0.00000000 0.00000000 0.00000000 0.00000000 0.00000000 0.00000000 0.00000000 0.00000000 0.00000000 0.00000000 0.00000000 0.00000000 0.00000000 0.00000000 0.00000000 0.00000000 0.00000000 0.00000000 0.00000000 0.00000000 0.00000000 0.00000000 0.00013326 0.00010193 0.00000000 -9999.00000000 -9999.00000000 -9999.00000000 -9999.00000000 -9999.00000000 -9999.00000000 -9999.00000000 -9999.00000000 -9999.00000000 -9999.00000000 0.00000000 0.00000000 0.00000000 0.00000000 0.00000000 0.00000000 0.00000000 0.00000000 0.00000000 0.00000000 -9999.00000000 -9999.00000000 -9999.00000000 -9999.00000000 -9999.00000000 -9999.00000000 -9999.00000000 -9999.00000000 -9999.00000000 -9999.00000000 -9999.00000000 -9999.00000000 -9999.00000000 -9999.00000000 -9999.00000000 -9999.00000000 -9999.00000000 -9999.00000000 -9999.00000000 -9999.00000000 -9999.00000000 -9999.00000000 -9999.00000000 -9999.00000000 -9999.00000000 -9999.00000000 -9999.00000000 -9999.00000000 0.00000000 0.00000000 0.00000000 0.00000000 
0.00000000 0.00000000 0.00000000 0.00000000 0.00000000 0.00000000 0.00000000 0.00000000 0.00000000 0.00000000 0.00000000 0.00000000 0.00000000 0.00000000 0.00000000 0.00000000 0.00000000 0.00000000 0.00000000 0.00000000 0.00000000 0.00000818 0.00002355 0.00000000 0.00000000 0.00000000 -9999.00000000 -9999.00000000 -9999.00000000 -9999.00000000 -9999.00000000 -9999.00000000 0.00000000 0.00000000 0.00000000 0.00000000 0.00000000 0.00000000 0.00000000 0.00000000 0.00000000 0.00000000 0.00000000 0.00000000 0.00000000 0.00000000 0.00000000 -9999.00000000 -9999.00000000 -9999.00000000 -9999.00000000 -9999.00000000 -9999.00000000 -9999.00000000 -9999.00000000 -9999.00000000 -9999.00000000 -9999.00000000 -9999.00000000 -9999.00000000 -9999.00000000 -9999.00000000 -9999.00000000 -9999.00000000 -9999.00000000 -9999.00000000 -9999.00000000 -9999.00000000 -9999.00000000 -9999.00000000 -9999.00000000 -9999.00000000 -9999.00000000 -9999.00000000 -9999.00000000 0.00000000 0.00000000 0.00000000 
0.00000000 0.00000000 0.00000000 0.00000000 0.00000000 0.00000000 0.00000000 0.00000000 0.00000000 0.00000000 0.00000000 0.00000000 0.00000000 0.00000000 0.00000000 0.00000000 0.00000000 0.00000000 0.00000000 0.00000000 0.00000000 0.00013864 0.00000000 0.00000000 0.00000000 0.00000000 0.00000000 -9999.00000000 -9999.00000000 -9999.00000000 0.00000000 0.00000000 0.00000000 0.00000000 0.00000000 0.00000000 0.00000000 0.00000000 0.00007410 0.00000000 0.00000000 0.00000000 0.00000000 0.00000000 0.00000000 0.00000000 0.00000000 0.00000000 -9999.00000000 -9999.00000000 -9999.00000000 -9999.00000000 -9999.00000000 -9999.00000000 -9999.00000000 -9999.00000000 -9999.00000000 -9999.00000000 -9999.00000000 -9999.00000000 -9999.00000000 -9999.00000000 -9999.00000000 -9999.00000000 -9999.00000000 -9999.00000000 -9999.00000000 -9999.00000000 -9999.00000000 -9999.00000000 -9999.00000000 -9999.00000000 -9999.00000000 -9999.00000000 -9999.00000000 0.00000000 0.00000000 0.00000000 
0.00000000 0.00000000 0.00000000 0.00000000 0.00000000 0.00000000 0.00000000 0.00000000 0.00000000 0.00000000 0.00000000 0.00000000 0.00000000 0.00000000 0.00000000 0.00000000 0.00000000 0.00000000 0.00006378 0.00000000 0.00000000 0.00000000 0.00000000 0.00000000 0.00000000 0.00000000 0.00000000 0.00000000 0.00000000 0.00000000 0.00000000 0.00000000 0.00000000 0.00000000 0.00000000 0.00019672 0.00000000 0.00000000 0.00000000 0.00000000 0.00000000 0.00000000 0.00000000 0.00000000 0.00000000 0.00000000 0.00000000 0.00000000 0.00000000 -9999.00000000 -9999.00000000 -9999.00000000 -9999.00000000 -9999.00000000 -9999.00000000 -9999.00000000 -9999.00000000 -9999.00000000 -9999.00000000 -9999.00000000 -9999.00000000 -9999.00000000 -9999.00000000 -9999.00000000 -9999.00000000 -9999.00000000 -9999.00000000 -9999.00000000 -9999.00000000 -9999.00000000 -9999.00000000 -9999.00000000 -9999.00000000 -9999.00000000 -9999.00000000 -9999.00000000 0.00000000 0.00000000 
0.00000000 0.00000000 0.00000000 0.00000000 0.00000000 0.00000000 0.00000000 0.00000000 0.00000000 0.00000000 0.00000000 0.00000000 0.00000000 0.00000000 0.00000000 0.00000000 0.00000000 0.00000000 0.00000000 0.00000000 0.00000000 0.00000000 0.00000000 0.00000000 0.00000000 0.00000000 0.00000000 0.00000000 0.00000000 0.00000000 0.00000000 0.00000000 0.00000000 0.00000000 0.00000000 0.00072422 0.00000000 0.00021799 0.00000000 0.00000000 0.00000000 0.00000000 0.00000000 0.00000000 0.00000000 0.00000000 0.00000000 0.00000000 0.00000000 -9999.00000000 -9999.00000000 -9999.00000000 -9999.00000000 -9999.00000000 -9999.00000000 -9999.00000000 -9999.00000000 -9999.00000000 -9999.00000000 -9999.00000000 -9999.00000000 -9999.00000000 -9999.00000000 -9999.00000000 -9999.00000000 -9999.00000000 -9999.00000000 -9999.00000000 -9999.00000000 -9999.00000000 -9999.00000000 -9999.00000000 -9999.00000000 -9999.00000000 -9999.00000000 -9999.00000000 0.00000000 0.00000000 
0.00000000 0.00000000 0.00000000 0.00000000 0.00000000 0.00000000 0.00000000 0.00000000 0.00000000 0.00000000 0.00000000 0.00000000 0.00000000 0.00000000 0.00000000 0.00000000 0.00000000 0.00000000 0.00000000 0.00000000 0.00000000 0.00000000 0.00000000 0.00000000 0.00000000 0.00000000 0.00000000 0.00000000 0.00000000 0.00000000 0.00000000 0.00000000 0.00000000 0.00000000 0.00000000 0.00000000 0.00000000 0.00000000 0.00000000 0.00000000 0.00000000 0.00000000 0.00000000 0.00000000 0.00000000 0.00000000 0.00000000 0.00000000 0.00000000 0.00000000 0.00000000 -9999.00000000 -9999.00000000 -9999.00000000 -9999.00000000 -9999.00000000 -9999.00000000 -9999.00000000 -9999.00000000 -9999.00000000 -9999.00000000 -9999.00000000 -9999.00000000 -9999.00000000 -9999.00000000 -9999.00000000 -9999.00000000 -9999.00000000 -9999.00000000 -9999.00000000 -9999.00000000 -9999.00000000 -9999.00000000 -9999.00000000 -9999.00000000 -9999.00000000 0.00000000 0.00000000 
0.00000000 0.00000000 0.00000000 0.00000000 0.00000000 0.00000000 0.00000000 0.00000000 0.00000000 0.00000000 0.00000000 0.00000000 0.00000000 0.00000000 0.00000000 0.00000000 0.00000000 0.00000000 0.00000000 0.00000000 0.00000000 0.00000000 0.00000000 0.00000000 0.00000000 0.00000000 0.00000000 0.00000000 0.00000000 0.00000000 0.00000000 0.00000000 0.00000000 0.00000000 0.00000000 0.00000000 0.00000000 0.00000000 0.00000000 0.00000000 0.00000000 0.00000000 0.00000000 0.00000000 0.00000000 0.00000000 0.00000000 0.00000000 0.00000000 0.00000000 0.00000000 0.00000000 -9999.00000000 -9999.00000000 -9999.00000000 -9999.00000000 -9999.00000000 -9999.00000000 -9999.00000000 -9999.00000000 -9999.00000000 -9999.00000000 -9999.00000000 -9999.00000000 -9999.00000000 -9999.00000000 -9999.00000000 -9999.00000000 -9999.00000000 -9999.00000000 -9999.00000000 -9999.00000000 -9999.00000000 -9999.00000000 -9999.00000000 -9999.00000000 -9999.00000000 0.00000000 
0.00000000 0.00000000 0.00000000 0.00000000 0.00000000 0.00000000 0.00000000 0.00000000 0.00000000 0.00000000 0.00000000 0.00000000 0.00000000 0.00000000 0.00000000 0.00000000 0.00000000 0.00000000 0.00000000 0.00000000 0.00000000 0.00000000 0.00000000 0.00000000 0.00000000 0.00000000 0.00000000 0.00000000 0.00000000 0.00000000 0.00000000 0.00000000 0.00000000 0.00000000 0.00000000 0.00000000 0.00000000 0.00000000 0.00000000 0.00000000 0.00000000 0.00000000 0.00000000 0.00000000 0.00000000 0.00000000 0.00000000 0.00000000 0.00000000 0.00000000 0.00000000 0.00000000 -9999.00000000 -9999.00000000 -9999.00000000 -9999.00000000 -9999.00000000 -9999.00000000 -9999.00000000 -9999.00000000 -9999.00000000 -9999.00000000 -9999.00000000 -9999.00000000 -9999.00000000 -9999.00000000 -9999.00000000 -9999.00000000 -9999.00000000 -9999.00000000 0.00000000 0.00000000 -9999.00000000 -9999.00000000 -9999.00000000 -9999.00000000 -9999.00000000 0.00000000 
0.00000000 0.00000000 0.00000000 0.00000000 0.00000000 0.00000000 0.00000000 0.00000000 0.00000000 0.00000000 0.00000000 0.00000000 0.00000000 0.00000000 0.00000000 0.00000000 0.00000000 0.00000000 0.00000000 0.00000000 0.00000000 0.00000000 0.00000000 0.00000000 0.00000000 0.00000000 0.00000000 0.00000000 0.00000000 0.00000000 0.00000000 0.00000000 0.00000000 0.00000000 0.00000000 0.00000000 0.00000000 0.00000000 0.00000000 0.00000000 0.00000000 0.00000000 0.00000000 0.00000000 0.00000000 0.00000000 0.00000000 0.00000000 0.00000000 0.00000000 0.00000000 0.00000000 0.00000000 -9999.00000000 -9999.00000000 -9999.00000000 -9999.00000000 -9999.00000000 -9999.00000000 -9999.00000000 -9999.00000000 -9999.00000000 -9999.00000000 -9999.00000000 -9999.00000000 -9999.00000000 -9999.00000000 -9999.00000000 -9999.00000000 -9999.00000000 -9999.00000000 0.00000000 -9999.00000000 -9999.00000000 -9999.00000000 -9999.00000000 -9999.00000000 -9999.00000000 
0.00000000 0.00000000 0.00000000 0.00000000 0.00000000 0.00000000 0.00000000 0.00000000 0.00000000 0.00000000 0.00000000 0.00000000 0.00000000 0.00000000 0.00000000 0.00000000 0.00000000 0.00000000 0.00000000 0.00000000 0.00000000 0.00000000 0.00000000 0.00000000 0.00000000 0.00000000 0.00000000 0.00000000 0.00000000 0.00000000 0.00000000 0.00000000 0.00000000 0.00000000 0.00000000 0.00000000 0.00000000 0.00000000 0.00000000 0.00000000 0.00000000 0.00000000 0.00000000 0.00000000 0.00000000 0.00000000 0.00000000 0.00000000 0.00118174 0.00000000 0.00000000 0.00013409 0.00000000 0.00000000 0.00000000 0.00000000 -9999.00000000 -9999.00000000 -9999.00000000 -9999.00000000 -9999.00000000 -9999.00000000 -9999.00000000 -9999.00000000 -9999.00000000 -9999.00000000 -9999.00000000 -9999.00000000 -9999.00000000 -9999.00000000 -9999.00000000 -9999.00000000 0.00000000 -9999.00000000 -9999.00000000 -9999.00000000 -9999.00000000 -9999.00000000 
0.00000000 0.00000000 0.00000000 0.00000000 0.00000000 0.00000000 0.00000000 0.00000000 0.00000000 0.00000000 0.00000000 0.00000000 0.00000000 0.00000000 0.00000000 0.00000000 0.00000000 0.00000000 0.00000000 0.00000000 0.00000000 0.00000000 0.00000000 0.00000000 0.00000000 0.00000000 0.00000000 0.00000000 0.00000000 0.00000000 0.00000000 0.00000000 0.00000000 0.00000000 0.00000000 0.00000000 0.00000000 0.00000000 0.00000000 0.00000000 0.00000000 0.00000000 0.00000000 0.00000000 0.00000000 0.00000000 0.00000000 0.00000000 0.00000000 0.00000000 0.00000000 0.00000000 0.00000000 0.00000000 0.00000000 0.00000000 0.00000000 -9999.00000000 -9999.00000000 -9999.00000000 -9999.00000000 -9999.00000000 -9999.00000000 -9999.00000000 -9999.00000000 -9999.00000000 -9999.00000000 -9999.00000000 -9999.00000000 -9999.00000000 -9999.00000000 -9999.00000000 -9999.00000000 -9999.00000000 -9999.00000000 -9999.00000000 -9999.00000000 -9999.00000000 
0.00000000 0.00000000 0.00000000 0.00000000 0.00000000 0.00000000 0.00000000 0.00000000 0.00000000 0.00000000 0.00000000 0.00000000 0.00000000 0.00000000 0.00000000 0.00000000 0.00000000 0.00000000 0.00000000 0.00000000 0.00000000 0.00000000 0.00000000 0.00000000 0.00000000 0.00000000 0.00000000 0.00000000 0.00000000 0.00000000 0.00000000 0.00000000 0.00000000 0.00000000 0.00000000 0.00000000 0.00000000 0.00000000 0.00000000 0.00000000 0.00000000 0.00000000 0.00000000 0.00000000 0.00000000 0.00000000 0.00000000 0.00000000 0.00000000 0.00000000 0.00000000 0.00000000 0.00000000 0.00000000 0.00000000 0.00000000 0.00000000 -9999.00000000 -9999.00000000 -9999.00000000 -9999.00000000 -9999.00000000 -9999.00000000 -9999.00000000 -9999.00000000 -9999.00000000 -9999.00000000 -9999.00000000 -9999.00000000 -9999.00000000 -9999.00000000 -9999.00000000 -9999.00000000 -9999.00000000 -9999.00000000 -9999.00000000 -9999.00000000 -9999.00000000 
0.00000000 0.00000000 0.00000000 0.00000000 0.00000000 0.00000000 0.00000000 0.00000000 0.00000000 0.00000000 0.00000000 0.00000000 0.00000000 0.00000000 0.00000000 0.00000000 0.00000000 0.00000000 0.00000000 0.00000000 0.00000000 0.00000000 0.00000000 0.00000000 0.00000000 0.00000000 0.00000000 0.00000000 0.00000000 0.00000000 0.00000000 0.00000000 0.00000000 0.00000000 0.00000000 0.00000000 0.00000000 0.00000000 0.00000000 0.00000000 0.00000000 0.00000000 0.00000000 0.00000000 0.00000000 0.00000000 0.00000000 0.00000000 0.00000000 0.00000000 0.00000000 0.00000000 0.00000000 0.00000000 0.00000000 0.00000000 0.00000000 0.00000000 -9999.00000000 -9999.00000000 -9999.00000000 -9999.00000000 -9999.00000000 -9999.00000000 -9999.00000000 -9999.00000000 -9999.00000000 -9999.00000000 -9999.00000000 -9999.00000000 -9999.00000000 -9999.00000000 -9999.00000000 -9999.00000000 -9999.00000000 -9999.00000000 -9999.00000000 -9999.00000000 
0.00000000 0.00000000 0.00000000 0.00000000 0.00000000 0.00000000 0.00000000 0.00000000 0.00000000 0.00000000 0.00000000 0.00000000 0.00000000 0.00000000 0.00000000 0.00000000 0.00000000 0.00000000 0.00000000 0.00000000 0.00000000 0.00000000 0.00000000 0.00000000 0.00000000 0.00000000 0.00000000 0.00000000 0.00000000 0.00000000 0.00000000 0.00000000 0.00000000 0.00000000 0.00000000 0.00000000 0.00000000 0.00000000 0.00000000 0.00000000 0.00000000 0.00000000 0.00000000 0.00000000 0.00000000 0.00000000 0.00000000 0.00000000 0.00000000 0.00000000 0.00000000 0.00000000 0.00000000 0.00027552 0.00000000 0.00000000 0.00000000 0.00000000 -9999.00000000 -9999.00000000 -9999.00000000 -9999.00000000 -9999.00000000 -9999.00000000 -9999.00000000 -9999.00000000 -9999.00000000 -9999.00000000 -9999.00000000 -9999.00000000 -9999.00000000 -9999.00000000 -9999.00000000 -9999.00000000 -9999.00000000 -9999.00000000 -9999.00000000 0.00000000 
0.00000000 0.00000000 0.00000000 0.00000000 0.00000000 0.00000000 0.00000000 0.00000000 0.00000000 0.00000000 0.00000000 0.00000000 0.00000000 0.00000000 0.00000000 0.00000000 0.00000000 0.00000000 0.00000000 0.00000000 0.00000000 0.00000000 0.00000000 0.00000000 0.00000000 0.00000000 0.00000000 0.00000000 0.00000000 0.00000000 0.00000000 0.00000000 0.00000000 0.00000000 0.00000000 0.00000000 0.00000000 0.00000000 0.00000000 0.00000000 0.00000000 0.00000000 0.00000000 0.00000000 0.00000000 0.00000000 0.00000000 0.00000000 0.00000000 0.00000000 0.00000000 0.00000000 0.00000000 0.00000000 0.00000000 0.00000000 0.00000000 0.00000000 -9999.00000000 -9999.00000000 -9999.00000000 -9999.00000000 -9999.00000000 -9999.00000000 -9999.00000000 -9999.00000000 -9999.00000000 -9999.00000000 -9999.00000000 -9999.00000000 -9999.00000000 -9999.00000000 -9999.00000000 -9999.00000000 -9999.00000000 -9999.00000000 -9999.00000000 -9999.00000000 
0.00000000 0.00000000 0.00000000 0.00000000 0.00000000 0.00000000 0.00000000 0.00000000 0.00000000 0.00000000 0.00000000 0.00000000 0.00000000 0.00000000 0.00000000 0.00000000 0.00000000 0.00000000 0.00000000 0.00000000 0.00000000 0.00000000 0.00000000 0.00000000 0.00000000 0.00000000 0.00000000 0.00000000 0.00000000 0.00000000 0.00000000 0.00000000 0.00000000 0.00000000 0.00000000 0.00000000 0.00000000 0.00000000 0.00000000 0.00000000 0.00000000 0.00000000 0.00000000 0.00000000 0.00000000 0.00000000 0.00000000 0.00000000 0.00000000 0.00000000 0.00000000 0.00000000 0.00000000 0.00000000 0.00000000 0.00000000 0.00000000 0.00000000 -9999.00000000 -9999.00000000 -9999.00000000 -9999.00000000 -9999.00000000 -9999.00000000 -9999.00000000 -9999.00000000 -9999.00000000 -9999.00000000 -9999.00000000 -9999.00000000 -9999.00000000 -9999.00000000 -9999.00000000 -9999.00000000 -9999.00000000 -9999.00000000 -9999.00000000 -9999.00000000 
0.00000000 0.00000000 0.00000000 0.00000000 0.00000000 0.00000000 0.00000000 0.00000000 0.00000000 0.00000000 0.00000000 0.00000000 0.00000000 0.00000000 0.00000000 0.00000000 0.00000000 0.00000000 0.00000000 0.00000000 0.00000000 0.00000000 0.00000000 0.00000000 0.00000000 0.00000000 0.00000000 0.00000000 0.00000000 0.00000000 0.00000000 0.00000000 0.00000000 0.00000000 0.00000000 0.00000000 0.00000000 0.00000000 0.00000000 0.00000000 0.00000000 0.00000000 0.00000000 0.00000000 0.00000000 0.00000000 0.00000000 0.00000000 0.00000000 0.00000000 0.00000000 0.00000000 0.00000000 0.00000000 0.00000000 0.00000000 0.00000000 0.00000000 -9999.00000000 -9999.00000000 -9999.00000000 -9999.00000000 -9999.00000000 -9999.00000000 -9999.00000000 -9999.00000000 -9999.00000000 -9999.00000000 -9999.00000000 -9999.00000000 -9999.00000000 -9999.00000000 -9999.00000000 -9999.00000000 -9999.00000000 -9999.00000000 -9999.00000000 -9999.00000000 
0.00000000 0.00000000 0.00000000 0.00000000 0.00000000 0.00000000 0.00000000 0.00000000 0.00000000 0.00000000 0.00000000 0.00000000 0.00000000 0.00000000 0.00000000 0.00000000 0.00000000 0.00000000 0.00000000 0.00000000 0.00000000 0.00000000 0.00000000 0.00000000 0.00000000 0.00000000 0.00000000 0.00000000 0.00000000 0.00000000 0.00000000 0.00000000 0.00000000 0.00000000 0.00000000 0.00000000 0.00000000 0.00000000 0.00000000 0.00000000 0.00000000 0.00000000 0.00000000 0.00000000 0.00000000 0.00000000 0.00000000 0.00000000 0.00000000 0.00000000 0.00000000 0.00000000 0.00000000 0.00000000 0.00000000 0.00000000 0.00000000 0.00000000 -9999.00000000 -9999.00000000 -9999.00000000 -9999.00000000 -9999.00000000 -9999.00000000 -9999.00000000 -9999.00000000 -9999.00000000 -9999.00000000 -9999.00000000 -9999.00000000 -9999.00000000 -9999.00000000 -9999.00000000 -9999.00000000 -9999.00000000 -9999.00000000 -9999.00000000 -9999.00000000 
0.00000000 0.00000000 0.00000000 0.00000000 0.00000000 0.00000000 0.00000000 0.00000000 0.00000000 0.00000000 0.00000000 0.00000000 0.00000000 0.00000000 0.00000000 0.00000000 0.00000000 0.00000000 0.00000000 0.00000000 0.00000000 0.00000000 0.00000000 0.00000000 0.00000000 0.00000000 0.00000000 0.00000000 0.00000000 0.00000000 0.00000000 0.00000000 0.00000000 0.00000000 0.00000000 0.00000000 0.00000000 0.00000000 0.00000000 0.00000000 0.00000000 0.00000000 0.00000000 0.00000000 0.00000000 0.00000000 0.00000000 0.00000000 0.00000000 0.00000000 0.00000000 0.00000000 0.00000000 0.00000000 0.00000000 0.00000000 0.00000000 -9999.00000000 -9999.00000000 -9999.00000000 -9999.00000000 -9999.00000000 -9999.00000000 -9999.00000000 -9999.00000000 -9999.00000000 -9999.00000000 -9999.00000000 -9999.00000000 -9999.00000000 -9999.00000000 -9999.00000000 -9999.00000000 -9999.00000000 -9999.00000000 -9999.00000000 -9999.00000000 -9999.00000000 
0.00000000 0.00000000 0.00000000 0.00000000 0.00000000 0.00000000 0.00000000 0.00000000 0.00000000 0.00000000 0.00000000 0.00000000 0.00000000 0.00000000 0.00000000 0.00000000 0.00000000 0.00000000 0.00000000 0.00000000 0.00000000 0.00000000 0.00000000 0.00000000 0.00000000 0.00000000 0.00000000 0.00000000 0.00000000 0.00000000 0.00000000 0.00000000 0.00000000 0.00000000 0.00000000 0.00000000 0.00000000 0.00000000 0.00000000 0.00000000 0.00000000 0.00000000 0.00000000 0.00000000 0.00000000 0.00000000 0.00000000 0.00000000 0.00000000 0.00000000 0.00000000 0.00000000 0.00000000 0.00000000 0.00000000 0.00000000 0.00000000 -9999.00000000 -9999.00000000 -9999.00000000 -9999.00000000 -9999.00000000 -9999.00000000 -9999.00000000 -9999.00000000 -9999.00000000 -9999.00000000 -9999.00000000 -9999.00000000 -9999.00000000 -9999.00000000 -9999.00000000 -9999.00000000 -9999.00000000 -9999.00000000 -9999.00000000 -9999.00000000 -9999.00000000 
0.00000000 0.00000000 0.00000000 0.00000000 0.00000000 0.00000000 0.00000000 0.00000000 0.00000000 0.00000000 0.00000000 0.00000000 0.00000000 0.00000000 0.00000000 0.00000000 0.00000000 0.00000000 0.00000000 0.00000000 0.00000000 0.00000000 0.00000000 0.00000000 0.00000000 0.00000000 0.00000000 0.00000000 0.00000000 0.00000000 0.00000000 0.00000000 0.00000000 0.00000000 0.00000000 0.00000000 0.00000000 0.00000000 0.00000000 0.00000000 0.00000000 0.00000000 0.00000000 0.00000000 0.00000000 0.00000000 0.00000000 0.00000000 0.00000000 0.00000000 0.00000000 0.00000000 0.00000000 0.00000000 0.00000000 0.00000000 0.00000000 -9999.00000000 -9999.00000000 -9999.00000000 -9999.00000000 -9999.00000000 -9999.00000000 -9999.00000000 -9999.00000000 -9999.00000000 -9999.00000000 -9999.00000000 -9999.00000000 -9999.00000000 -9999.00000000 -9999.00000000 -9999.00000000 -9999.00000000 -9999.00000000 -9999.00000000 -9999.00000000 -9999.00000000 
0.00000000 0.00000000 0.00000000 0.00000000 0.00000000 0.00000000 0.00000000 0.00000000 0.00000000 0.00000000 0.00000000 0.00000000 0.00000000 0.00000000 0.00000000 0.00000000 0.00000000 0.00000000 0.00000000 0.00000000 0.00000000 0.00000000 0.00000000 0.00000000 0.00000000 0.00000000 0.00000000 0.00000000 0.00000000 0.00000000 0.00000000 0.00000000 0.00000000 0.00000000 0.00000000 0.00000000 0.00000000 0.00000000 0.00000000 0.00000000 0.00000000 0.00000000 0.00000000 0.00000000 0.00000000 0.00000000 0.00000000 0.00000000 0.00000000 0.00000000 0.00000000 0.00000000 0.00000000 0.00000000 0.00000000 0.00000000 -9999.00000000 -9999.00000000 -9999.00000000 -9999.00000000 -9999.00000000 -9999.00000000 -9999.00000000 -9999.00000000 -9999.00000000 -9999.00000000 -9999.00000000 -9999.00000000 -9999.00000000 -9999.00000000 -9999.00000000 -9999.00000000 -9999.00000000 -9999.00000000 -9999.00000000 -9999.00000000 -9999.00000000 -9999.00000000 
0.00000000 0.00000000 0.00000000 0.00000000 0.00000000 0.00000000 0.00000000 0.00000000 0.00000000 0.00000000 0.00000000 0.00000000 0.00000000 0.00000000 0.00000000 0.00000000 0.00000000 0.00000000 0.00000000 0.00000000 0.00000000 0.00000000 0.00000000 0.00000000 0.00000000 0.00000000 0.00000000 0.00000000 0.00000000 0.00000000 0.00000000 0.00000000 0.00000000 0.00000000 0.00000000 0.00000000 0.00000000 0.00000000 0.00000000 0.00000000 0.00000000 0.00000000 0.00000000 0.00000000 0.00000000 0.00000000 0.00000000 0.00000000 0.00000000 0.00000000 0.00000000 0.00000000 0.00000000 0.00059053 0.00000000 0.00053567 -9999.00000000 -9999.00000000 -9999.00000000 -9999.00000000 -9999.00000000 -9999.00000000 -9999.00000000 -9999.00000000 -9999.00000000 -9999.00000000 -9999.00000000 -9999.00000000 -9999.00000000 -9999.00000000 -9999.00000000 -9999.00000000 -9999.00000000 -9999.00000000 -9999.00000000 -9999.00000000 -9999.00000000 -9999.00000000 
0.00000000 0.00000000 0.00000000 0.00000000 0.00000000 0.00000000 0.00000000 0.00000000 0.00000000 0.00000000 0.00000000 0.00000000 0.00000000 0.00000000 0.00000000 0.00000000 0.00000000 0.00000000 0.00000000 0.00000000 0.00000000 0.00000000 0.00000000 0.00000000 0.00000000 0.00000000 0.00000000 0.00000000 0.00000000 0.00000000 0.00000000 0.00000000 0.00000000 0.00000000 0.00000000 0.00000000 0.00000000 0.00000000 0.00000000 0.00000000 0.00000000 0.00000000 0.00000000 0.00000000 0.00000000 0.00000000 0.00000000 0.00000000 0.00000000 0.00000000 0.00000000 0.00000000 0.00000000 0.00011560 0.00000000 0.00000000 -9999.00000000 -9999.00000000 0.00000000 0.00000000 -9999.00000000 -9999.00000000 -9999.00000000 -9999.00000000 -9999.00000000 -9999.00000000 -9999.00000000 -9999.00000000 -9999.00000000 -9999.00000000 -9999.00000000 -9999.00000000 -9999.00000000 -9999.00000000 -9999.00000000 -9999.00000000 -9999.00000000 -9999.00000000 
0.00000000 0.00000000 0.00000000 0.00000000 0.00000000 0.00000000 0.00000000 0.00000000 0.00000000 0.00000000 0.00000000 0.00000000 0.00000000 0.00000000 0.00000000 0.00000000 0.00000000 0.00000000 0.00000000 0.00000000 0.00000000 0.00000000 0.00000000 0.00000000 0.00000000 0.00000000 0.00000000 0.00000000 0.00000000 0.00000000 0.00000000 0.00000000 0.00000000 0.00000000 0.00000000 0.00000000 0.00000000 0.00000000 0.00000000 0.00000000 0.00000000 0.00000000 0.00000000 0.00000000 0.00000000 0.00000000 0.00000000 0.00000000 0.00000000 0.00000000 0.00000000 0.00014981 0.00000000 0.00042654 0.00000000 0.00004150 -9999.00000000 -9999.00000000 0.00000000 0.00000000 0.00000000 -9999.00000000 -9999.00000000 -9999.00000000 -9999.00000000 -9999.00000000 -9999.00000000 -9999.00000000 -9999.00000000 -9999.00000000 -9999.00000000 -9999.00000000 -9999.00000000 -9999.00000000 -9999.00000000 -9999.00000000 -9999.00000000 -9999.00000000 
0.00000000 0.00000000 0.00000000 0.00000000 0.00000000 0.00000000 0.00000000 0.00000000 0.00000000 0.00000000 0.00000000 0.00000000 0.00000000 0.00000000 0.00000000 0.00000000 0.00000000 0.00000000 0.00000000 0.00000000 0.00000000 0.00000000 0.00000000 0.00000000 0.00000000 0.00000000 0.00000000 0.00000000 0.00000000 0.00000000 0.00000000 0.00000000 0.00000000 0.00000000 0.00000000 0.00000000 0.00000000 0.00000000 0.00000000 0.00000000 0.00000000 0.00000000 0.00000000 0.00000000 0.00000000 0.00000000 0.00000000 0.00000000 0.00000000 0.00000000 0.00000000 0.00000000 0.00000000 0.00000000 0.00000000 0.00000000 0.00000000 -9999.00000000 -9999.00000000 0.00000000 0.00000000 -9999.00000000 -9999.00000000 -9999.00000000 -9999.00000000 -9999.00000000 -9999.00000000 -9999.00000000 -9999.00000000 -9999.00000000 -9999.00000000 -9999.00000000 -9999.00000000 -9999.00000000 -9999.00000000 -9999.00000000 -9999.00000000 -9999.00000000 
0.00000000 0.00000000 0.00000000 0.00000000 0.00000000 0.00000000 0.00000000 0.00000000 0.00000000 0.00000000 0.00000000 0.00000000 0.00000000 0.00000000 0.00000000 0.00000000 0.00000000 0.00000000 0.00000000 0.00000000 0.00000000 0.00000000 0.00000000 0.00000000 0.00000000 0.00000000 0.00000000 0.00000000 0.00000000 0.00000000 0.00000000 0.00000000 0.00000000 0.00000000 0.00000000 0.00000000 0.00000000 0.00000000 0.00000000 0.00000000 0.00000000 0.00000000 0.00000000 0.00000000 0.00000000 0.00000000 0.00000000 0.00000000 0.00000000 0.00000000 0.00001652 0.00000000 0.00000000 0.00000000 0.00181144 0.00000000 0.00000000 0.00000000 0.00000000 0.00000000 -9999.00000000 -9999.00000000 -9999.00000000 -9999.00000000 -9999.00000000 -9999.00000000 -9999.00000000 -9999.00000000 -9999.00000000 -9999.00000000 -9999.00000000 -9999.00000000 -9999.00000000 -9999.00000000 -9999.00000000 -9999.00000000 -9999.00000000 -9999.00000000 
0.00000000 0.00000000 0.00000000 0.00000000 0.00000000 0.00000000 0.00000000 0.00000000 0.00000000 0.00000000 0.00000000 0.00000000 0.00000000 0.00000000 0.00000000 0.00000000 0.00000000 0.00000000 0.00000000 0.00000000 0.00000000 0.00000000 0.00000000 0.00000000 0.00000000 0.00000000 0.00000000 0.00000000 0.00000000 0.00000000 0.00000000 0.00000000 0.00000000 0.00000000 0.00000000 0.00000000 0.00000000 0.00000000 0.00000000 0.00000000 0.00000000 0.00000000 0.00000000 0.00000000 0.00000000 0.00000000 0.00000000 0.00000000 0.00000000 0.00000000 0.00000000 0.00000000 0.00000000 0.00000000 0.00000000 0.00000000 0.00000000 0.00000000 0.00000000 0.00000000 -9999.00000000 -9999.00000000 -9999.00000000 -9999.00000000 -9999.00000000 -9999.00000000 -9999.00000000 -9999.00000000 -9999.00000000 -9999.00000000 -9999.00000000 -9999.00000000 -9999.00000000 -9999.00000000 -9999.00000000 -9999.00000000 -9999.00000000 -9999.00000000 
0.00000000 0.00000000 0.00000000 0.00000000 0.00000000 0.00000000 0.00000000 0.00000000 0.00000000 0.00000000 0.00000000 0.00000000 0.00000000 0.00000000 0.00000000 0.00000000 0.00000000 0.00000000 0.00000000 0.00000000 0.00000000 0.00000000 0.00000000 0.00000000 0.00000000 0.00000000 0.00000000 0.00000000 0.00000000 0.00000000 0.00000000 0.00000000 0.00000000 0.00000000 0.00000000 0.00000000 0.00000000 0.00000000 0.00000000 0.00000000 0.00000000 0.00000000 0.00000000 0.00000000 0.00000000 0.00000000 0.00000000 0.00000000 0.00000000 0.00000000 0.00000000 0.00000000 0.00000000 0.00000000 0.00000000 0.00028038 0.00000000 0.00000000 0.00000000 -9999.00000000 -9999.00000000 -9999.00000000 -9999.00000000 -9999.00000000 -9999.00000000 -9999.00000000 -9999.00000000 -9999.00000000 -9999.00000000 -9999.00000000 -9999.00000000 -9999.00000000 -9999.00000000 -9999.00000000 -9999.00000000 -9999.00000000 -9999.00000000 -9999.00000000 
0.00000000 0.00000000 0.00000000 0.00000000 0.00000000 0.00000000 0.00000000 0.00000000 0.00000000 0.00000000 0.00000000 0.00000000 0.00000000 0.00000000 0.00000000 0.00000000 0.00000000 0.00000000 0.00000000 0.00000000 0.00000000 0.00000000 0.00000000 0.00000000 0.00000000 0.00000000 0.00000000 0.00000000 0.00000000 0.00000000 0.00000000 0.00000000 0.00000000 0.00000000 0.00000000 0.00000000 0.00000000 0.00000000 0.00000000 0.00000000 0.00000000 0.00000000 0.00000000 0.00000000 0.00000000 0.00000000 0.00000000 0.00000000 0.00000000 0.00000000 0.00000000 0.00000000 0.00000000 0.00000000 0.00000000 0.00000000 0.00006852 0.00000000 -9999.00000000 -9999.00000000 -9999.00000000 -9999.00000000 -9999.00000000 -9999.00000000 -9999.00000000 -9999.00000000 -9999.00000000 -9999.00000000 -9999.00000000 -9999.00000000 -9999.00000000 -9999.00000000 -9999.00000000 -9999.00000000 -9999.00000000 -9999.00000000 -9999.00000000 -9999.00000000 
0.00000000 0.00000000 0.00000000 0.00000000 0.00000000 0.00000000 0.00000000 0.00000000 0.00000000 0.00000000 0.00000000 0.00000000 0.00000000 0.00000000 0.00000000 0.00000000 0.00000000 0.00000000 0.00000000 0.00000000 0.00000000 0.00000000 0.00000000 0.00000000 0.00000000 0.00000000 0.00000000 0.00000000 0.00000000 0.00000000 0.00000000 0.00000000 0.00000000 0.00000000 0.00000000 0.00000000 0.00000000 0.00000000 0.00000000 0.00000000 0.00000000 0.00000000 0.00000000 0.00000000 0.00000000 0.00000000 0.00000000 0.00000000 0.00000000 0.00000000 0.00000000 0.00000000 0.00000000 0.00000000 0.00000000 0.00000000 0.00000000 0.00000000 0.00000000 -9999.00000000 -9999.00000000 -9999.00000000 -9999.00000000 -9999.00000000 -9999.00000000 -9999.00000000 -9999.00000000 -9999.00000000 -9999.00000000 -9999.00000000 -9999.00000000 -9999.00000000 -9999.00000000 -9999.00000000 -9999.00000000 -9999.00000000 -9999.00000000 -9999.00000000 
0.00000000 0.00000000 0.00000000 0.00000000 0.00000000 0.00000000 0.00000000 0.00000000 0.00000000 0.00000000 0.00000000 0.00000000 0.00000000 0.00000000 0.00000000 0.00000000 0.00000000 0.00000000 0.00000000 0.00000000 0.00000000 0.00000000 0.00000000 0.00000000 0.00000000 0.00000000 0.00000000 0.00000000 0.00000000 0.00000000 0.00000000 0.00000000 0.00000000 0.00000000 0.00000000 0.00000000 0.00000000 0.00000000 0.00000000 0.00000000 0.00000000 0.00000000 0.00000000 0.00000000 0.00000000 0.00000000 0.00000000 0.00000000 0.00000000 0.00000000 0.00000000 0.00000000 0.00014037 0.00000000 0.00000000 0.00000000 0.00000000 0.00000000 0.00021733 0.00000000 -9999.00000000 -9999.00000000 -9999.00000000 -9999.00000000 -9999.00000000 -9999.00000000 -9999.00000000 -9999.00000000 -9999.00000000 -9999.00000000 -9999.00000000 -9999.00000000 -9999.00000000 -9999.00000000 -9999.00000000 -9999.00000000 -9999.00000000 -9999.00000000 
0.00000000 0.00000000 0.00000000 0.00000000 0.00000000 0.00000000 0.00000000 0.00000000 0.00000000 0.00000000 0.00000000 0.00000000 0.00000000 0.00000000 0.00000000 0.00000000 0.00000000 0.00000000 0.00000000 0.00000000 0.00000000 0.00000000 0.00000000 0.00000000 0.00000000 0.00000000 0.00000000 0.00000000 0.00000000 0.00000000 0.00000000 0.00000000 0.00000000 0.00000000 0.00000000 0.00000000 0.00000000 0.00000000 0.00000000 0.00000000 0.00000000 0.00000000 0.00000000 0.00000000 0.00000000 0.00000000 0.00000000 0.00000000 0.00000000 0.00000000 0.00000000 0.00000000 0.00000000 0.00000000 0.00000000 0.00000000 0.00000000 0.00000000 0.00000000 0.00000000 -9999.00000000 -9999.00000000 -9999.00000000 -9999.00000000 -9999.00000000 -9999.00000000 -9999.00000000 -9999.00000000 -9999.00000000 -9999.00000000 -9999.00000000 -9999.00000000 -9999.00000000 -9999.00000000 -9999.00000000 -9999.00000000 -9999.00000000 -9999.00000000 
0.00000000 0.00000000 0.00000000 0.00000000 0.00000000 0.00000000 0.00000000 0.00000000 0.00000000 0.00000000 0.00000000 0.00000000 0.00000000 0.00000000 0.00000000 0.00000000 0.00000000 0.00000000 0.00000000 0.00000000 0.00000000 0.00000000 0.00000000 0.00000000 0.00000000 0.00000000 0.00000000 0.00000000 0.00000000 0.00000000 0.00000000 0.00000000 0.00000000 0.00000000 0.00000000 0.00000000 0.00000000 0.00000000 0.00000000 0.00000000 0.00000000 0.00000000 0.00000000 0.00000000 0.00000000 0.00000000 0.00000000 0.00000000 0.00000000 0.00000000 0.00000000 0.00000000 0.00000000 0.00000000 0.00000000 0.00000000 0.00000000 0.00000000 0.00000000 0.00000000 -9999.00000000 -9999.00000000 -9999.00000000 -9999.00000000 -9999.00000000 -9999.00000000 -9999.00000000 -9999.00000000 -9999.00000000 -9999.00000000 -9999.00000000 -9999.00000000 -9999.00000000 -9999.00000000 -9999.00000000 -9999.00000000 -9999.00000000 -9999.00000000 
0.00000000 0.00000000 0.00000000 0.00000000 0.00000000 0.00000000 0.00000000 0.00000000 0.00000000 0.00000000 0.00000000 0.00000000 0.00000000 0.00000000 0.00000000 0.00000000 0.00000000 0.00000000 0.00000000 0.00000000 0.00000000 0.00000000 0.00000000 0.00000000 0.00000000 0.00000000 0.00000000 0.00000000 0.00000000 0.00000000 0.00000000 0.00000000 0.00000000 0.00000000 0.00000000 0.00000000 0.00000000 0.00000000 0.00000000 0.00000000 0.00000000 0.00000000 0.00000000 0.00000000 0.00000000 0.00000000 0.00000000 0.00000000 0.00000000 0.00000000 0.00000000 0.00000000 0.00000000 0.00000000 0.00000000 0.00000000 0.00000000 0.00000000 0.00000000 0.00000000 0.00000000 -9999.00000000 -9999.00000000 -9999.00000000 -9999.00000000 -9999.00000000 -9999.00000000 -9999.00000000 -9999.00000000 -9999.00000000 -9999.00000000 -9999.00000000 -9999.00000000 -9999.00000000 -9999.00000000 -9999.00000000 -9999.00000000 -9999.00000000 
0.00000000 0.00000000 0.00000000 0.00000000 0.00000000 0.00000000 0.00000000 0.00000000 0.00000000 0.00000000 0.00000000 0.00000000 0.00000000 0.00000000 0.00000000 0.00000000 0.00000000 0.00000000 0.00000000 0.00000000 0.00000000 0.00000000 0.00000000 0.00000000 0.00000000 0.00000000 0.00000000 0.00000000 0.00000000 0.00000000 0.00000000 0.00000000 0.00000000 0.00000000 0.00000000 0.00000000 0.00000000 0.00000000 0.00000000 0.00000000 0.00000000 0.00000000 0.00000000 0.00000000 0.00000000 0.00000000 0.00000000 0.00000000 0.00000000 0.00000000 0.00000000 0.00000000 0.00000000 0.00000000 0.00000000 0.00000000 0.00000000 0.00000000 0.00000000 0.00000000 0.00000000 -9999.00000000 -9999.00000000 -9999.00000000 -9999.00000000 -9999.00000000 -9999.00000000 -9999.00000000 -9999.00000000 -9999.00000000 -9999.00000000 -9999.00000000 -9999.00000000 -9999.00000000 -9999.00000000 -9999.00000000 -9999.00000000 -9999.00000000 
0.00000000 0.00000000 0.00000000 0.00000000 0.00000000 0.00000000 0.00000000 0.00000000 0.00000000 0.00000000 0.00000000 0.00000000 0.00000000 0.00000000 0.00000000 0.00000000 0.00000000 0.00000000 0.00000000 0.00000000 0.00000000 0.00000000 0.00000000 0.00000000 0.00000000 0.00000000 0.00000000 0.00000000 0.00000000 0.00000000 0.00000000 0.00000000 0.00000000 0.00000000 0.00000000 0.00000000 0.00000000 0.00000000 0.00000000 0.00000000 0.00000000 0.00000000 0.00000000 0.00000000 0.00000000 0.00000000 0.00000000 0.00000000 0.00000000 0.00000000 0.00000000 0.00000000 0.00000000 0.00000000 0.00000000 0.00000000 0.00000000 0.00000000 0.00000000 0.00000000 0.00000000 0.00000000 -9999.00000000 -9999.00000000 0.00000000 -9999.00000000 -9999.00000000 -9999.00000000 -9999.00000000 -9999.00000000 -9999.00000000 -9999.00000000 -9999.00000000 -9999.00000000 -9999.00000000 -9999.00000000 -9999.00000000 -9999.00000000 
0.00000000 0.00000000 0.00000000 0.00000000 0.00000000 0.00000000 0.00000000 0.00000000 0.00000000 0.00000000 0.00000000 0.00000000 0.00000000 0.00000000 0.00000000 0.00000000 0.00000000 0.00000000 0.00000000 0.00000000 0.00000000 0.00000000 0.00000000 0.00000000 0.00000000 0.00000000 0.00000000 0.00000000 0.00000000 0.00000000 0.00000000 0.00000000 0.00000000 0.00000000 0.00000000 0.00000000 0.00000000 0.00000000 0.00000000 0.00000000 0.00000000 0.00000000 0.00000000 0.00000000 0.00000000 0.00000000 0.00000000 0.00000000 0.00000000 0.00000000 0.00000000 0.00000000 0.00000000 0.00000000 0.00000000 0.00000000 0.00000000 0.00000000 0.00000000 0.00000000 0.00000000 0.00000000 0.00061569 0.00000000 0.00000000 -9999.00000000 -9999.00000000 -9999.00000000 -9999.00000000 -9999.00000000 -9999.00000000 -9999.00000000 -9999.00000000 -9999.00000000 -9999.00000000 -9999.00000000 -9999.00000000 -9999.00000000 
0.00000000 0.00000000 0.00000000 0.00000000 0.00000000 0.00000000 0.00000000 0.00000000 0.00000000 0.00000000 0.00000000 0.00000000 0.00000000 0.00000000 0.00000000 0.00000000 0.00000000 0.00000000 0.00000000 0.00000000 0.00000000 0.00000000 0.00000000 0.00000000 0.00000000 0.00000000 0.00000000 0.00000000 0.00000000 0.00000000 0.00000000 0.00000000 0.00000000 0.00000000 0.00000000 0.00000000 0.00000000 0.00000000 0.00000000 0.00000000 0.00000000 0.00000000 0.00000000 0.00000000 0.00000000 0.00000000 0.00000000 0.00000000 0.00000000 0.00000000 0.00000000 0.00000000 0.00000000 0.00000000 0.00000000 0.00000000 0.00000000 0.00000000 0.00000000 0.00000000 0.00000000 0.00000000 0.00000000 0.00000000 0.00000000 -9999.00000000 -9999.00000000 -9999.00000000 -9999.00000000 -9999.00000000 -9999.00000000 -9999.00000000 -9999.00000000 -9999.00000000 -9999.00000000 -9999.00000000 -9999.00000000 -9999.00000000 
0.00000000 0.00000000 0.00000000 0.00000000 0.00000000 0.00000000 0.00000000 0.00000000 0.00000000 0.00000000 0.00000000 0.00000000 0.00000000 0.00000000 0.00000000 0.00000000 0.00000000 0.00000000 0.00000000 0.00000000 0.00000000 0.00000000 0.00000000 0.00000000 0.00000000 0.00000000 0.00000000 0.00000000 0.00000000 0.00000000 0.00000000 0.00000000 0.00000000 0.00000000 0.00000000 0.00000000 0.00000000 0.00000000 0.00000000 0.00000000 0.00000000 0.00000000 0.00000000 0.00000000 0.00000000 0.00000000 0.00000000 0.00000000 0.00000000 0.00000000 0.00000000 0.00000000 0.00000000 0.00000000 0.00000000 0.00000000 0.00000000 0.00000000 0.00000000 0.00000000 0.00001785 0.00000000 0.00000000 0.00000000 -9999.00000000 -9999.00000000 -9999.00000000 -9999.00000000 -9999.00000000 -9999.00000000 -9999.00000000 -9999.00000000 -9999.00000000 -9999.00000000 -9999.00000000 -9999.00000000 -9999.00000000 -9999.00000000 
0.00000000 0.00000000 0.00000000 0.00000000 0.00000000 0.00000000 0.00000000 0.00000000 0.00000000 0.00000000 0.00000000 0.00000000 0.00000000 0.00000000 0.00000000 0.00000000 0.00000000 0.00000000 0.00000000 0.00000000 0.00000000 0.00000000 0.00000000 0.00000000 0.00000000 0.00000000 0.00000000 0.00000000 0.00000000 0.00000000 0.00000000 0.00000000 0.00000000 0.00000000 0.00000000 0.00000000 0.00000000 0.00000000 0.00000000 0.00000000 0.00000000 0.00000000 0.00000000 0.00000000 0.00000000 0.00000000 0.00000000 0.00000000 0.00000000 0.00000000 0.00000000 0.00000000 0.00000000 0.00000000 0.00000000 0.00000000 0.00000000 0.00011867 0.00000000 0.00000000 0.00000000 0.00000000 0.00030271 0.00000000 -9999.00000000 -9999.00000000 -9999.00000000 -9999.00000000 -9999.00000000 -9999.00000000 -9999.00000000 -9999.00000000 -9999.00000000 -9999.00000000 -9999.00000000 -9999.00000000 -9999.00000000 -9999.00000000 
0.00000000 0.00000000 0.00000000 0.00000000 0.00000000 0.00000000 0.00000000 0.00000000 0.00000000 0.00000000 0.00000000 0.00000000 0.00000000 0.00000000 0.00000000 0.00000000 0.00000000 0.00000000 0.00000000 0.00000000 0.00000000 0.00000000 0.00000000 0.00000000 0.00000000 0.00000000 0.00000000 0.00000000 0.00000000 0.00000000 0.00000000 0.00000000 0.00000000 0.00000000 0.00000000 0.00000000 0.00000000 0.00000000 0.00000000 0.00000000 0.00000000 0.00000000 0.00000000 0.00000000 0.00000000 0.00000000 0.00000000 0.00000000 0.00000000 0.00000000 0.00000000 0.00000000 0.00000000 0.00000000 0.00000000 0.00000000 0.00000000 0.00000000 0.00000000 0.00000000 0.00000000 0.00000000 0.00000000 0.00010121 0.00000000 0.00000000 0.00000000 0.00000000 -9999.00000000 -9999.00000000 -9999.00000000 -9999.00000000 -9999.00000000 -9999.00000000 -9999.00000000 -9999.00000000 -9999.00000000 -9999.00000000 
0.00000000 0.00000000 0.00000000 0.00000000 0.00000000 0.00000000 0.00000000 0.00000000 0.00000000 0.00000000 0.00000000 0.00000000 0.00000000 0.00000000 0.00000000 0.00000000 0.00000000 0.00000000 0.00000000 0.00000000 0.00000000 0.00000000 0.00000000 0.00000000 0.00000000 0.00000000 0.00000000 0.00000000 0.00000000 0.00000000 0.00000000 0.00000000 0.00000000 0.00000000 0.00000000 0.00000000 0.00000000 0.00000000 0.00000000 0.00000000 0.00000000 0.00000000 0.00000000 0.00000000 0.00000000 0.00000000 0.00000000 0.00000000 0.00000000 0.00000000 0.00000000 0.00000000 0.00000000 0.00000000 0.00000000 0.00000000 0.00000000 0.00000000 0.00000000 0.00000000 0.00000000 0.00036957 0.00000000 0.00000000 0.00000000 0.00000000 0.00000000 0.00000000 -9999.00000000 -9999.00000000 -9999.00000000 -9999.00000000 -9999.00000000 -9999.00000000 -9999.00000000 -9999.00000000 -9999.00000000 -9999.00000000 
0.00000000 0.00000000 0.00000000 0.00000000 0.00000000 0.00000000 0.00000000 0.00000000 0.00000000 0.00000000 0.00000000 0.00000000 0.00000000 0.00000000 0.00000000 0.00000000 0.00000000 0.00000000 0.00000000 0.00000000 0.00000000 0.00000000 0.00000000 0.00000000 0.00000000 0.00000000 0.00000000 0.00000000 0.00000000 0.00000000 0.00000000 0.00000000 0.00000000 0.00000000 0.00000000 0.00000000 0.00000000 0.00000000 0.00000000 0.00000000 0.00000000 0.00000000 0.00000000 0.00000000 0.00000000 0.00000000 0.00000000 0.00000000 0.00000000 0.00000000 0.00000000 0.00000000 0.00000000 0.00000000 0.00000000 0.00000000 0.00000000 0.00000000 0.00000000 0.00000000 0.00000000 0.00000000 0.00000000 0.00045703 0.00000000 0.00002176 0.00000000 0.00000000 -9999.00000000 -9999.00000000 -9999.00000000 -9999.00000000 -9999.00000000 -9999.00000000 -9999.00000000 -9999.00000000 -9999.00000000 -9999.00000000 
0.00000000 0.00000000 0.00000000 0.00000000 0.00000000 0.00000000 0.00000000 0.00000000 0.00000000 0.00000000 0.00000000 0.00000000 0.00000000 0.00000000 0.00000000 0.00000000 0.00000000 0.00000000 0.00000000 0.00000000 0.00000000 0.00000000 0.00000000 0.00000000 0.00000000 0.00000000 0.00000000 0.00000000 0.00000000 0.00000000 0.00000000 0.00000000 0.00000000 0.00000000 0.00000000 0.00000000 0.00000000 0.00000000 0.00000000 0.00000000 0.00000000 0.00000000 0.00000000 0.00000000 0.00000000 0.00000000 0.00000000 0.00000000 0.00000000 0.00000000 0.00000000 0.00000000 0.00000000 0.00000000 0.00000000 0.00000000 0.00000000 0.00000000 0.00000000 0.00000000 0.00000000 0.00000000 0.00000000 0.00000000 0.00000000 0.00000000 0.00000000 0.00000000 -9999.00000000 -9999.00000000 -9999.00000000 -9999.00000000 -9999.00000000 -9999.00000000 -9999.00000000 -9999.00000000 -9999.00000000 -9999.00000000 
0.00000000 0.00000000 0.00000000 0.00000000 0.00000000 0.00000000 0.00000000 0.00000000 0.00000000 0.00000000 0.00000000 0.00000000 0.00000000 0.00000000 0.00000000 0.00000000 0.00000000 0.00000000 0.00000000 0.00000000 0.00000000 0.00000000 0.00000000 0.00000000 0.00000000 0.00000000 0.00000000 0.00000000 0.00000000 0.00000000 0.00000000 0.00000000 0.00000000 0.00000000 0.00000000 0.00000000 0.00000000 0.00000000 0.00000000 0.00000000 0.00000000 0.00000000 0.00000000 0.00000000 0.00000000 0.00000000 0.00000000 0.00000000 0.00000000 0.00000000 0.00000000 0.00000000 0.00000000 0.00000000 0.00000000 0.00000000 0.00000000 0.00000000 0.00000000 0.00000000 0.00000000 0.00000000 0.00000000 0.00000000 0.00000000 0.00000000 0.00000000 0.00000000 -9999.00000000 -9999.00000000 -9999.00000000 -9999.00000000 -9999.00000000 -9999.00000000 -9999.00000000 -9999.00000000 -9999.00000000 -9999.00000000 
0.00000000 0.00000000 0.00000000 0.00000000 0.00000000 0.00000000 0.00000000 0.00000000 0.00000000 0.00000000 0.00000000 0.00000000 0.00000000 0.00000000 0.00000000 0.00000000 0.00000000 0.00000000 0.00000000 0.00000000 0.00000000 0.00000000 0.00000000 0.00000000 0.00000000 0.00000000 0.00000000 0.00000000 0.00000000 0.00000000 0.00000000 0.00000000 0.00000000 0.00000000 0.00000000 0.00000000 0.00000000 0.00000000 0.00000000 0.00000000 0.00000000 0.00000000 0.00000000 0.00000000 0.00000000 0.00000000 0.00000000 0.00000000 0.00000000 0.00000000 0.00000000 0.00000000 0.00000000 0.00000000 0.00000000 0.00000000 0.00000000 0.00000000 0.00000000 0.00000000 0.00000000 0.00000000 0.00000000 0.00000000 0.00050393 0.00058790 0.00000000 0.00000000 0.00000000 -9999.00000000 -9999.00000000 -9999.00000000 -9999.00000000 -9999.00000000 -9999.00000000 -9999.00000000 -9999.00000000 -9999.00000000 
0.00000000 0.00000000 0.00000000 0.00000000 0.00000000 0.00000000 0.00000000 0.00000000 0.00000000 0.00000000 0.00000000 0.00000000 0.00000000 0.00000000 0.00000000 0.00000000 0.00000000 0.00000000 0.00000000 0.00000000 0.00000000 0.00000000 0.00000000 0.00000000 0.00000000 0.00000000 0.00000000 0.00000000 0.00000000 0.00000000 0.00000000 0.00000000 0.00000000 0.00000000 0.00000000 0.00000000 0.00000000 0.00000000 0.00000000 0.00000000 0.00000000 0.00000000 0.00000000 0.00000000 0.00000000 0.00000000 0.00000000 0.00000000 0.00000000 0.00000000 0.00000000 0.00000000 0.00000000 0.00000000 0.00000000 0.00000000 0.00000000 0.00000000 0.00000000 0.00000000 0.00000000 0.00000000 0.00000000 0.00000000 0.00000000 0.00000000 0.00000000 0.00000000 0.00000000 0.00000000 -9999.00000000 -9999.00000000 -9999.00000000 -9999.00000000 -9999.00000000 -9999.00000000 -9999.00000000 -9999.00000000 
0.00000000 0.00000000 0.00000000 0.00000000 0.00000000 0.00000000 0.00000000 0.00000000 0.00000000 0.00000000 0.00000000 0.00000000 0.00000000 0.00000000 0.00000000 0.00000000 0.00000000 0.00000000 0.00000000 0.00000000 0.00000000 0.00000000 0.00000000 0.00000000 0.00000000 0.00000000 0.00000000 0.00000000 0.00000000 0.00000000 0.00000000 0.00000000 0.00000000 0.00000000 0.00000000 0.00000000 0.00000000 0.00000000 0.00000000 0.00000000 0.00000000 0.00000000 0.00000000 0.00000000 0.00000000 0.00000000 0.00000000 0.00000000 0.00000000 0.00000000 0.00000000 0.00000000 0.00000000 0.00000000 0.00000000 0.00000000 0.00000000 0.00000000 0.00000000 0.00000000 0.00000000 0.00000000 0.00000000 0.00050496 0.00000000 0.00000000 0.00000000 0.00000000 0.00000000 0.00000000 0.00000000 0.00000000 -9999.00000000 -9999.00000000 -9999.00000000 -9999.00000000 -9999.00000000 -9999.00000000 
0.00000000 0.00000000 0.00000000 0.00000000 0.00000000 0.00000000 0.00000000 0.00000000 0.00000000 0.00000000 0.00000000 0.00000000 0.00000000 0.00000000 0.00000000 0.00000000 0.00000000 0.00000000 0.00000000 0.00000000 0.00000000 0.00000000 0.00000000 0.00000000 0.00000000 0.00000000 0.00000000 0.00000000 0.00000000 0.00000000 0.00000000 0.00000000 0.00000000 0.00000000 0.00000000 0.00000000 0.00000000 0.00000000 0.00000000 0.00000000 0.00000000 0.00000000 0.00000000 0.00000000 0.00000000 0.00000000 0.00000000 0.00000000 0.00000000 0.00000000 0.00000000 0.00000000 0.00000000 0.00000000 0.00000000 0.00000000 0.00000000 0.00000000 0.00000000 0.00000000 0.00000000 0.00000000 0.00000000 0.00000000 0.00000000 0.00000000 0.00000000 0.00000000 0.00000000 0.00000000 0.00000000 0.00000000 0.00000000 0.00000000 -9999.00000000 -9999.00000000 -9999.00000000 -9999.00000000 
0.00000000 0.00000000 0.00000000 0.00000000 0.00000000 0.00000000 0.00000000 0.00000000 0.00000000 0.00000000 0.00000000 0.00000000 0.00000000 0.00000000 0.00000000 0.00000000 0.00000000 0.00000000 0.00000000 0.00000000 0.00000000 0.00000000 0.00000000 0.00000000 0.00000000 0.00000000 0.00000000 0.00000000 0.00000000 0.00000000 0.00000000 0.00000000 0.00000000 0.00000000 0.00000000 0.00000000 0.00000000 0.00000000 0.00000000 0.00000000 0.00000000 0.00000000 0.00000000 0.00000000 0.00000000 0.00000000 0.00000000 0.00000000 0.00000000 0.00000000 0.00000000 0.00000000 0.00000000 0.00000000 0.00000000 0.00000000 0.00000000 0.00000000 0.00000000 0.00000000 0.00000000 0.00000000 0.00000000 0.00000000 0.00000000 0.00000000 0.00000000 0.00000000 0.00049283 0.00000000 0.00000000 0.00000000 0.00000000 0.00000000 0.00000000 -9999.00000000 -9999.00000000 -9999.00000000 
0.00000000 0.00000000 0.00000000 0.00000000 0.00000000 0.00000000 0.00000000 0.00000000 0.00000000 0.00000000 0.00000000 0.00000000 0.00000000 0.00000000 0.00000000 0.00000000 0.00000000 0.00000000 0.00000000 0.00000000 0.00000000 0.00000000 0.00000000 0.00000000 0.00000000 0.00000000 0.00000000 0.00000000 0.00000000 0.00000000 0.00000000 0.00000000 0.00000000 0.00000000 0.00000000 0.00000000 0.00000000 0.00000000 0.00000000 0.00000000 0.00000000 0.00000000 0.00000000 0.00000000 0.00000000 0.00000000 0.00000000 0.00000000 0.00000000 0.00000000 0.00000000 0.00000000 0.00000000 0.00000000 0.00000000 0.00000000 0.00000000 0.00000000 0.00000000 0.00000000 0.00000000 0.00000000 0.00000000 0.00000000 0.00000000 0.00000000 0.00000000 0.00000000 0.00000000 0.00000000 0.00000000 0.00000000 0.00000000 0.00000000 0.00000000 -9999.00000000 -9999.00000000 -9999.00000000 
0.00000000 0.00000000 0.00000000 0.00000000 0.00000000 0.00000000 0.00000000 0.00000000 0.00000000 0.00000000 0.00000000 0.00000000 0.00000000 0.00000000 0.00000000 0.00000000 0.00000000 0.00000000 0.00000000 0.00000000 0.00000000 0.00000000 0.00000000 0.00000000 0.00000000 0.00000000 0.00000000 0.00000000 0.00000000 0.00000000 0.00000000 0.00000000 0.00000000 0.00000000 0.00000000 0.00000000 0.00000000 0.00000000 0.00000000 0.00000000 0.00000000 0.00000000 0.00000000 0.00000000 0.00000000 0.00000000 0.00000000 0.00000000 0.00000000 0.00000000 0.00000000 0.00000000 0.00000000 0.00000000 0.00000000 0.00000000 0.00000000 0.00000000 0.00000000 0.00000000 0.00000000 0.00000000 0.00000000 0.00000000 0.00000000 0.00000000 0.00000000 0.00000000 0.00000000 0.00000000 0.00000000 0.00000000 0.00000000 0.00000000 0.00000000 0.00000000 0.00000000 -9999.00000000 
0.00000000 0.00000000 0.00000000 0.00000000 0.00000000 0.00000000 0.00000000 0.00000000 0.00000000 0.00000000 0.00000000 0.00000000 0.00000000 0.00000000 0.00000000 0.00000000 0.00000000 0.00000000 0.00000000 0.00000000 0.00000000 0.00000000 0.00000000 0.00000000 0.00000000 0.00000000 0.00000000 0.00000000 0.00000000 0.00000000 0.00000000 0.00000000 0.00000000 0.00000000 0.00000000 0.00000000 0.00000000 0.00000000 0.00000000 0.00000000 0.00000000 0.00000000 0.00000000 0.00000000 0.00000000 0.00000000 0.00000000 0.00000000 0.00000000 0.00000000 0.00000000 0.00000000 0.00000000 0.00000000 0.00000000 0.00000000 0.00000000 0.00000000 0.00000000 0.00000000 0.00000000 0.00000000 0.00000000 0.00000000 0.00000000 0.00000000 0.00000000 0.00000000 0.00000000 0.00000000 0.00000000 0.00000000 0.00000000 0.00000000 0.00000000 0.00000000 -9999.00000000 -9999.00000000 
0.00000000 0.00000000 0.00000000 0.00000000 0.00000000 0.00000000 0.00000000 0.00000000 0.00000000 0.00000000 0.00000000 0.00000000 0.00000000 0.00000000 0.00000000 0.00000000 0.00000000 0.00000000 0.00000000 0.00000000 0.00000000 0.00000000 0.00000000 0.00000000 0.00000000 0.00000000 0.00000000 0.00000000 0.00000000 0.00000000 0.00000000 0.00000000 0.00000000 0.00000000 0.00000000 0.00000000 0.00000000 0.00000000 0.00000000 0.00000000 0.00000000 0.00000000 0.00000000 0.00000000 0.00000000 0.00000000 0.00000000 0.00000000 0.00000000 0.00000000 0.00000000 0.00000000 0.00000000 0.00000000 0.00000000 0.00000000 0.00000000 0.00000000 0.00000000 0.00000000 0.00000000 0.00000000 0.00000000 0.00000000 0.00000000 0.00000000 0.00000000 0.00000000 0.00000000 0.00000000 0.00000000 0.00000000 0.00000000 0.00000000 0.00000000 0.00000000 0.00000000 -9999.00000000 
0.00000000 0.00000000 0.00000000 0.00000000 0.00000000 0.00000000 0.00000000 0.00000000 0.00000000 0.00000000 0.00000000 0.00000000 0.00000000 0.00000000 0.00000000 0.00000000 0.00000000 0.00000000 0.00000000 0.00000000 0.00000000 0.00000000 0.00000000 0.00000000 0.00000000 0.00000000 0.00000000 0.00000000 0.00000000 0.00000000 0.00000000 0.00000000 0.00000000 0.00000000 0.00000000 0.00000000 0.00000000 0.00000000 0.00000000 0.00000000 0.00000000 0.00000000 0.00000000 0.00000000 0.00000000 0.00000000 0.00000000 0.00000000 0.00000000 0.00000000 0.00000000 0.00000000 0.00000000 0.00000000 0.00000000 0.00000000 0.00000000 0.00000000 0.00000000 0.00000000 0.00000000 0.00000000 0.00000000 0.00000000 0.00000000 0.00000000 0.00000000 0.00000000 0.00000000 0.00000000 0.00000000 0.00000000 0.00000000 0.00000000 0.00000000 0.00000000 -9999.00000000 0.00000000 
0.00000000 0.00000000 0.00000000 0.00000000 0.00000000 0.00000000 0.00000000 0.00000000 0.00000000 0.00000000 0.00000000 0.00000000 0.00000000 0.00000000 0.00000000 0.00000000 0.00000000 0.00000000 0.00000000 0.00000000 0.00000000 0.00000000 0.00000000 0.00000000 0.00000000 0.00000000 0.00000000 0.00000000 0.00000000 0.00000000 0.00000000 0.00000000 0.00000000 0.00000000 0.00000000 0.00000000 0.00000000 0.00000000 0.00000000 0.00000000 0.00000000 0.00000000 0.00000000 0.00000000 0.00000000 0.00000000 0.00000000 0.00000000 0.00000000 0.00000000 0.00000000 0.00000000 0.00000000 0.00000000 0.00000000 0.00000000 0.00000000 0.00000000 0.00000000 0.00000000 0.00000000 0.00000000 0.00000000 0.00000000 0.00000000 0.00000000 0.00000000 0.00000000 0.00000000 0.00000000 0.00000000 0.00000000 0.00000000 0.00000000 0.00000000 0.00000000 -9999.00000000 -9999.00000000 
0.00000000 0.00000000 0.00000000 0.00000000 0.00000000 0.00000000 0.00000000 0.00000000 0.00000000 0.00000000 0.00000000 0.00000000 0.00000000 0.00000000 0.00000000 0.00000000 0.00000000 0.00000000 0.00000000 0.00000000 0.00000000 0.00000000 0.00000000 0.00000000 0.00000000 0.00000000 0.00000000 0.00000000 0.00000000 0.00000000 0.00000000 0.00000000 0.00000000 0.00000000 0.00000000 0.00000000 0.00000000 0.00000000 0.00000000 0.00000000 0.00000000 0.00000000 0.00000000 0.00000000 0.00000000 0.00000000 0.00000000 0.00000000 0.00000000 0.00000000 0.00000000 0.00000000 0.00000000 0.00000000 0.00000000 0.00000000 0.00000000 0.00000000 0.00000000 0.00000000 0.00000000 0.00000000 0.00000000 0.00000000 0.00000000 0.00000000 0.00000000 0.00000000 0.00000000 0.00000000 0.00000000 0.00000000 0.00000000 0.00000000 0.00000000 0.00000000 0.00000000 0.00000000 
0.00000000 0.00000000 0.00000000 0.00000000 0.00000000 0.00000000 0.00000000 0.00000000 0.00000000 0.00000000 0.00000000 0.00000000 0.00000000 0.00000000 0.00000000 0.00000000 0.00000000 0.00000000 0.00000000 0.00000000 0.00000000 0.00000000 0.00000000 0.00000000 0.00000000 0.00000000 0.00000000 0.00000000 0.00000000 0.00000000 0.00000000 0.00000000 0.00000000 0.00000000 0.00000000 0.00000000 0.00000000 0.00000000 0.00000000 0.00000000 0.00000000 0.00000000 0.00000000 0.00000000 0.00000000 0.00000000 0.00000000 0.00000000 0.00000000 0.00000000 0.00000000 0.00000000 0.00000000 0.00000000 0.00000000 0.00000000 0.00000000 0.00000000 0.00000000 0.00000000 0.00000000 0.00000000 0.00000000 0.00000000 0.00000000 0.00000000 0.00000000 0.00000000 0.00000000 0.00000000 0.00000000 0.00000000 0.00000000 0.00000000 0.00000000 0.00000000 0.00000000 0.00000000 
