ncols        78
nrows        66
xllcorner    -87.500000000000
yllcorner    25.000000000000
cellsize     0.083333333333
NODATA_value -9999.00000000
-9999.00000000 -9999.00000000 -9999.00000000 -9999.00000000 0.00000000 0.00000000 -9999.00000000 -9999.00000000 -9999.00000000 -9999.00000000 -9999.00000000 0.00000000 0.00000000 0.00000000 0.00000000 0.00000000 -9999.00000000 -9999.00000000 -9999.00000000 -9999.00000000 -9999.00000000 -9999.00000000 -9999.00000000 -9999.00000000 -9999.00000000 -9999.00000000 -9999.00000000 -9999.00000000 -9999.00000000 -9999.00000000 -9999.00000000 -9999.00000000 -9999.00000000 -9999.00000000 -9999.00000000 -9999.00000000 -9999.00000000 -9999.00000000 -9999.00000000 -9999.00000000 -9999.00000000 -9999.00000000 -9999.00000000 -9999.00000000 -9999.00000000 -9999.00000000 -9999.00000000 -9999.00000000 -9999.00000000 -9999.00000000 -9999.00000000 -9999.00000000 -9999.00000000 -9999.00000000 -9999.00000000 -9999.00000000 -9999.00000000 -9999.00000000 -9999.00000000 -9999.00000000 -9999.00000000 -9999.00000000 -9999.00000000 -9999.00000000 -9999.00000000 -9999.00000000 -9999.00000000 -9999.00000000 -9999.00000000 -9999.00000000 -9999.00000000 -9999.00000000 0.00000000 0.00000000 0.00000000 0.00000000 0.00000000 0.00000000 
-9999.00000000 -9999.00000000 -9999.00000000 0.00000000 0.00000000 0.00000000 0.00000000 0.00023124 0.00010282 0.00016319 0.00017728 0.00003083 0.00011487 0.00001712 0.00002052 -9999.00000000 -9999.00000000 -9999.00000000 -9999.00000000 -9999.00000000 -9999.00000000 -9999.00000000 -9999.00000000 -9999.00000000 -9999.00000000 -9999.00000000 -9999.00000000 -9999.00000000 -9999.00000000 -9999.00000000 -9999.00000000 -9999.00000000 -9999.00000000 -9999.00000000 -9999.00000000 -9999.00000000 -9999.00000000 -9999.00000000 -9999.00000000 -9999.00000000 -9999.00000000 -9999.00000000 -9999.00000000 -9999.00000000 -9999.00000000 -9999.00000000 -9999.00000000 -9999.00000000 -9999.00000000 -9999.00000000 -9999.00000000 -9999.00000000 -9999.00000000 -9999.00000000 -9999.00000000 -9999.00000000 -9999.00000000 -9999.00000000 -9999.00000000 -9999.00000000 -9999.00000000 -9999.00000000 -9999.00000000 -9999.00000000 -9999.00000000 -9999.00000000 -9999.00000000 -9999.00000000 -9999.00000000 -9999.00000000 -9999.00000000 -9999.00000000 -9999.00000000 0.00000000 0.00000000 0.00000000 0.00000000 0.00000000 
0.00000000 0.00000000 0.00000000 0.00017468 0.00000814 0.00000000 0.00000000 0.00000000 0.00001331 0.00000000 0.00000000 0.00000000 0.00000000 0.00017167 0.00000000 0.00000000 0.00004264 -9999.00000000 -9999.00000000 -9999.00000000 -9999.00000000 -9999.00000000 -9999.00000000 -9999.00000000 -9999.00000000 -9999.00000000 -9999.00000000 -9999.00000000 -9999.00000000 -9999.00000000 -9999.00000000 -9999.00000000 -9999.00000000 -9999.00000000 -9999.00000000 -9999.00000000 -9999.00000000 -9999.00000000 -9999.00000000 -9999.00000000 -9999.00000000 -9999.00000000 -9999.00000000 -9999.00000000 -9999.00000000 -9999.00000000 -9999.00000000 -9999.00000000 -9999.00000000 -9999.00000000 -9999.00000000 -9999.00000000 -9999.00000000 -9999.00000000 -9999.00000000 -9999.00000000 -9999.00000000 -9999.00000000 -9999.00000000 -9999.00000000 -9999.00000000 -9999.00000000 -9999.00000000 -9999.00000000 -9999.00000000 -9999.00000000 -9999.00000000 -9999.00000000 -9999.00000000 -9999.00000000 -9999.00000000 -9999.00000000 -9999.00000000 0.00000000 0.00000000 0.00000000 0.00000000 0.00000000 
0.00000000 0.00000000 0.00000000 0.00045852 0.00000000 0.00000000 0.00000000 0.00000000 0.00000000 0.00000000 0.00000000 0.00000000 0.00000000 0.00023992 0.00019895 0.00000000 0.00000000 0.00000000 0.00000000 0.00000810 0.00000000 0.00000000 -9999.00000000 -9999.00000000 -9999.00000000 -9999.00000000 -9999.00000000 -9999.00000000 -9999.00000000 -9999.00000000 -9999.00000000 -9999.00000000 -9999.00000000 -9999.00000000 -9999.00000000 -9999.00000000 -9999.00000000 -9999.00000000 -9999.00000000 -9999.00000000 -9999.00000000 -9999.00000000 -9999.00000000 -9999.00000000 -9999.00000000 -9999.00000000 -9999.00000000 -9999.00000000 -9999.00000000 -9999.00000000 -9999.00000000 -9999.00000000 -9999.00000000 -9999.00000000 -9999.00000000 -9999.00000000 -9999.00000000 -9999.00000000 -9999.00000000 -9999.00000000 -9999.00000000 -9999.00000000 -9999.00000000 -9999.00000000 -9999.00000000 -9999.00000000 -9999.00000000 -9999.00000000 -9999.00000000 -9999.00000000 -9999.00000000 -9999.00000000 -9999.00000000 0.00000000 0.00000000 0.00000000 0.00000000 0.00000000 
0.00000000 0.00000000 0.00000000 0.00233791 0.00031492 0.00000000 0.00000000 0.00000000 0.00039597 0.00049204 0.00038417 0.00009791 0.00000000 0.00070030 0.00048623 0.00000000 0.00000000 0.00000000 0.00000000 0.00006675 0.00000000 0.00003692 0.00000000 0.00000000 -9999.00000000 -9999.00000000 -9999.00000000 -9999.00000000 -9999.00000000 -9999.00000000 -9999.00000000 -9999.00000000 -9999.00000000 -9999.00000000 -9999.00000000 -9999.00000000 -9999.00000000 -9999.00000000 -9999.00000000 -9999.00000000 -9999.00000000 0.00000000 -9999.00000000 -9999.00000000 -9999.00000000 -9999.00000000 -9999.00000000 -9999.00000000 -9999.00000000 -9999.00000000 -9999.00000000 -9999.00000000 -9999.00000000 -9999.00000000 -9999.00000000 -9999.00000000 -9999.00000000 -9999.00000000 -9999.00000000 -9999.00000000 -9999.00000000 -9999.00000000 -9999.00000000 -9999.00000000 -9999.00000000 -9999.00000000 -9999.00000000 -9999.00000000 -9999.00000000 -9999.00000000 -9999.00000000 -9999.00000000 -9999.00000000 -9999.00000000 0.00000000 0.00000000 0.00000000 0.00000000 
0.00000000 0.00006382 0.00000000 0.00163225 0.00004378 0.00000786 0.00000000 0.00000000 0.00000000 0.00000000 0.00000000 0.00000000 0.00000000 0.00004076 0.00013044 0.00000000 0.00000000 0.00000000 0.00080593 0.00003457 0.00015612 0.00013947 0.00000000 0.00000000 -9999.00000000 -9999.00000000 -9999.00000000 -9999.00000000 -9999.00000000 -9999.00000000 -9999.00000000 -9999.00000000 -9999.00000000 -9999.00000000 -9999.00000000 -9999.00000000 -9999.00000000 -9999.00000000 0.00000000 0.00000000 0.00002740 0.00000000 0.00000000 0.00000000 -9999.00000000 -9999.00000000 -9999.00000000 -9999.00000000 -9999.00000000 -9999.00000000 -9999.00000000 -9999.00000000 -9999.00000000 -9999.00000000 -9999.00000000 -9999.00000000 -9999.00000000 -9999.00000000 -9999.00000000 -9999.00000000 -9999.00000000 -9999.00000000 -9999.00000000 -9999.00000000 -9999.00000000 -9999.00000000 -9999.00000000 -9999.00000000 -9999.00000000 -9999.00000000 -9999.00000000 -9999.00000000 -9999.00000000 -9999.00000000 0.00000000 0.00000000 0.00000000 0.00000000 
0.00000000 0.00000000 0.00000000 0.00000000 0.00000000 0.00000000 0.00000000 0.00000000 0.00000000 0.00000000 0.00000000 0.00000516 0.00000000 0.00000000 0.00000000 0.00000000 0.00000000 0.00000000 0.00000000 0.00061072 0.00004576 0.00000175 0.00001371 0.00004555 -9999.00000000 -9999.00000000 -9999.00000000 -9999.00000000 -9999.00000000 -9999.00000000 -9999.00000000 -9999.00000000 -9999.00000000 -9999.00000000 -9999.00000000 -9999.00000000 -9999.00000000 -9999.00000000 0.00000000 0.00000000 0.00033974 0.00000365 0.00000000 0.00000000 0.00000000 -9999.00000000 -9999.00000000 -9999.00000000 -9999.00000000 -9999.00000000 -9999.00000000 -9999.00000000 -9999.00000000 -9999.00000000 -9999.00000000 -9999.00000000 -9999.00000000 -9999.00000000 -9999.00000000 -9999.00000000 -9999.00000000 -9999.00000000 -9999.00000000 -9999.00000000 -9999.00000000 -9999.00000000 -9999.00000000 -9999.00000000 -9999.00000000 -9999.00000000 -9999.00000000 -9999.00000000 -9999.00000000 -9999.00000000 0.00000000 0.00000000 0.00000000 0.00000000 
0.00000000 0.00000000 0.00000000 0.00000000 0.00000000 0.00000000 0.00000000 0.00000000 0.00000000 0.00000000 0.00000000 0.00000000 0.00000000 0.00000000 0.00000000 0.00000000 0.00000000 0.00000000 0.00000000 0.00000000 0.00000000 0.00000000 0.00000942 0.00118805 0.00012732 0.00000210 -9999.00000000 -9999.00000000 -9999.00000000 -9999.00000000 -9999.00000000 -9999.00000000 -9999.00000000 -9999.00000000 -9999.00000000 -9999.00000000 0.00000000 0.00000000 0.00000000 0.00000000 0.00010336 0.00000000 0.00000000 0.00000000 0.00000000 0.00000000 -9999.00000000 -9999.00000000 -9999.00000000 -9999.00000000 -9999.00000000 -9999.00000000 -9999.00000000 -9999.00000000 -9999.00000000 -9999.00000000 -9999.00000000 -9999.00000000 -9999.00000000 -9999.00000000 -9999.00000000 -9999.00000000 -9999.00000000 -9999.00000000 -9999.00000000 -9999.00000000 -9999.00000000 -9999.00000000 -9999.00000000 -9999.00000000 -9999.00000000 -9999.00000000 -9999.00000000 -9999.00000000 0.00000000 0.00000000 0.00000000 0.00000000 
0.00000000 0.00000000 0.00000000 0.00000000 0.00000000 0.00000000 0.00000000 0.00000000 0.00000000 0.00000000 0.00000000 0.00000000 0.00000000 0.00000000 0.00000000 0.00000000 0.00000000 0.00000000 0.00000000 0.00011358 0.00000000 0.00005004 0.00004145 0.00000000 0.00000000 0.00000000 -9999.00000000 -9999.00000000 -9999.00000000 -9999.00000000 -9999.00000000 -9999.00000000 0.00000000 0.00000000 0.00000000 0.00037914 0.00001487 0.00000000 0.00000000 0.00000000 0.00000000 0.00000000 0.00000000 0.00000000 0.00000000 0.00000484 0.00000000 -9999.00000000 -9999.00000000 -9999.00000000 -9999.00000000 -9999.00000000 -9999.00000000 -9999.00000000 -9999.00000000 -9999.00000000 -9999.00000000 -9999.00000000 -9999.00000000 -9999.00000000 -9999.00000000 -9999.00000000 -9999.00000000 -9999.00000000 -9999.00000000 -9999.00000000 -9999.00000000 -9999.00000000 -9999.00000000 -9999.00000000 -9999.00000000 -9999.00000000 -9999.00000000 -9999.00000000 -9999.00000000 0.00000000 0.00000000 0.00000000 
0.00000000 0.00000000 0.00000000 0.00000000 0.00000000 0.00000000 0.00000000 0.00000000 0.00000000 0.00000000 0.00000000 0.00000000 0.00000000 0.00000000 0.00000000 0.00000000 0.00000000 0.00000000 0.00000000 0.00000248 0.00000000 0.00013034 0.00000000 0.00000000 0.00006172 0.00000000 0.00000000 -9999.00000000 -9999.00000000 -9999.00000000 0.00000000 0.00000000 0.00000000 0.00000000 0.00005244 0.00000000 0.00000000 0.00000000 0.00019435 0.00000000 0.00000000 0.00000000 0.00000000 0.00000000 0.00000064 0.00000000 0.00000000 0.00000000 -9999.00000000 -9999.00000000 -9999.00000000 -9999.00000000 -9999.00000000 -9999.00000000 -9999.00000000 -9999.00000000 -9999.00000000 -9999.00000000 -9999.00000000 -9999.00000000 -9999.00000000 -9999.00000000 -9999.00000000 -9999.00000000 -9999.00000000 -9999.00000000 -9999.00000000 -9999.00000000 -9999.00000000 -9999.00000000 -9999.00000000 -9999.00000000 -9999.00000000 -9999.00000000 -9999.00000000 0.00000000 0.00000000 0.00000000 
0.00000000 0.00000000 0.00000000 0.00000000 0.00000000 0.00000000 0.00000000 0.00000000 0.00000000 0.00000000 0.00000000 0.00000000 0.00000000 0.00000000 0.00000000 0.00000000 0.00000000 0.00000000 0.00001558 0.00000000 0.00000000 0.00048821 0.00000000 0.00000000 0.00000000 0.00000000 0.00000000 0.00000000 0.00000000 0.00000000 0.00000000 0.00000000 0.00000000 0.00000000 0.00000000 0.00011985 0.00016536 0.00000000 0.00000000 0.00000000 0.00000000 0.00000000 0.00000000 0.00002484 0.00000960 0.00000860 0.00000475 0.00000000 0.00000000 -9999.00000000 -9999.00000000 -9999.00000000 -9999.00000000 -9999.00000000 -9999.00000000 -9999.00000000 -9999.00000000 -9999.00000000 -9999.00000000 -9999.00000000 -9999.00000000 -9999.00000000 -9999.00000000 -9999.00000000 -9999.00000000 -9999.00000000 -9999.00000000 -9999.00000000 -9999.00000000 -9999.00000000 -9999.00000000 -9999.00000000 -9999.00000000 -9999.00000000 -9999.00000000 -9999.00000000 0.00000000 0.00000000 
0.00000000 0.00000000 0.00000000 0.00000000 0.00000000 0.00000000 0.00000000 0.00000000 0.00000000 0.00000000 0.00000000 0.00000000 0.00000000 0.00000000 0.00000000 0.00000000 0.00000000 0.00000000 0.00000000 0.00000000 0.00000000 0.00000000 0.00000000 0.00000000 0.00000000 0.00000000 0.00000000 0.00000000 0.00000000 0.00000000 0.00000000 0.00000000 0.00010439 0.00000000 0.00000000 0.00010975 0.00000000 0.00008638 0.00000000 0.00000000 0.00000000 0.00000000 0.00000000 0.00000000 0.00000000 0.00000000 0.00000000 0.00000000 0.00000000 -9999.00000000 -9999.00000000 -9999.00000000 -9999.00000000 -9999.00000000 -9999.00000000 -9999.00000000 -9999.00000000 -9999.00000000 -9999.00000000 -9999.00000000 -9999.00000000 -9999.00000000 -9999.00000000 -9999.00000000 -9999.00000000 -9999.00000000 -9999.00000000 -9999.00000000 -9999.00000000 -9999.00000000 -9999.00000000 -9999.00000000 -9999.00000000 -9999.00000000 -9999.00000000 -9999.00000000 0.00000000 0.00000000 
0.00000000 0.00000000 0.00000000 0.00000000 0.00000000 0.00000000 0.00000000 0.00000000 0.00000000 0.00000000 0.00000000 0.00000000 0.00000000 0.00000000 0.00000000 0.00000000 0.00000000 0.00000000 0.00000000 0.00000000 0.00000000 0.00000000 0.00000000 0.00000000 0.00000000 0.00000000 0.00000000 0.00000000 0.00000000 0.00000000 0.00000000 0.00322018 0.00017536 0.00000000 0.00000000 0.00000000 0.00000000 0.00000000 0.00000000 0.00000000 0.00000000 0.00000000 0.00000000 0.00000000 0.00000000 0.00000000 0.00000000 0.00000000 0.00000000 0.00000000 0.00000000 -9999.00000000 -9999.00000000 -9999.00000000 -9999.00000000 -9999.00000000 -9999.00000000 -9999.00000000 -9999.00000000 -9999.00000000 -9999.00000000 -9999.00000000 -9999.00000000 -9999.00000000 -9999.00000000 -9999.00000000 -9999.00000000 -9999.00000000 -9999.00000000 -9999.00000000 -9999.00000000 -9999.00000000 -9999.00000000 -9999.00000000 -9999.00000000 -9999.00000000 0.00000000 0.00000000 
0.00000000 0.00000000 0.00000000 0.00000000 0.00000000 0.00000000 0.00000000 0.00000000 0.00000000 0.00000000 0.00000000 0.00000000 0.00000000 0.00000000 0.00000000 0.00000000 0.00000000 0.00000000 0.00000000 0.00000000 0.00000000 0.00000000 0.00000000 0.00000000 0.00000000 0.00000000 0.00000000 0.00000000 0.00000000 0.00000000 0.00000000 0.00000000 0.00000000 0.00000000 0.00000000 0.00000000 0.00000000 0.00000000 0.00000000 0.00000000 0.00000000 0.00000000 0.00000000 0.00000000 0.00000000 0.00000000 0.00000000 0.00000012 0.00000000 0.00000000 0.00000000 0.00000000 -9999.00000000 -9999.00000000 -9999.00000000 -9999.00000000 -9999.00000000 -9999.00000000 -9999.00000000 -9999.00000000 -9999.00000000 -9999.00000000 -9999.00000000 -9999.00000000 -9999.00000000 -9999.00000000 -9999.00000000 -9999.00000000 -9999.00000000 -9999.00000000 -9999.00000000 -9999.00000000 -9999.00000000 -9999.00000000 -9999.00000000 -9999.00000000 -9999.00000000 0.00000000 
0.00000000 0.00000000 0.00000000 0.00000000 0.00000000 0.00000000 0.00000000 0.00000000 0.00000000 0.00000000 0.00000000 0.00000000 0.00000000 0.00000000 0.00000000 0.00000000 0.00000000 0.00000000 0.00000000 0.00000000 0.00000000 0.00000000 0.00000000 0.00000000 0.00000000 0.00000000 0.00000000 0.00000000 0.00000000 0.00000000 0.00000000 0.00000000 0.00000000 0.00000000 0.00000000 0.00000000 0.00000000 0.00000000 0.00000000 0.00000000 0.00000000 0.00000000 0.00000000 0.00000000 0.00000000 0.00000000 0.00000000 0.00000012 0.00038672 0.00000402 0.00000000 0.00000000 -9999.00000000 -9999.00000000 -9999.00000000 -9999.00000000 -9999.00000000 -9999.00000000 -9999.00000000 -9999.00000000 -9999.00000000 -9999.00000000 -9999.00000000 -9999.00000000 -9999.00000000 -9999.00000000 -9999.00000000 -9999.00000000 -9999.00000000 -9999.00000000 0.00000000 0.00000000 -9999.00000000 -9999.00000000 -9999.00000000 -9999.00000000 -9999.00000000 0.00000000 
0.00000000 0.00000000 0.00000000 0.00000000 0.00000000 0.00000000 0.00000000 0.00000000 0.00000000 0.00000000 0.00000000 0.00000000 0.00000000 0.00000000 0.00000000 0.00000000 0.00000000 0.00000000 0.00000000 0.00000000 0.00000000 0.00000000 0.00000000 0.00000000 0.00000000 0.00000000 0.00000000 0.00000000 0.00000000 0.00000000 0.00000000 0.00000000 0.00000000 0.00000000 0.00000000 0.00000000 0.00000000 0.00000000 0.00000000 0.00000000 0.00000000 0.00000000 0.00000000 0.00000000 0.00000000 0.00000000 0.00045328 0.00000000 0.00000000 0.00000000 0.00000000 0.00000000 0.00000000 -9999.00000000 -9999.00000000 -9999.00000000 -9999.00000000 -9999.00000000 -9999.00000000 -9999.00000000 -9999.00000000 -9999.00000000 -9999.00000000 -9999.00000000 -9999.00000000 -9999.00000000 -9999.00000000 -9999.00000000 -9999.00000000 -9999.00000000 -9999.00000000 0.00000000 -9999.00000000 -9999.00000000 -9999.00000000 -9999.00000000 -9999.00000000 -9999.00000000 
0.00000000 0.00000000 0.00000000 0.00000000 0.00000000 0.00000000 0.00000000 0.00000000 0.00000000 0.00000000 0.00000000 0.00000000 0.00000000 0.00000000 0.00000000 0.00000000 0.00000000 0.00000000 0.00000000 0.00000000 0.00000000 0.00000000 0.00000000 0.00000000 0.00000000 0.00000000 0.00000000 0.00000000 0.00000000 0.00000000 0.00000000 0.00000000 0.00000000 0.00000000 0.00000000 0.00000000 0.00000000 0.00000000 0.00000000 0.00000000 0.00000000 0.00000000 0.00000000 0.00000000 0.00000000 0.00000000 0.00000000 0.00000000 0.00022677 0.00000052 0.00000000 0.00007274 0.00000000 0.00000000 0.00000000 0.00000000 -9999.00000000 -9999.00000000 -9999.00000000 -9999.00000000 -9999.00000000 -9999.00000000 -9999.00000000 -9999.00000000 -9999.00000000 -9999.00000000 -9999.00000000 -9999.00000000 -9999.00000000 -9999.00000000 -9999.00000000 -9999.00000000 0.00000000 -9999.00000000 -9999.00000000 -9999.00000000 -9999.00000000 -9999.00000000 
0.00000000 0.00000000 0.00000000 0.00000000 0.00000000 0.00000000 0.00000000 0.00000000 0.00000000 0.00000000 0.00000000 0.00000000 0.00000000 0.00000000 0.00000000 0.00000000 0.00000000 0.00000000 0.00000000 0.00000000 0.00000000 0.00000000 0.00000000 0.00000000 0.00000000 0.00000000 0.00000000 0.00000000 0.00000000 0.00000000 0.00000000 0.00000000 0.00000000 0.00000000 0.00000000 0.00000000 0.00000000 0.00000000 0.00000000 0.00000000 0.00000000 0.00000000 0.00000000 0.00000000 0.00000000 0.00000000 0.00000000 0.00000000 0.00000000 0.00000018 0.00000000 0.00000000 0.00000000 0.00000000 0.00000384 0.00000096 0.00000000 -9999.00000000 -9999.00000000 -9999.00000000 -9999.00000000 -9999.00000000 -9999.00000000 -9999.00000000 -9999.00000000 -9999.00000000 -9999.00000000 -9999.00000000 -9999.00000000 -9999.00000000 -9999.00000000 -9999.00000000 -9999.00000000 -9999.00000000 -9999.00000000 -9999.00000000 -9999.00000000 -9999.00000000 
0.00000000 0.00000000 0.00000000 0.00000000 0.00000000 0.00000000 0.00000000 0.00000000 0.00000000 0.00000000 0.00000000 0.00000000 0.00000000 0.00000000 0.00000000 0.00000000 0.00000000 0.00000000 0.00000000 0.00000000 0.00000000 0.00000000 0.00000000 0.00000000 0.00000000 0.00000000 0.00000000 0.00000000 0.00000000 0.00000000 0.00000000 0.00000000 0.00000000 0.00000000 0.00000000 0.00000000 0.00000000 0.00000000 0.00000000 0.00000000 0.00000000 0.00000000 0.00000000 0.00000000 0.00000000 0.00000000 0.00000000 0.00000000 0.00000000 0.00000000 0.00000012 0.00010216 0.00000000 0.00000000 0.00000000 0.00000000 0.00000000 -9999.00000000 -9999.00000000 -9999.00000000 -9999.00000000 -9999.00000000 -9999.00000000 -9999.00000000 -9999.00000000 -9999.00000000 -9999.00000000 -9999.00000000 -9999.00000000 -9999.00000000 -9999.00000000 -9999.00000000 -9999.00000000 -9999.00000000 -9999.00000000 -9999.00000000 -9999.00000000 -9999.00000000 
0.00000000 0.00000000 0.00000000 0.00000000 0.00000000 0.00000000 0.00000000 0.00000000 0.00000000 0.00000000 0.00000000 0.00000000 0.00000000 0.00000000 0.00000000 0.00000000 0.00000000 0.00000000 0.00000000 0.00000000 0.00000000 0.00000000 0.00000000 0.00000000 0.00000000 0.00000000 0.00000000 0.00000000 0.00000000 0.00000000 0.00000000 0.00000000 0.00000000 0.00000000 0.00000000 0.00000000 0.00000000 0.00000000 0.00000000 0.00000000 0.00000000 0.00000000 0.00000000 0.00000000 0.00000000 0.00000000 0.00000000 0.00000000 0.00000000 0.00000000 0.00000000 0.00000000 0.00000000 0.00000000 0.00000000 0.00000401 0.00000000 0.00000000 -9999.00000000 -9999.00000000 -9999.00000000 -9999.00000000 -9999.00000000 -9999.00000000 -9999.00000000 -9999.00000000 -9999.00000000 -9999.00000000 -9999.00000000 -9999.00000000 -9999.00000000 -9999.00000000 -9999.00000000 -9999.00000000 -9999.00000000 -9999.00000000 -9999.00000000 -9999.00000000 
0.00000000 0.00000000 0.00000000 0.00000000 0.00000000 0.00000000 0.00000000 0.00000000 0.00000000 0.00000000 0.00000000 0.00000000 0.00000000 0.00000000 0.00000000 0.00000000 0.00000000 0.00000000 0.00000000 0.00000000 0.00000000 0.00000000 0.00000000 0.00000000 0.00000000 0.00000000 0.00000000 0.00000000 0.00000000 0.00000000 0.00000000 0.00000000 0.00000000 0.00000000 0.00000000 0.00000000 0.00000000 0.00000000 0.00000000 0.00000000 0.00000000 0.00000000 0.00000000 0.00000000 0.00000000 0.00000000 0.00000000 0.00000000 0.00000000 0.00000000 0.00000000 0.00000000 0.00000000 0.00091785 0.00000000 0.00000000 0.00000000 0.00000000 -9999.00000000 -9999.00000000 -9999.00000000 -9999.00000000 -9999.00000000 -9999.00000000 -9999.00000000 -9999.00000000 -9999.00000000 -9999.00000000 -9999.00000000 -9999.00000000 -9999.00000000 -9999.00000000 -9999.00000000 -9999.00000000 -9999.00000000 -9999.00000000 -9999.00000000 0.00000000 
0.00000000 0.00000000 0.00000000 0.00000000 0.00000000 0.00000000 0.00000000 0.00000000 0.00000000 0.00000000 0.00000000 0.00000000 0.00000000 0.00000000 0.00000000 0.00000000 0.00000000 0.00000000 0.00000000 0.00000000 0.00000000 0.00000000 0.00000000 0.00000000 0.00000000 0.00000000 0.00000000 0.00000000 0.00000000 0.00000000 0.00000000 0.00000000 0.00000000 0.00000000 0.00000000 0.00000000 0.00000000 0.00000000 0.00000000 0.00000000 0.00000000 0.00000000 0.00000000 0.00000000 0.00000000 0.00000000 0.00000000 0.00000000 0.00000000 0.00000000 0.00000000 0.00000000 0.00000000 0.00000000 0.00000000 0.00000000 0.00000000 0.00000000 -9999.00000000 -9999.00000000 -9999.00000000 -9999.00000000 -9999.00000000 -9999.00000000 -9999.00000000 -9999.00000000 -9999.00000000 -9999.00000000 -9999.00000000 -9999.00000000 -9999.00000000 -9999.00000000 -9999.00000000 -9999.00000000 -9999.00000000 -9999.00000000 -9999.00000000 -9999.00000000 
0.00000000 0.00000000 0.00000000 0.00000000 0.00000000 0.00000000 0.00000000 0.00000000 0.00000000 0.00000000 0.00000000 0.00000000 0.00000000 0.00000000 0.00000000 0.00000000 0.00000000 0.00000000 0.00000000 0.00000000 0.00000000 0.00000000 0.00000000 0.00000000 0.00000000 0.00000000 0.00000000 0.00000000 0.00000000 0.00000000 0.00000000 0.00000000 0.00000000 0.00000000 0.00000000 0.00000000 0.00000000 0.00000000 0.00000000 0.00000000 0.00000000 0.00000000 0.00000000 0.00000000 0.00000000 0.00000000 0.00000000 0.00000000 0.00000000 0.00000000 0.00000000 0.00000000 0.00000000 0.00000000 0.00000000 0.00000000 0.00000000 0.00000000 -9999.00000000 -9999.00000000 -9999.00000000 -9999.00000000 -9999.00000000 -9999.00000000 -9999.00000000 -9999.00000000 -9999.00000000 -9999.00000000 -9999.00000000 -9999.00000000 -9999.00000000 -9999.00000000 -9999.00000000 -9999.00000000 -9999.00000000 -9999.00000000 -9999.00000000 -9999.00000000 
0.00000000 0.00000000 0.00000000 0.00000000 0.00000000 0.00000000 0.00000000 0.00000000 0.00000000 0.00000000 0.00000000 0.00000000 0.00000000 0.00000000 0.00000000 0.00000000 0.00000000 0.00000000 0.00000000 0.00000000 0.00000000 0.00000000 0.00000000 0.00000000 0.00000000 0.00000000 0.00000000 0.00000000 0.00000000 0.00000000 0.00000000 0.00000000 0.00000000 0.00000000 0.00000000 0.00000000 0.00000000 0.00000000 0.00000000 0.00000000 0.00000000 0.00000000 0.00000000 0.00000000 0.00000000 0.00000000 0.00000000 0.00000000 0.00000000 0.00000000 0.00000000 0.00000000 0.00000000 0.00000000 0.00045094 0.00000000 0.00000000 0.00000000 -9999.00000000 -9999.00000000 -9999.00000000 -9999.00000000 -9999.00000000 -9999.00000000 -9999.00000000 -9999.00000000 -9999.00000000 -9999.00000000 -9999.00000000 -9999.00000000 -9999.00000000 -9999.00000000 -9999.00000000 -9999.00000000 -9999.00000000 -9999.00000000 -9999.00000000 -9999.00000000 
0.00000000 0.00000000 0.00000000 0.00000000 0.00000000 0.00000000 0.00000000 0.00000000 0.00000000 0.00000000 0.00000000 0.00000000 0.00000000 0.00000000 0.00000000 0.00000000 0.00000000 0.00000000 0.00000000 0.00000000 0.00000000 0.00000000 0.00000000 0.00000000 0.00000000 0.00000000 0.00000000 0.00000000 0.00000000 0.00000000 0.00000000 0.00000000 0.00000000 0.00000000 0.00000000 0.00000000 0.00000000 0.00000000 0.00000000 0.00000000 0.00000000 0.00000000 0.00000000 0.00000000 0.00000000 0.00000000 0.00000000 0.00000000 0.00000000 0.00000000 0.00000000 0.00000000 0.00000000 0.00000000 0.00000547 0.00000000 0.00000000 0.00000000 -9999.00000000 -9999.00000000 -9999.00000000 -9999.00000000 -9999.00000000 -9999.00000000 -9999.00000000 -9999.00000000 -9999.00000000 -9999.00000000 -9999.00000000 -9999.00000000 -9999.00000000 -9999.00000000 -9999.00000000 -9999.00000000 -9999.00000000 -9999.00000000 -9999.00000000 -9999.00000000 
0.00000000 0.00000000 0.00000000 0.00000000 0.00000000 0.00000000 0.00000000 0.00000000 0.00000000 0.00000000 0.00000000 0.00000000 0.00000000 0.00000000 0.00000000 0.00000000 0.00000000 0.00000000 0.00000000 0.00000000 0.00000000 0.00000000 0.00000000 0.00000000 0.00000000 0.00000000 0.00000000 0.00000000 0.00000000 0.00000000 0.00000000 0.00000000 0.00000000 0.00000000 0.00000000 0.00000000 0.00000000 0.00000000 0.00000000 0.00000000 0.00000000 0.00000000 0.00000000 0.00000000 0.00000000 0.00000000 0.00000000 0.00000000 0.00000000 0.00000000 0.00000000 0.00000000 0.00000000 0.00000000 0.00054450 0.00000000 0.00000000 -9999.00000000 -9999.00000000 -9999.00000000 -9999.00000000 -9999.00000000 -9999.00000000 -9999.00000000 -9999.00000000 -9999.00000000 -9999.00000000 -9999.00000000 -9999.00000000 -9999.00000000 -9999.00000000 -9999.00000000 -9999.00000000 -9999.00000000 -9999.00000000 -9999.00000000 -9999.00000000 -9999.00000000 
0.00000000 0.00000000 0.00000000 0.00000000 0.00000000 0.00000000 0.00000000 0.00000000 0.00000000 0.00000000 0.00000000 0.00000000 0.00000000 0.00000000 0.00000000 0.00000000 0.00000000 0.00000000 0.00000000 0.00000000 0.00000000 0.00000000 0.00000000 0.00000000 0.00000000 0.00000000 0.00000000 0.00000000 0.00000000 0.00000000 0.00000000 0.00000000 0.00000000 0.00000000 0.00000000 0.00000000 0.00000000 0.00000000 0.00000000 0.00000000 0.00000000 0.00000000 0.00000000 0.00000000 0.00000000 0.00000000 0.00000000 0.00000000 0.00000000 0.00000000 0.00000000 0.00000000 0.00000000 0.00042491 0.00019146 0.00000000 0.00000000 -9999.00000000 -9999.00000000 -9999.00000000 -9999.00000000 -9999.00000000 -9999.00000000 -9999.00000000 -9999.00000000 -9999.00000000 -9999.00000000 -9999.00000000 -9999.00000000 -9999.00000000 -9999.00000000 -9999.00000000 -9999.00000000 -9999.00000000 -9999.00000000 -9999.00000000 -9999.00000000 -9999.00000000 
0.00000000 0.00000000 0.00000000 0.00000000 0.00000000 0.00000000 0.00000000 0.00000000 0.00000000 0.00000000 0.00000000 0.00000000 0.00000000 0.00000000 0.00000000 0.00000000 0.00000000 0.00000000 0.00000000 0.00000000 0.00000000 0.00000000 0.00000000 0.00000000 0.00000000 0.00000000 0.00000000 0.00000000 0.00000000 0.00000000 0.00000000 0.00000000 0.00000000 0.00000000 0.00000000 0.00000000 0.00000000 0.00000000 0.00000000 0.00000000 0.00000000 0.00000000 0.00000000 0.00000000 0.00000000 0.00000000 0.00000000 0.00000000 0.00000000 0.00000000 0.00000000 0.00000000 0.00000000 0.00000000 0.00000000 0.00000000 0.00000000 -9999.00000000 -9999.00000000 -9999.00000000 -9999.00000000 -9999.00000000 -9999.00000000 -9999.00000000 -9999.00000000 -9999.00000000 -9999.00000000 -9999.00000000 -9999.00000000 -9999.00000000 -9999.00000000 -9999.00000000 -9999.00000000 -9999.00000000 -9999.00000000 -9999.00000000 -9999.00000000 -9999.00000000 
0.00000000 0.00000000 0.00000000 0.00000000 0.00000000 0.00000000 0.00000000 0.00000000 0.00000000 0.00000000 0.00000000 0.00000000 0.00000000 0.00000000 0.00000000 0.00000000 0.00000000 0.00000000 0.00000000 0.00000000 0.00000000 0.00000000 0.00000000 0.00000000 0.00000000 0.00000000 0.00000000 0.00000000 0.00000000 0.00000000 0.00000000 0.00000000 0.00000000 0.00000000 0.00000000 0.00000000 0.00000000 0.00000000 0.00000000 0.00000000 0.00000000 0.00000000 0.00000000 0.00000000 0.00000000 0.00000000 0.00000000 0.00000000 0.00000000 0.00000000 0.00000000 0.00000000 0.00000000 0.00000000 0.00105866 0.00000000 -9999.00000000 -9999.00000000 -9999.00000000 -9999.00000000 -9999.00000000 -9999.00000000 -9999.00000000 -9999.00000000 -9999.00000000 -9999.00000000 -9999.00000000 -9999.00000000 -9999.00000000 -9999.00000000 -9999.00000000 -9999.00000000 -9999.00000000 -9999.00000000 -9999.00000000 -9999.00000000 -9999.00000000 -9999.00000000 
0.00000000 0.00000000 0.00000000 0.00000000 0.00000000 0.00000000 0.00000000 0.00000000 0.00000000 0.00000000 0.00000000 0.00000000 0.00000000 0.00000000 0.00000000 0.00000000 0.00000000 0.00000000 0.00000000 0.00000000 0.00000000 0.00000000 0.00000000 0.00000000 0.00000000 0.00000000 0.00000000 0.00000000 0.00000000 0.00000000 0.00000000 0.00000000 0.00000000 0.00000000 0.00000000 0.00000000 0.00000000 0.00000000 0.00000000 0.00000000 0.00000000 0.00000000 0.00000000 0.00000000 0.00000000 0.00000000 0.00000000 0.00000000 0.00000000 0.00000000 0.00000000 0.00000000 0.00000000 0.00028955 0.00000172 0.00019887 -9999.00000000 -9999.00000000 -9999.00000000 -9999.00000000 -9999.00000000 -9999.00000000 -9999.00000000 -9999.00000000 -9999.00000000 -9999.00000000 -9999.00000000 -9999.00000000 -9999.00000000 -9999.00000000 -9999.00000000 -9999.00000000 -9999.00000000 -9999.00000000 -9999.00000000 -9999.00000000 -9999.00000000 -9999.00000000 
0.00000000 0.00000000 0.00000000 0.00000000 0.00000000 0.00000000 0.00000000 0.00000000 0.00000000 0.00000000 0.00000000 0.00000000 0.00000000 0.00000000 0.00000000 0.00000000 0.00000000 0.00000000 0.00000000 0.00000000 0.00000000 0.00000000 0.00000000 0.00000000 0.00000000 0.00000000 0.00000000 0.00000000 0.00000000 0.00000000 0.00000000 0.00000000 0.00000000 0.00000000 0.00000000 0.00000000 0.00000000 0.00000000 0.00000000 0.00000000 0.00000000 0.00000000 0.00000000 0.00000000 0.00000000 0.00000000 0.00000000 0.00000000 0.00000000 0.00000000 0.00000000 0.00000000 0.00000000 0.00097460 0.00000000 0.00005719 -9999.00000000 -9999.00000000 0.00000000 0.00000000 -9999.00000000 -9999.00000000 -9999.00000000 -9999.00000000 -9999.00000000 -9999.00000000 -9999.00000000 -9999.00000000 -9999.00000000 -9999.00000000 -9999.00000000 -9999.00000000 -9999.00000000 -9999.00000000 -9999.00000000 -9999.00000000 -9999.00000000 -9999.00000000 
0.00000000 0.00000000 0.00000000 0.00000000 0.00000000 0.00000000 0.00000000 0.00000000 0.00000000 0.00000000 0.00000000 0.00000000 0.00000000 0.00000000 0.00000000 0.00000000 0.00000000 0.00000000 0.00000000 0.00000000 0.00000000 0.00000000 0.00000000 0.00000000 0.00000000 0.00000000 0.00000000 0.00000000 0.00000000 0.00000000 0.00000000 0.00000000 0.00000000 0.00000000 0.00000000 0.00000000 0.00000000 0.00000000 0.00000000 0.00000000 0.00000000 0.00000000 0.00000000 0.00000000 0.00000000 0.00000000 0.00000000 0.00000000 0.00000000 0.00000000 0.00000000 0.00003756 0.00000000 0.00055233 0.00000000 0.00061486 -9999.00000000 -9999.00000000 0.00000000 0.00000000 0.00000000 -9999.00000000 -9999.00000000 -9999.00000000 -9999.00000000 -9999.00000000 -9999.00000000 -9999.00000000 -9999.00000000 -9999.00000000 -9999.00000000 -9999.00000000 -9999.00000000 -9999.00000000 -9999.00000000 -9999.00000000 -9999.00000000 -9999.00000000 
0.00000000 0.00000000 0.00000000 0.00000000 0.00000000 0.00000000 0.00000000 0.00000000 0.00000000 0.00000000 0.00000000 0.00000000 0.00000000 0.00000000 0.00000000 0.00000000 0.00000000 0.00000000 0.00000000 0.00000000 0.00000000 0.00000000 0.00000000 0.00000000 0.00000000 0.00000000 0.00000000 0.00000000 0.00000000 0.00000000 0.00000000 0.00000000 0.00000000 0.00000000 0.00000000 0.00000000 0.00000000 0.00000000 0.00000000 0.00000000 0.00000000 0.00000000 0.00000000 0.00000000 0.00000000 0.00000000 0.00000000 0.00000000 0.00000000 0.00000000 0.00000000 0.00000000 0.00000000 0.00000000 0.00000000 0.00000833 0.00000000 -9999.00000000 -9999.00000000 0.00000000 0.00000000 -9999.00000000 -9999.00000000 -9999.00000000 -9999.00000000 -9999.00000000 -9999.00000000 -9999.00000000 -9999.00000000 -9999.00000000 -9999.00000000 -9999.00000000 -9999.00000000 -9999.00000000 -9999.00000000 -9999.00000000 -9999.00000000 -9999.00000000 
0.00000000 0.00000000 0.00000000 0.00000000 0.00000000 0.00000000 0.00000000 0.00000000 0.00000000 0.00000000 0.00000000 0.00000000 0.00000000 0.00000000 0.00000000 0.00000000 0.00000000 0.00000000 0.00000000 0.00000000 0.00000000 0.00000000 0.00000000 0.00000000 0.00000000 0.00000000 0.00000000 0.00000000 0.00000000 0.00000000 0.00000000 0.00000000 0.00000000 0.00000000 0.00000000 0.00000000 0.00000000 0.00000000 0.00000000 0.00000000 0.00000000 0.00000000 0.00000000 0.00000000 0.00000000 0.00000000 0.00000000 0.00000000 0.00000000 0.00000000 0.00001549 0.00000000 0.00000000 0.00000000 0.00056493 0.00003666 0.00000000 0.00000000 0.00000000 0.00000000 -9999.00000000 -9999.00000000 -9999.00000000 -9999.00000000 -9999.00000000 -9999.00000000 -9999.00000000 -9999.00000000 -9999.00000000 -9999.00000000 -9999.00000000 -9999.00000000 -9999.00000000 -9999.00000000 -9999.00000000 -9999.00000000 -9999.00000000 -9999.00000000 
0.00000000 0.00000000 0.00000000 0.00000000 0.00000000 0.00000000 0.00000000 0.00000000 0.00000000 0.00000000 0.00000000 0.00000000 0.00000000 0.00000000 0.00000000 0.00000000 0.00000000 0.00000000 0.00000000 0.00000000 0.00000000 0.00000000 0.00000000 0.00000000 0.00000000 0.00000000 0.00000000 0.00000000 0.00000000 0.00000000 0.00000000 0.00000000 0.00000000 0.00000000 0.00000000 0.00000000 0.00000000 0.00000000 0.00000000 0.00000000 0.00000000 0.00000000 0.00000000 0.00000000 0.00000000 0.00000000 0.00000000 0.00000000 0.00000000 0.00000000 0.00000000 0.00000000 0.00000000 0.00000000 0.00000000 0.00000000 0.00000000 0.00000000 0.00000000 0.00000000 -9999.00000000 -9999.00000000 -9999.00000000 -9999.00000000 -9999.00000000 -9999.00000000 -9999.00000000 -9999.00000000 -9999.00000000 -9999.00000000 -9999.00000000 -9999.00000000 -9999.00000000 -9999.00000000 -9999.00000000 -9999.00000000 -9999.00000000 -9999.00000000 
0.00000000 0.00000000 0.00000000 0.00000000 0.00000000 0.00000000 0.00000000 0.00000000 0.00000000 0.00000000 0.00000000 0.00000000 0.00000000 0.00000000 0.00000000 0.00000000 0.00000000 0.00000000 0.00000000 0.00000000 0.00000000 0.00000000 0.00000000 0.00000000 0.00000000 0.00000000 0.00000000 0.00000000 0.00000000 0.00000000 0.00000000 0.00000000 0.00000000 0.00000000 0.00000000 0.00000000 0.00000000 0.00000000 0.00000000 0.00000000 0.00000000 0.00000000 0.00000000 0.00000000 0.00000000 0.00000000 0.00000000 0.00000000 0.00000000 0.00000000 0.00000000 0.00000000 0.00000000 0.00000000 0.00000000 0.00021808 0.00004620 0.00000000 0.00000000 -9999.00000000 -9999.00000000 -9999.00000000 -9999.00000000 -9999.00000000 -9999.00000000 -9999.00000000 -9999.00000000 -9999.00000000 -9999.00000000 -9999.00000000 -9999.00000000 -9999.00000000 -9999.00000000 -9999.00000000 -9999.00000000 -9999.00000000 -9999.00000000 -9999.00000000 
0.00000000 0.00000000 0.00000000 0.00000000 0.00000000 0.00000000 0.00000000 0.00000000 0.00000000 0.00000000 0.00000000 0.00000000 0.00000000 0.00000000 0.00000000 0.00000000 0.00000000 0.00000000 0.00000000 0.00000000 0.00000000 0.00000000 0.00000000 0.00000000 0.00000000 0.00000000 0.00000000 0.00000000 0.00000000 0.00000000 0.00000000 0.00000000 0.00000000 0.00000000 0.00000000 0.00000000 0.00000000 0.00000000 0.00000000 0.00000000 0.00000000 0.00000000 0.00000000 0.00000000 0.00000000 0.00000000 0.00000000 0.00000000 0.00000000 0.00000000 0.00000000 0.00000000 0.00000000 0.00000000 0.00000000 0.00000000 0.00078691 0.00294268 -9999.00000000 -9999.00000000 -9999.00000000 -9999.00000000 -9999.00000000 -9999.00000000 -9999.00000000 -9999.00000000 -9999.00000000 -9999.00000000 -9999.00000000 -9999.00000000 -9999.00000000 -9999.00000000 -9999.00000000 -9999.00000000 -9999.00000000 -9999.00000000 -9999.00000000 -9999.00000000 
0.00000000 0.00000000 0.00000000 0.00000000 0.00000000 0.00000000 0.00000000 0.00000000 0.00000000 0.00000000 0.00000000 0.00000000 0.00000000 0.00000000 0.00000000 0.00000000 0.00000000 0.00000000 0.00000000 0.00000000 0.00000000 0.00000000 0.00000000 0.00000000 0.00000000 0.00000000 0.00000000 0.00000000 0.00000000 0.00000000 0.00000000 0.00000000 0.00000000 0.00000000 0.00000000 0.00000000 0.00000000 0.00000000 0.00000000 0.00000000 0.00000000 0.00000000 0.00000000 0.00000000 0.00000000 0.00000000 0.00000000 0.00000000 0.00000000 0.00000000 0.00000000 0.00000000 0.00000000 0.00000000 0.00000000 0.00000000 0.00027245 0.00000000 0.00000000 -9999.00000000 -9999.00000000 -9999.00000000 -9999.00000000 -9999.00000000 -9999.00000000 -9999.00000000 -9999.00000000 -9999.00000000 -9999.00000000 -9999.00000000 -9999.00000000 -9999.00000000 -9999.00000000 -9999.00000000 -9999.00000000 -9999.00000000 -9999.00000000 -9999.00000000 
0.00000000 0.00000000 0.00000000 0.00000000 0.00000000 0.00000000 0.00000000 0.00000000 0.00000000 0.00000000 0.00000000 0.00000000 0.00000000 0.00000000 0.00000000 0.00000000 0.00000000 0.00000000 0.00000000 0.00000000 0.00000000 0.00000000 0.00000000 0.00000000 0.00000000 0.00000000 0.00000000 0.00000000 0.00000000 0.00000000 0.00000000 0.00000000 0.00000000 0.00000000 0.00000000 0.00000000 0.00000000 0.00000000 0.00000000 0.00000000 0.00000000 0.00000000 0.00000000 0.00000000 0.00000000 0.00000000 0.00000000 0.00000000 0.00000000 0.00000000 0.00000000 0.00000000 0.00000000 0.00000000 0.00000000 0.00000000 0.00019295 0.00012608 0.00179228 0.00000000 -9999.00000000 -9999.00000000 -9999.00000000 -9999.00000000 -9999.00000000 -9999.00000000 -9999.00000000 -9999.00000000 -9999.00000000 -9999.00000000 -9999.00000000 -9999.00000000 -9999.00000000 -9999.00000000 -9999.00000000 -9999.00000000 -9999.00000000 -9999.00000000 
0.00000000 0.00000000 0.00000000 0.00000000 0.00000000 0.00000000 0.00000000 0.00000000 0.00000000 0.00000000 0.00000000 0.00000000 0.00000000 0.00000000 0.00000000 0.00000000 0.00000000 0.00000000 0.00000000 0.00000000 0.00000000 0.00000000 0.00000000 0.00000000 0.00000000 0.00000000 0.00000000 0.00000000 0.00000000 0.00000000 0.00000000 0.00000000 0.00000000 0.00000000 0.00000000 0.00000000 0.00000000 0.00000000 0.00000000 0.00000000 0.00000000 0.00000000 0.00000000 0.00000000 0.00000000 0.00000000 0.00000000 0.00000000 0.00000000 0.00000000 0.00000000 0.00000000 0.00000000 0.00000000 0.00000000 0.00000000 0.00007125 0.00018617 0.00000000 0.00000000 -9999.00000000 -9999.00000000 -9999.00000000 -9999.00000000 -9999.00000000 -9999.00000000 -9999.00000000 -9999.00000000 -9999.00000000 -9999.00000000 -9999.00000000 -9999.00000000 -9999.00000000 -9999.00000000 -9999.00000000 -9999.00000000 -9999.00000000 -9999.00000000 
0.00000000 0.00000000 0.00000000 0.00000000 0.00000000 0.00000000 0.00000000 0.00000000 0.00000000 0.00000000 0.00000000 0.00000000 0.00000000 0.00000000 0.00000000 0.00000000 0.00000000 0.00000000 0.00000000 0.00000000 0.00000000 0.00000000 0.00000000 0.00000000 0.00000000 0.00000000 0.00000000 0.00000000 0.00000000 0.00000000 0.00000000 0.00000000 0.00000000 0.00000000 0.00000000 0.00000000 0.00000000 0.00000000 0.00000000 0.00000000 0.00000000 0.00000000 0.00000000 0.00000000 0.00000000 0.00000000 0.00000000 0.00000000 0.00000000 0.00000000 0.00000000 0.00000000 0.00000000 0.00000000 0.00000000 0.00000000 0.00000000 0.00000000 0.00000000 0.00008321 -9999.00000000 -9999.00000000 -9999.00000000 -9999.00000000 -9999.00000000 -9999.00000000 -9999.00000000 -9999.00000000 -9999.00000000 -9999.00000000 -9999.00000000 -9999.00000000 -9999.00000000 -9999.00000000 -9999.00000000 -9999.00000000 -9999.00000000 -9999.00000000 
0.00000000 0.00000000 0.00000000 0.00000000 0.00000000 0.00000000 0.00000000 0.00000000 0.00000000 0.00000000 0.00000000 0.00000000 0.00000000 0.00000000 0.00000000 0.00000000 0.00000000 0.00000000 0.00000000 0.00000000 0.00000000 0.00000000 0.00000000 0.00000000 0.00000000 0.00000000 0.00000000 0.00000000 0.00000000 0.00000000 0.00000000 0.00000000 0.00000000 0.00000000 0.00000000 0.00000000 0.00000000 0.00000000 0.00000000 0.00000000 0.00000000 0.00000000 0.00000000 0.00000000 0.00000000 0.00000000 0.00000000 0.00000000 0.00000000 0.00000000 0.00000000 0.00000000 0.00000000 0.00000000 0.00000000 0.00000000 0.00000000 0.00010886 0.00008429 0.00013304 0.00000000 -9999.00000000 -9999.00000000 -9999.00000000 -9999.00000000 -9999.00000000 -9999.00000000 -9999.00000000 -9999.00000000 -9999.00000000 -9999.00000000 -9999.00000000 -9999.00000000 -9999.00000000 -9999.00000000 -9999.00000000 -9999.00000000 -9999.00000000 
0.00000000 0.00000000 0.00000000 0.00000000 0.00000000 0.00000000 0.00000000 0.00000000 0.00000000 0.00000000 0.00000000 0.00000000 0.00000000 0.00000000 0.00000000 0.00000000 0.00000000 0.00000000 0.00000000 0.00000000 0.00000000 0.00000000 0.00000000 0.00000000 0.00000000 0.00000000 0.00000000 0.00000000 0.00000000 0.00000000 0.00000000 0.00000000 0.00000000 0.00000000 0.00000000 0.00000000 0.00000000 0.00000000 0.00000000 0.00000000 0.00000000 0.00000000 0.00000000 0.00000000 0.00000000 0.00000000 0.00000000 0.00000000 0.00000000 0.00000000 0.00000000 0.00000000 0.00000000 0.00000000 0.00000000 0.00000000 0.00000000 0.00000583 0.00055545 0.00000000 0.00010247 -9999.00000000 -9999.00000000 -9999.00000000 -9999.00000000 -9999.00000000 -9999.00000000 -9999.00000000 -9999.00000000 -9999.00000000 -9999.00000000 -9999.00000000 -9999.00000000 -9999.00000000 -9999.00000000 -9999.00000000 -9999.00000000 -9999.00000000 
0.00000000 0.00000000 0.00000000 0.00000000 0.00000000 0.00000000 0.00000000 0.00000000 0.00000000 0.00000000 0.00000000 0.00000000 0.00000000 0.00000000 0.00000000 0.00000000 0.00000000 0.00000000 0.00000000 0.00000000 0.00000000 0.00000000 0.00000000 0.00000000 0.00000000 0.00000000 0.00000000 0.00000000 0.00000000 0.00000000 0.00000000 0.00000000 0.00000000 0.00000000 0.00000000 0.00000000 0.00000000 0.00000000 0.00000000 0.00000000 0.00000000 0.00000000 0.00000000 0.00000000 0.00000000 0.00000000 0.00000000 0.00000000 0.00000000 0.00000000 0.00000000 0.00000000 0.00000000 0.00000000 0.00000000 0.00000000 0.00000000 0.00000000 0.00000000 0.00000000 0.00015249 0.00000000 -9999.00000000 -9999.00000000 0.00000000 -9999.00000000 -9999.00000000 -9999.00000000 -9999.00000000 -9999.00000000 -9999.00000000 -9999.00000000 -9999.00000000 -9999.00000000 -9999.00000000 -9999.00000000 -9999.00000000 -9999.00000000 
0.00000000 0.00000000 0.00000000 0.00000000 0.00000000 0.00000000 0.00000000 0.00000000 0.00000000 0.00000000 0.00000000 0.00000000 0.00000000 0.00000000 0.00000000 0.00000000 0.00000000 0.00000000 0.00000000 0.00000000 0.00000000 0.00000000 0.00000000 0.00000000 0.00000000 0.00000000 0.00000000 0.00000000 0.00000000 0.00000000 0.00000000 0.00000000 0.00000000 0.00000000 0.00000000 0.00000000 0.00000000 0.00000000 0.00000000 0.00000000 0.00000000 0.00000000 0.00000000 0.00000000 0.00000000 0.00000000 0.00000000 0.00000000 0.00000000 0.00000000 0.00000000 0.00000000 0.00000000 0.00000000 0.00000000 0.00000000 0.00000000 0.00000000 0.00000000 0.00007144 0.00016697 0.00002011 0.00047274 0.00000000 0.00000000 -9999.00000000 -9999.00000000 -9999.00000000 -9999.00000000 -9999.00000000 -9999.00000000 -9999.00000000 -9999.00000000 -9999.00000000 -9999.00000000 -9999.00000000 -9999.00000000 -9999.00000000 
0.00000000 0.00000000 0.00000000 0.00000000 0.00000000 0.00000000 0.00000000 0.00000000 0.00000000 0.00000000 0.00000000 0.00000000 0.00000000 0.00000000 0.00000000 0.00000000 0.00000000 0.00000000 0.00000000 0.00000000 0.00000000 0.00000000 0.00000000 0.00000000 0.00000000 0.00000000 0.00000000 0.00000000 0.00000000 0.00000000 0.00000000 0.00000000 0.00000000 0.00000000 0.00000000 0.00000000 0.00000000 0.00000000 0.00000000 0.00000000 0.00000000 0.00000000 0.00000000 0.00000000 0.00000000 0.00000000 0.00000000 0.00000000 0.00000000 0.00000000 0.00000000 0.00000000 0.00000000 0.00000000 0.00000000 0.00000000 0.00000000 0.00000000 0.00000000 0.00000000 0.00000000 0.00000000 0.00000000 0.00000000 0.00000000 -9999.00000000 -9999.00000000 -9999.00000000 -9999.00000000 -9999.00000000 -9999.00000000 -9999.00000000 -9999.00000000 -9999.00000000 -9999.00000000 -9999.00000000 -9999.00000000 -9999.00000000 
0.00000000 0.00000000 0.00000000 0.00000000 0.00000000 0.00000000 0.00000000 0.00000000 0.00000000 0.00000000 0.00000000 0.00000000 0.00000000 0.00000000 0.00000000 0.00000000 0.00000000 0.00000000 0.00000000 0.00000000 0.00000000 0.00000000 0.00000000 0.00000000 0.00000000 0.00000000 0.00000000 0.00000000 0.00000000 0.00000000 0.00000000 0.00000000 0.00000000 0.00000000 0.00000000 0.00000000 0.00000000 0.00000000 0.00000000 0.00000000 0.00000000 0.00000000 0.00000000 0.00000000 0.00000000 0.00000000 0.00000000 0.00000000 0.00000000 0.00000000 0.00000000 0.00000000 0.00000000 0.00000000 0.00000000 0.00000000 0.00000000 0.00000000 0.00000000 0.00000000 0.00000000 0.00000000 0.00005238 0.00000000 -9999.00000000 -9999.00000000 -9999.00000000 -9999.00000000 -9999.00000000 -9999.00000000 -9999.00000000 -9999.00000000 -9999.00000000 -9999.00000000 -9999.00000000 -9999.00000000 -9999.00000000 -9999.00000000 
0.00000000 0.00000000 0.00000000 0.00000000 0.00000000 0.00000000 0.00000000 0.00000000 0.00000000 0.00000000 0.00000000 0.00000000 0.00000000 0.00000000 0.00000000 0.00000000 0.00000000 0.00000000 0.00000000 0.00000000 0.00000000 0.00000000 0.00000000 0.00000000 0.00000000 0.00000000 0.00000000 0.00000000 0.00000000 0.00000000 0.00000000 0.00000000 0.00000000 0.00000000 0.00000000 0.00000000 0.00000000 0.00000000 0.00000000 0.00000000 0.00000000 0.00000000 0.00000000 0.00000000 0.00000000 0.00000000 0.00000000 0.00000000 0.00000000 0.00000000 0.00000000 0.00000000 0.00000000 0.00000000 0.00000000 0.00000000 0.00000000 0.00000000 0.00000000 0.00000000 0.00001554 0.00000000 0.00023317 0.00002842 -9999.00000000 -9999.00000000 -9999.00000000 -9999.00000000 -9999.00000000 -9999.00000000 -9999.00000000 -9999.00000000 -9999.00000000 -9999.00000000 -9999.00000000 -9999.00000000 -9999.00000000 -9999.00000000 
0.00000000 0.00000000 0.00000000 0.00000000 0.00000000 0.00000000 0.00000000 0.00000000 0.00000000 0.00000000 0.00000000 0.00000000 0.00000000 0.00000000 0.00000000 0.00000000 0.00000000 0.00000000 0.00000000 0.00000000 0.00000000 0.00000000 0.00000000 0.00000000 0.00000000 0.00000000 0.00000000 0.00000000 0.00000000 0.00000000 0.00000000 0.00000000 0.00000000 0.00000000 0.00000000 0.00000000 0.00000000 0.00000000 0.00000000 0.00000000 0.00000000 0.00000000 0.00000000 0.00000000 0.00000000 0.00000000 0.00000000 0.00000000 0.00000000 0.00000000 0.00000000 0.00000000 0.00000000 0.00000000 0.00000000 0.00000000 0.00000000 0.00000000 0.00000000 0.00000000 0.00000000 0.00000000 0.00051774 0.00025490 0.00000000 0.00000000 0.00000000 0.00000000 -9999.00000000 -9999.00000000 -9999.00000000 -9999.00000000 -9999.00000000 -9999.00000000 -9999.00000000 -9999.00000000 -9999.00000000 -9999.00000000 
0.00000000 0.00000000 0.00000000 0.00000000 0.00000000 0.00000000 0.00000000 0.00000000 0.00000000 0.00000000 0.00000000 0.00000000 0.00000000 0.00000000 0.00000000 0.00000000 0.00000000 0.00000000 0.00000000 0.00000000 0.00000000 0.00000000 0.00000000 0.00000000 0.00000000 0.00000000 0.00000000 0.00000000 0.00000000 0.00000000 0.00000000 0.00000000 0.00000000 0.00000000 0.00000000 0.00000000 0.00000000 0.00000000 0.00000000 0.00000000 0.00000000 0.00000000 0.00000000 0.00000000 0.00000000 0.00000000 0.00000000 0.00000000 0.00000000 0.00000000 0.00000000 0.00000000 0.00000000 0.00000000 0.00000000 0.00000000 0.00000000 0.00000000 0.00000000 0.00000000 0.00000000 0.00015589 0.00028129 0.00000000 0.00021217 0.00176565 0.00013101 0.00000000 -9999.00000000 -9999.00000000 -9999.00000000 -9999.00000000 -9999.00000000 -9999.00000000 -9999.00000000 -9999.00000000 -9999.00000000 -9999.00000000 
0.00000000 0.00000000 0.00000000 0.00000000 0.00000000 0.00000000 0.00000000 0.00000000 0.00000000 0.00000000 0.00000000 0.00000000 0.00000000 0.00000000 0.00000000 0.00000000 0.00000000 0.00000000 0.00000000 0.00000000 0.00000000 0.00000000 0.00000000 0.00000000 0.00000000 0.00000000 0.00000000 0.00000000 0.00000000 0.00000000 0.00000000 0.00000000 0.00000000 0.00000000 0.00000000 0.00000000 0.00000000 0.00000000 0.00000000 0.00000000 0.00000000 0.00000000 0.00000000 0.00000000 0.00000000 0.00000000 0.00000000 0.00000000 0.00000000 0.00000000 0.00000000 0.00000000 0.00000000 0.00000000 0.00000000 0.00000000 0.00000000 0.00000000 0.00000000 0.00000000 0.00000000 0.00000000 0.00000000 0.00000000 0.00000000 0.00000000 0.00000000 0.00045486 -9999.00000000 -9999.00000000 -9999.00000000 -9999.00000000 -9999.00000000 -9999.00000000 -9999.00000000 -9999.00000000 -9999.00000000 -9999.00000000 
0.00000000 0.00000000 0.00000000 0.00000000 0.00000000 0.00000000 0.00000000 0.00000000 0.00000000 0.00000000 0.00000000 0.00000000 0.00000000 0.00000000 0.00000000 0.00000000 0.00000000 0.00000000 0.00000000 0.00000000 0.00000000 0.00000000 0.00000000 0.00000000 0.00000000 0.00000000 0.00000000 0.00000000 0.00000000 0.00000000 0.00000000 0.00000000 0.00000000 0.00000000 0.00000000 0.00000000 0.00000000 0.00000000 0.00000000 0.00000000 0.00000000 0.00000000 0.00000000 0.00000000 0.00000000 0.00000000 0.00000000 0.00000000 0.00000000 0.00000000 0.00000000 0.00000000 0.00000000 0.00000000 0.00000000 0.00000000 0.00000000 0.00000000 0.00000000 0.00000000 0.00000000 0.00000000 0.00000000 0.00000000 0.00005633 0.00000000 0.00000000 0.00084499 -9999.00000000 -9999.00000000 -9999.00000000 -9999.00000000 -9999.00000000 -9999.00000000 -9999.00000000 -9999.00000000 -9999.00000000 -9999.00000000 
0.00000000 0.00000000 0.00000000 0.00000000 0.00000000 0.00000000 0.00000000 0.00000000 0.00000000 0.00000000 0.00000000 0.00000000 0.00000000 0.00000000 0.00000000 0.00000000 0.00000000 0.00000000 0.00000000 0.00000000 0.00000000 0.00000000 0.00000000 0.00000000 0.00000000 0.00000000 0.00000000 0.00000000 0.00000000 0.00000000 0.00000000 0.00000000 0.00000000 0.00000000 0.00000000 0.00000000 0.00000000 0.00000000 0.00000000 0.00000000 0.00000000 0.00000000 0.00000000 0.00000000 0.00000000 0.00000000 0.00000000 0.00000000 0.00000000 0.00000000 0.00000000 0.00000000 0.00000000 0.00000000 0.00000000 0.00000000 0.00000000 0.00000000 0.00000000 0.00000000 0.00000000 0.00000000 0.00000000 0.00000000 0.00000000 0.00063139 0.00000000 0.00013496 -9999.00000000 -9999.00000000 -9999.00000000 -9999.00000000 -9999.00000000 -9999.00000000 -9999.00000000 -9999.00000000 -9999.00000000 -9999.00000000 
0.00000000 0.00000000 0.00000000 0.00000000 0.00000000 0.00000000 0.00000000 0.00000000 0.00000000 0.00000000 0.00000000 0.00000000 0.00000000 0.00000000 0.00000000 0.00000000 0.00000000 0.00000000 0.00000000 0.00000000 0.00000000 0.00000000 0.00000000 0.00000000 0.00000000 0.00000000 0.00000000 0.00000000 0.00000000 0.00000000 0.00000000 0.00000000 0.00000000 0.00000000 0.00000000 0.00000000 0.00000000 0.00000000 0.00000000 0.00000000 0.00000000 0.00000000 0.00000000 0.00000000 0.00000000 0.00000000 0.00000000 0.00000000 0.00000000 0.00000000 0.00000000 0.00000000 0.00000000 0.00000000 0.00000000 0.00000000 0.00000000 0.00000000 0.00000000 0.00000000 0.00000000 0.00000000 0.00000000 0.00000000 0.00048080 0.00001588 0.00061083 0.00000352 0.00048983 -9999.00000000 -9999.00000000 -9999.00000000 -9999.00000000 -9999.00000000 -9999.00000000 -9999.00000000 -9999.00000000 -9999.00000000 
0.00000000 0.00000000 0.00000000 0.00000000 0.00000000 0.00000000 0.00000000 0.00000000 0.00000000 0.00000000 0.00000000 0.00000000 0.00000000 0.00000000 0.00000000 0.00000000 0.00000000 0.00000000 0.00000000 0.00000000 0.00000000 0.00000000 0.00000000 0.00000000 0.00000000 0.00000000 0.00000000 0.00000000 0.00000000 0.00000000 0.00000000 0.00000000 0.00000000 0.00000000 0.00000000 0.00000000 0.00000000 0.00000000 0.00000000 0.00000000 0.00000000 0.00000000 0.00000000 0.00000000 0.00000000 0.00000000 0.00000000 0.00000000 0.00000000 0.00000000 0.00000000 0.00000000 0.00000000 0.00000000 0.00000000 0.00000000 0.00000000 0.00000000 0.00000000 0.00000000 0.00000000 0.00000000 0.00000000 0.00000000 0.00000000 0.00000000 0.00000000 0.00000000 0.00016706 0.00000000 -9999.00000000 -9999.00000000 -9999.00000000 -9999.00000000 -9999.00000000 -9999.00000000 -9999.00000000 -9999.00000000 
0.00000000 0.00000000 0.00000000 0.00000000 0.00000000 0.00000000 0.00000000 0.00000000 0.00000000 0.00000000 0.00000000 0.00000000 0.00000000 0.00000000 0.00000000 0.00000000 0.00000000 0.00000000 0.00000000 0.00000000 0.00000000 0.00000000 0.00000000 0.00000000 0.00000000 0.00000000 0.00000000 0.00000000 0.00000000 0.00000000 0.00000000 0.00000000 0.00000000 0.00000000 0.00000000 0.00000000 0.00000000 0.00000000 0.00000000 0.00000000 0.00000000 0.00000000 0.00000000 0.00000000 0.00000000 0.00000000 0.00000000 0.00000000 0.00000000 0.00000000 0.00000000 0.00000000 0.00000000 0.00000000 0.00000000 0.00000000 0.00000000 0.00000000 0.00000000 0.00000000 0.00000000 0.00000000 0.00000000 0.00000000 0.00000000 0.00000000 0.00052383 0.00056485 0.00002808 0.00000000 0.00000000 0.00000000 -9999.00000000 -9999.00000000 -9999.00000000 -9999.00000000 -9999.00000000 -9999.00000000 
0.00000000 0.00000000 0.00000000 0.00000000 0.00000000 0.00000000 0.00000000 0.00000000 0.00000000 0.00000000 0.00000000 0.00000000 0.00000000 0.00000000 0.00000000 0.00000000 0.00000000 0.00000000 0.00000000 0.00000000 0.00000000 0.00000000 0.00000000 0.00000000 0.00000000 0.00000000 0.00000000 0.00000000 0.00000000 0.00000000 0.00000000 0.00000000 0.00000000 0.00000000 0.00000000 0.00000000 0.00000000 0.00000000 0.00000000 0.00000000 0.00000000 0.00000000 0.00000000 0.00000000 0.00000000 0.00000000 0.00000000 0.00000000 0.00000000 0.00000000 0.00000000 0.00000000 0.00000000 0.00000000 0.00000000 0.00000000 0.00000000 0.00000000 0.00000000 0.00000000 0.00000000 0.00000000 0.00000000 0.00000000 0.00000000 0.00000000 0.00030101 0.00000000 0.00000000 0.00000000 0.00000000 0.00000000 0.00000000 0.00000000 -9999.00000000 -9999.00000000 -9999.00000000 -9999.00000000 
0.00000000 0.00000000 0.00000000 0.00000000 0.00000000 0.00000000 0.00000000 0.00000000 0.00000000 0.00000000 0.00000000 0.00000000 0.00000000 0.00000000 0.00000000 0.00000000 0.00000000 0.00000000 0.00000000 0.00000000 0.00000000 0.00000000 0.00000000 0.00000000 0.00000000 0.00000000 0.00000000 0.00000000 0.00000000 0.00000000 0.00000000 0.00000000 0.00000000 0.00000000 0.00000000 0.00000000 0.00000000 0.00000000 0.00000000 0.00000000 0.00000000 0.00000000 0.00000000 0.00000000 0.00000000 0.00000000 0.00000000 0.00000000 0.00000000 0.00000000 0.00000000 0.00000000 0.00000000 0.00000000 0.00000000 0.00000000 0.00000000 0.00000000 0.00000000 0.00000000 0.00000000 0.00000000 0.00000000 0.00000000 0.00000000 0.00000000 0.00000000 0.00000000 0.00000000 0.00000000 0.00000000 0.00000000 0.00003465 0.00000000 0.00000000 -9999.00000000 -9999.00000000 -9999.00000000 
0.00000000 0.00000000 0.00000000 0.00000000 0.00000000 0.00000000 0.00000000 0.00000000 0.00000000 0.00000000 0.00000000 0.00000000 0.00000000 0.00000000 0.00000000 0.00000000 0.00000000 0.00000000 0.00000000 0.00000000 0.00000000 0.00000000 0.00000000 0.00000000 0.00000000 0.00000000 0.00000000 0.00000000 0.00000000 0.00000000 0.00000000 0.00000000 0.00000000 0.00000000 0.00000000 0.00000000 0.00000000 0.00000000 0.00000000 0.00000000 0.00000000 0.00000000 0.00000000 0.00000000 0.00000000 0.00000000 0.00000000 0.00000000 0.00000000 0.00000000 0.00000000 0.00000000 0.00000000 0.00000000 0.00000000 0.00000000 0.00000000 0.00000000 0.00000000 0.00000000 0.00000000 0.00000000 0.00000000 0.00000000 0.00000000 0.00000000 0.00000000 0.00000000 0.00000000 0.00000000 0.00000000 0.00000000 0.00000000 0.00000000 0.00000000 -9999.00000000 -9999.00000000 -9999.00000000 
0.00000000 0.00000000 0.00000000 0.00000000 0.00000000 0.00000000 0.00000000 0.00000000 0.00000000 0.00000000 0.00000000 0.00000000 0.00000000 0.00000000 0.00000000 0.00000000 0.00000000 0.00000000 0.00000000 0.00000000 0.00000000 0.00000000 0.00000000 0.00000000 0.00000000 0.00000000 0.00000000 0.00000000 0.00000000 0.00000000 0.00000000 0.00000000 0.00000000 0.00000000 0.00000000 0.00000000 0.00000000 0.00000000 0.00000000 0.00000000 0.00000000 0.00000000 0.00000000 0.00000000 0.00000000 0.00000000 0.00000000 0.00000000 0.00000000 0.00000000 0.00000000 0.00000000 0.00000000 0.00000000 0.00000000 0.00000000 0.00000000 0.00000000 0.00000000 0.00000000 0.00000000 0.00000000 0.00000000 0.00000000 0.00000000 0.00000000 0.00000000 0.00000000 0.00000000 0.00000000 0.00000000 0.00000000 0.00000000 0.00000000 0.00000000 0.00000000 0.00000000 -9999.00000000 
0.00000000 0.00000000 0.00000000 0.00000000 0.00000000 0.00000000 0.00000000 0.00000000 0.00000000 0.00000000 0.00000000 0.00000000 0.00000000 0.00000000 0.00000000 0.00000000 0.00000000 0.00000000 0.00000000 0.00000000 0.00000000 0.00000000 0.00000000 0.00000000 0.00000000 0.00000000 0.00000000 0.00000000 0.00000000 0.00000000 0.00000000 0.00000000 0.00000000 0.00000000 0.00000000 0.00000000 0.00000000 0.00000000 0.00000000 0.00000000 0.00000000 0.00000000 0.00000000 0.00000000 0.00000000 0.00000000 0.00000000 0.00000000 0.00000000 0.00000000 0.00000000 0.00000000 0.00000000 0.00000000 0.00000000 0.00000000 0.00000000 0.00000000 0.00000000 0.00000000 0.00000000 0.00000000 0.00000000 0.00000000 0.00000000 0.00000000 0.00000000 0.00000000 0.00000000 0.00000000 0.00000000 0.00000000 0.00000000 0.00000000 0.00000000 0.00000000 -9999.00000000 -9999.00000000 
0.00000000 0.00000000 0.00000000 0.00000000 0.00000000 0.00000000 0.00000000 0.00000000 0.00000000 0.00000000 0.00000000 0.00000000 0.00000000 0.00000000 0.00000000 0.00000000 0.00000000 0.00000000 0.00000000 0.00000000 0.00000000 0.00000000 0.00000000 0.00000000 0.00000000 0.00000000 0.00000000 0.00000000 0.00000000 0.00000000 0.00000000 0.00000000 0.00000000 0.00000000 0.00000000 0.00000000 0.00000000 0.00000000 0.00000000 0.00000000 0.00000000 0.00000000 0.00000000 0.00000000 0.00000000 0.00000000 0.00000000 0.00000000 0.00000000 0.00000000 0.00000000 0.00000000 0.00000000 0.00000000 0.00000000 0.00000000 0.00000000 0.00000000 0.00000000 0.00000000 0.00000000 0.00000000 0.00000000 0.00000000 0.00000000 0.00000000 0.00000000 0.00000000 0.00000000 0.00000000 0.00000000 0.00000000 0.00000000 0.00000000 0.00000000 0.00000000 0.00000000 -9999.00000000 
0.00000000 0.00000000 0.00000000 0.00000000 0.00000000 0.00000000 0.00000000 0.00000000 0.00000000 0.00000000 0.00000000 0.00000000 0.00000000 0.00000000 0.00000000 0.00000000 0.00000000 0.00000000 0.00000000 0.00000000 0.00000000 0.00000000 0.00000000 0.00000000 0.00000000 0.00000000 0.00000000 0.00000000 0.00000000 0.00000000 0.00000000 0.00000000 0.00000000 0.00000000 0.00000000 0.00000000 0.00000000 0.00000000 0.00000000 0.00000000 0.00000000 0.00000000 0.00000000 0.00000000 0.00000000 0.00000000 0.00000000 0.00000000 0.00000000 0.00000000 0.00000000 0.00000000 0.00000000 0.00000000 0.00000000 0.00000000 0.00000000 0.00000000 0.00000000 0.00000000 0.00000000 0.00000000 0.00000000 0.00000000 0.00000000 0.00000000 0.00000000 0.00000000 0.00000000 0.00000000 0.00000000 0.00000000 0.00000000 0.00000000 0.00000000 0.00000000 -9999.00000000 0.00000000 
0.00000000 0.00000000 0.00000000 0.00000000 0.00000000 0.00000000 0.00000000 0.00000000 0.00000000 0.00000000 0.00000000 0.00000000 0.00000000 0.00000000 0.00000000 0.00000000 0.00000000 0.00000000 0.00000000 0.00000000 0.00000000 0.00000000 0.00000000 0.00000000 0.00000000 0.00000000 0.00000000 0.00000000 0.00000000 0.00000000 0.00000000 0.00000000 0.00000000 0.00000000 0.00000000 0.00000000 0.00000000 0.00000000 0.00000000 0.00000000 0.00000000 0.00000000 0.00000000 0.00000000 0.00000000 0.00000000 0.00000000 0.00000000 0.00000000 0.00000000 0.00000000 0.00000000 0.00000000 0.00000000 0.00000000 0.00000000 0.00000000 0.00000000 0.00000000 0.00000000 0.00000000 0.00000000 0.00000000 0.00000000 0.00000000 0.00000000 0.00000000 0.00000000 0.00000000 0.00000000 0.00000000 0.00000000 0.00000000 0.00000000 0.00000000 0.00000000 -9999.00000000 -9999.00000000 
0.00000000 0.00000000 0.00000000 0.00000000 0.00000000 0.00000000 0.00000000 0.00000000 0.00000000 0.00000000 0.00000000 0.00000000 0.00000000 0.00000000 0.00000000 0.00000000 0.00000000 0.00000000 0.00000000 0.00000000 0.00000000 0.00000000 0.00000000 0.00000000 0.00000000 0.00000000 0.00000000 0.00000000 0.00000000 0.00000000 0.00000000 0.00000000 0.00000000 0.00000000 0.00000000 0.00000000 0.00000000 0.00000000 0.00000000 0.00000000 0.00000000 0.00000000 0.00000000 0.00000000 0.00000000 0.00000000 0.00000000 0.00000000 0.00000000 0.00000000 0.00000000 0.00000000 0.00000000 0.00000000 0.00000000 0.00000000 0.00000000 0.00000000 0.00000000 0.00000000 0.00000000 0.00000000 0.00000000 0.00000000 0.00000000 0.00000000 0.00000000 0.00000000 0.00000000 0.00000000 0.00000000 0.00000000 0.00000000 0.00000000 0.00000000 0.00000000 0.00000000 0.00000000 
0.00000000 0.00000000 0.00000000 0.00000000 0.00000000 0.00000000 0.00000000 0.00000000 0.00000000 0.00000000 0.00000000 0.00000000 0.00000000 0.00000000 0.00000000 0.00000000 0.00000000 0.00000000 0.00000000 0.00000000 0.00000000 0.00000000 0.00000000 0.00000000 0.00000000 0.00000000 0.00000000 0.00000000 0.00000000 0.00000000 0.00000000 0.00000000 0.00000000 0.00000000 0.00000000 0.00000000 0.00000000 0.00000000 0.00000000 0.00000000 0.00000000 0.00000000 0.00000000 0.00000000 0.00000000 0.00000000 0.00000000 0.00000000 0.00000000 0.00000000 0.00000000 0.00000000 0.00000000 0.00000000 0.00000000 0.00000000 0.00000000 0.00000000 0.00000000 0.00000000 0.00000000 0.00000000 0.00000000 0.00000000 0.00000000 0.00000000 0.00000000 0.00000000 0.00000000 0.00000000 0.00000000 0.00000000 0.00000000 0.00000000 0.00000000 0.00000000 0.00000000 0.00000000 
