ncols        78
nrows        66
xllcorner    -87.500000000000
yllcorner    25.000000000000
cellsize     0.083333333333
NODATA_value -9999.00000000
-9999.00000000 -9999.00000000 -9999.00000000 -9999.00000000 0.00000000 0.00000000 -9999.00000000 -9999.00000000 -9999.00000000 -9999.00000000 -9999.00000000 0.00000000 0.00000000 0.00000000 0.00000000 0.00000000 -9999.00000000 -9999.00000000 -9999.00000000 -9999.00000000 -9999.00000000 -9999.00000000 -9999.00000000 -9999.00000000 -9999.00000000 -9999.00000000 -9999.00000000 -9999.00000000 -9999.00000000 -9999.00000000 -9999.00000000 -9999.00000000 -9999.00000000 -9999.00000000 -9999.00000000 -9999.00000000 -9999.00000000 -9999.00000000 -9999.00000000 -9999.00000000 -9999.00000000 -9999.00000000 -9999.00000000 -9999.00000000 -9999.00000000 -9999.00000000 -9999.00000000 -9999.00000000 -9999.00000000 -9999.00000000 -9999.00000000 -9999.00000000 -9999.00000000 -9999.00000000 -9999.00000000 -9999.00000000 -9999.00000000 -9999.00000000 -9999.00000000 -9999.00000000 -9999.00000000 -9999.00000000 -9999.00000000 -9999.00000000 -9999.00000000 -9999.00000000 -9999.00000000 -9999.00000000 -9999.00000000 -9999.00000000 -9999.00000000 -9999.00000000 0.00000000 0.00000000 0.00000000 0.00000000 0.00000000 0.00000000 
-9999.00000000 -9999.00000000 -9999.00000000 0.00000000 0.00000000 0.00000000 0.00000000 0.00070808 0.00015999 0.00021646 0.00040190 0.00011912 0.00011487 0.00005375 0.00009720 -9999.00000000 -9999.00000000 -9999.00000000 -9999.00000000 -9999.00000000 -9999.00000000 -9999.00000000 -9999.00000000 -9999.00000000 -9999.00000000 -9999.00000000 -9999.00000000 -9999.00000000 -9999.00000000 -9999.00000000 -9999.00000000 -9999.00000000 -9999.00000000 -9999.00000000 -9999.00000000 -9999.00000000 -9999.00000000 -9999.00000000 -9999.00000000 -9999.00000000 -9999.00000000 -9999.00000000 -9999.00000000 -9999.00000000 -9999.00000000 -9999.00000000 -9999.00000000 -9999.00000000 -9999.00000000 -9999.00000000 -9999.00000000 -9999.00000000 -9999.00000000 -9999.00000000 -9999.00000000 -9999.00000000 -9999.00000000 -9999.00000000 -9999.00000000 -9999.00000000 -9999.00000000 -9999.00000000 -9999.00000000 -9999.00000000 -9999.00000000 -9999.00000000 -9999.00000000 -9999.00000000 -9999.00000000 -9999.00000000 -9999.00000000 -9999.00000000 -9999.00000000 0.00000000 0.00000000 0.00000000 0.00000000 0.00000000 
0.00000000 0.00000000 0.00000000 0.00059003 0.00063058 0.00000000 0.00000000 0.00000000 0.00035379 0.00000000 0.00074381 0.00000000 0.00000000 0.00025183 0.00003888 0.00010981 0.00011584 -9999.00000000 -9999.00000000 -9999.00000000 -9999.00000000 -9999.00000000 -9999.00000000 -9999.00000000 -9999.00000000 -9999.00000000 -9999.00000000 -9999.00000000 -9999.00000000 -9999.00000000 -9999.00000000 -9999.00000000 -9999.00000000 -9999.00000000 -9999.00000000 -9999.00000000 -9999.00000000 -9999.00000000 -9999.00000000 -9999.00000000 -9999.00000000 -9999.00000000 -9999.00000000 -9999.00000000 -9999.00000000 -9999.00000000 -9999.00000000 -9999.00000000 -9999.00000000 -9999.00000000 -9999.00000000 -9999.00000000 -9999.00000000 -9999.00000000 -9999.00000000 -9999.00000000 -9999.00000000 -9999.00000000 -9999.00000000 -9999.00000000 -9999.00000000 -9999.00000000 -9999.00000000 -9999.00000000 -9999.00000000 -9999.00000000 -9999.00000000 -9999.00000000 -9999.00000000 -9999.00000000 -9999.00000000 -9999.00000000 -9999.00000000 0.00000000 0.00000000 0.00000000 0.00000000 0.00000000 
0.00000000 0.00000000 0.00000000 0.00277798 0.00033780 0.00000000 0.00000000 0.00000000 0.00000000 0.00000000 0.00000000 0.00000000 0.00000000 0.00023992 0.00019895 0.00000000 0.00000000 0.00000000 0.00000000 0.00002524 0.00000000 0.00000000 -9999.00000000 -9999.00000000 -9999.00000000 -9999.00000000 -9999.00000000 -9999.00000000 -9999.00000000 -9999.00000000 -9999.00000000 -9999.00000000 -9999.00000000 -9999.00000000 -9999.00000000 -9999.00000000 -9999.00000000 -9999.00000000 -9999.00000000 -9999.00000000 -9999.00000000 -9999.00000000 -9999.00000000 -9999.00000000 -9999.00000000 -9999.00000000 -9999.00000000 -9999.00000000 -9999.00000000 -9999.00000000 -9999.00000000 -9999.00000000 -9999.00000000 -9999.00000000 -9999.00000000 -9999.00000000 -9999.00000000 -9999.00000000 -9999.00000000 -9999.00000000 -9999.00000000 -9999.00000000 -9999.00000000 -9999.00000000 -9999.00000000 -9999.00000000 -9999.00000000 -9999.00000000 -9999.00000000 -9999.00000000 -9999.00000000 -9999.00000000 -9999.00000000 0.00000000 0.00000000 0.00000000 0.00000000 0.00000000 
0.02507052 0.00081827 0.00000000 0.00317479 0.00618434 0.00000000 0.00000000 0.00000000 0.00039597 0.00084278 0.00074690 0.00009791 0.00000000 0.00099727 0.00048623 0.00000000 0.00000000 0.00000000 0.00015853 0.00085915 0.00000000 0.00003692 0.00000000 0.00000000 -9999.00000000 -9999.00000000 -9999.00000000 -9999.00000000 -9999.00000000 -9999.00000000 -9999.00000000 -9999.00000000 -9999.00000000 -9999.00000000 -9999.00000000 -9999.00000000 -9999.00000000 -9999.00000000 -9999.00000000 -9999.00000000 -9999.00000000 0.00000000 -9999.00000000 -9999.00000000 -9999.00000000 -9999.00000000 -9999.00000000 -9999.00000000 -9999.00000000 -9999.00000000 -9999.00000000 -9999.00000000 -9999.00000000 -9999.00000000 -9999.00000000 -9999.00000000 -9999.00000000 -9999.00000000 -9999.00000000 -9999.00000000 -9999.00000000 -9999.00000000 -9999.00000000 -9999.00000000 -9999.00000000 -9999.00000000 -9999.00000000 -9999.00000000 -9999.00000000 -9999.00000000 -9999.00000000 -9999.00000000 -9999.00000000 -9999.00000000 0.00000000 0.00000000 0.00000000 0.00000000 
0.00000000 0.00006382 0.00000000 0.00163225 0.00452873 0.01921524 0.00000000 0.00000000 0.00000000 0.00000000 0.00000000 0.00000000 0.00000000 0.00004823 0.00013044 0.00000000 0.00000000 0.00000000 0.00462634 0.00006363 0.00059099 0.00093998 0.00000000 0.00000000 -9999.00000000 -9999.00000000 -9999.00000000 -9999.00000000 -9999.00000000 -9999.00000000 -9999.00000000 -9999.00000000 -9999.00000000 -9999.00000000 -9999.00000000 -9999.00000000 -9999.00000000 -9999.00000000 0.00000000 0.00000000 0.00002740 0.00000000 0.00000000 0.00000000 -9999.00000000 -9999.00000000 -9999.00000000 -9999.00000000 -9999.00000000 -9999.00000000 -9999.00000000 -9999.00000000 -9999.00000000 -9999.00000000 -9999.00000000 -9999.00000000 -9999.00000000 -9999.00000000 -9999.00000000 -9999.00000000 -9999.00000000 -9999.00000000 -9999.00000000 -9999.00000000 -9999.00000000 -9999.00000000 -9999.00000000 -9999.00000000 -9999.00000000 -9999.00000000 -9999.00000000 -9999.00000000 -9999.00000000 -9999.00000000 0.00000000 0.00000000 0.00000000 0.00000000 
0.00000000 0.00000000 0.00000000 0.00067940 0.00260998 0.00000000 0.00000000 0.00000000 0.00000000 0.00000000 0.00000000 0.00000516 0.00000000 0.00000000 0.00000000 0.00000000 0.00000000 0.00000000 0.00032677 0.00259388 0.00112285 0.00001976 0.00025613 0.00007235 -9999.00000000 -9999.00000000 -9999.00000000 -9999.00000000 -9999.00000000 -9999.00000000 -9999.00000000 -9999.00000000 -9999.00000000 -9999.00000000 -9999.00000000 -9999.00000000 -9999.00000000 -9999.00000000 0.00000000 0.00000000 0.00033974 0.00000365 0.00000000 0.00000000 0.00000000 -9999.00000000 -9999.00000000 -9999.00000000 -9999.00000000 -9999.00000000 -9999.00000000 -9999.00000000 -9999.00000000 -9999.00000000 -9999.00000000 -9999.00000000 -9999.00000000 -9999.00000000 -9999.00000000 -9999.00000000 -9999.00000000 -9999.00000000 -9999.00000000 -9999.00000000 -9999.00000000 -9999.00000000 -9999.00000000 -9999.00000000 -9999.00000000 -9999.00000000 -9999.00000000 -9999.00000000 -9999.00000000 -9999.00000000 0.00000000 0.00000000 0.00000000 0.00000000 
0.00000000 0.00000000 0.00000000 0.00000000 0.00000000 0.00000000 0.00000000 0.00000000 0.00000000 0.00000000 0.00000000 0.00000000 0.00000000 0.00000000 0.00000000 0.00000000 0.00000000 0.00000000 0.00000000 0.00000000 0.00000000 0.00000000 0.00000942 0.00132131 0.00022925 0.00000210 -9999.00000000 -9999.00000000 -9999.00000000 -9999.00000000 -9999.00000000 -9999.00000000 -9999.00000000 -9999.00000000 -9999.00000000 -9999.00000000 0.00000000 0.00000000 0.00000000 0.00000000 0.00010336 0.00000000 0.00000000 0.00000000 0.00000000 0.00000000 -9999.00000000 -9999.00000000 -9999.00000000 -9999.00000000 -9999.00000000 -9999.00000000 -9999.00000000 -9999.00000000 -9999.00000000 -9999.00000000 -9999.00000000 -9999.00000000 -9999.00000000 -9999.00000000 -9999.00000000 -9999.00000000 -9999.00000000 -9999.00000000 -9999.00000000 -9999.00000000 -9999.00000000 -9999.00000000 -9999.00000000 -9999.00000000 -9999.00000000 -9999.00000000 -9999.00000000 -9999.00000000 0.00000000 0.00000000 0.00000000 0.00000000 
0.00000000 0.00000000 0.00000000 0.00000000 0.00000000 0.00000000 0.00000000 0.00000000 0.00000000 0.00000000 0.00000000 0.00000000 0.00000000 0.00000000 0.00000000 0.00000000 0.00000000 0.00000000 0.00000000 0.00011358 0.00000000 0.00005822 0.00006500 0.00000000 0.00000000 0.00000000 -9999.00000000 -9999.00000000 -9999.00000000 -9999.00000000 -9999.00000000 -9999.00000000 0.00000000 0.00000000 0.00000000 0.00037914 0.00001487 0.00000000 0.00000000 0.00000000 0.00000000 0.00000000 0.00000000 0.00000000 0.00000000 0.00000484 0.00000000 -9999.00000000 -9999.00000000 -9999.00000000 -9999.00000000 -9999.00000000 -9999.00000000 -9999.00000000 -9999.00000000 -9999.00000000 -9999.00000000 -9999.00000000 -9999.00000000 -9999.00000000 -9999.00000000 -9999.00000000 -9999.00000000 -9999.00000000 -9999.00000000 -9999.00000000 -9999.00000000 -9999.00000000 -9999.00000000 -9999.00000000 -9999.00000000 -9999.00000000 -9999.00000000 -9999.00000000 -9999.00000000 0.00000000 0.00000000 0.00000000 
0.00000000 0.00000000 0.00000000 0.00000000 0.00000000 0.00000000 0.00000000 0.00000000 0.00000000 0.00000000 0.00000000 0.00000000 0.00000000 0.00000000 0.00000000 0.00000000 0.00000000 0.00000000 0.00000000 0.00000248 0.00000000 0.00026898 0.00000000 0.00000000 0.00006172 0.00000000 0.00000000 -9999.00000000 -9999.00000000 -9999.00000000 0.00000000 0.00000000 0.00000000 0.00000000 0.00005244 0.00000000 0.00000000 0.00000000 0.00026844 0.00000000 0.00000000 0.00000000 0.00000000 0.00000000 0.00000064 0.00000000 0.00000000 0.00000000 -9999.00000000 -9999.00000000 -9999.00000000 -9999.00000000 -9999.00000000 -9999.00000000 -9999.00000000 -9999.00000000 -9999.00000000 -9999.00000000 -9999.00000000 -9999.00000000 -9999.00000000 -9999.00000000 -9999.00000000 -9999.00000000 -9999.00000000 -9999.00000000 -9999.00000000 -9999.00000000 -9999.00000000 -9999.00000000 -9999.00000000 -9999.00000000 -9999.00000000 -9999.00000000 -9999.00000000 0.00000000 0.00000000 0.00000000 
0.00000000 0.00000000 0.00000000 0.00000000 0.00000000 0.00000000 0.00000000 0.00000000 0.00000000 0.00000000 0.00000000 0.00000000 0.00000000 0.00000000 0.00000000 0.00000000 0.00000000 0.00000000 0.00007936 0.00000000 0.00000000 0.00048821 0.00000000 0.00000000 0.00000000 0.00000000 0.00000000 0.00000000 0.00000000 0.00000000 0.00000000 0.00000000 0.00000000 0.00000000 0.00000000 0.00031658 0.00016536 0.00000000 0.00000000 0.00000000 0.00000000 0.00000000 0.00000000 0.00002484 0.00000960 0.00000860 0.00000475 0.00000000 0.00000000 -9999.00000000 -9999.00000000 -9999.00000000 -9999.00000000 -9999.00000000 -9999.00000000 -9999.00000000 -9999.00000000 -9999.00000000 -9999.00000000 -9999.00000000 -9999.00000000 -9999.00000000 -9999.00000000 -9999.00000000 -9999.00000000 -9999.00000000 -9999.00000000 -9999.00000000 -9999.00000000 -9999.00000000 -9999.00000000 -9999.00000000 -9999.00000000 -9999.00000000 -9999.00000000 -9999.00000000 0.00000000 0.00000000 
0.00000000 0.00000000 0.00000000 0.00000000 0.00000000 0.00000000 0.00000000 0.00000000 0.00000000 0.00000000 0.00000000 0.00000000 0.00000000 0.00000000 0.00000000 0.00000000 0.00000000 0.00000000 0.00000000 0.00000000 0.00000000 0.00000000 0.00000000 0.00000000 0.00000000 0.00000000 0.00000000 0.00000000 0.00000000 0.00000000 0.00000000 0.00000000 0.00010439 0.00000000 0.00000000 0.00083397 0.00000000 0.00030438 0.00000000 0.00000000 0.00000000 0.00000000 0.00000000 0.00000000 0.00000000 0.00000000 0.00000000 0.00000000 0.00000000 -9999.00000000 -9999.00000000 -9999.00000000 -9999.00000000 -9999.00000000 -9999.00000000 -9999.00000000 -9999.00000000 -9999.00000000 -9999.00000000 -9999.00000000 -9999.00000000 -9999.00000000 -9999.00000000 -9999.00000000 -9999.00000000 -9999.00000000 -9999.00000000 -9999.00000000 -9999.00000000 -9999.00000000 -9999.00000000 -9999.00000000 -9999.00000000 -9999.00000000 -9999.00000000 -9999.00000000 0.00000000 0.00000000 
0.00000000 0.00000000 0.00000000 0.00000000 0.00000000 0.00000000 0.00000000 0.00000000 0.00000000 0.00000000 0.00000000 0.00000000 0.00000000 0.00000000 0.00000000 0.00000000 0.00000000 0.00000000 0.00000000 0.00000000 0.00000000 0.00000000 0.00000000 0.00000000 0.00000000 0.00000000 0.00000000 0.00000000 0.00000000 0.00000000 0.00000000 0.00322018 0.00017536 0.00000000 0.00000000 0.00000000 0.00000000 0.00000000 0.00000000 0.00000000 0.00000000 0.00000000 0.00000000 0.00000000 0.00000000 0.00000000 0.00000000 0.00000000 0.00000000 0.00000000 0.00000000 -9999.00000000 -9999.00000000 -9999.00000000 -9999.00000000 -9999.00000000 -9999.00000000 -9999.00000000 -9999.00000000 -9999.00000000 -9999.00000000 -9999.00000000 -9999.00000000 -9999.00000000 -9999.00000000 -9999.00000000 -9999.00000000 -9999.00000000 -9999.00000000 -9999.00000000 -9999.00000000 -9999.00000000 -9999.00000000 -9999.00000000 -9999.00000000 -9999.00000000 0.00000000 0.00000000 
0.00000000 0.00000000 0.00000000 0.00000000 0.00000000 0.00000000 0.00000000 0.00000000 0.00000000 0.00000000 0.00000000 0.00000000 0.00000000 0.00000000 0.00000000 0.00000000 0.00000000 0.00000000 0.00000000 0.00000000 0.00000000 0.00000000 0.00000000 0.00000000 0.00000000 0.00000000 0.00000000 0.00000000 0.00000000 0.00000000 0.00000000 0.00000000 0.00000000 0.00000000 0.00000000 0.00000000 0.00000000 0.00000000 0.00000000 0.00000000 0.00000000 0.00000000 0.00000000 0.00000000 0.00000000 0.00000000 0.00000000 0.00000012 0.00000000 0.00000000 0.00000000 0.00000000 -9999.00000000 -9999.00000000 -9999.00000000 -9999.00000000 -9999.00000000 -9999.00000000 -9999.00000000 -9999.00000000 -9999.00000000 -9999.00000000 -9999.00000000 -9999.00000000 -9999.00000000 -9999.00000000 -9999.00000000 -9999.00000000 -9999.00000000 -9999.00000000 -9999.00000000 -9999.00000000 -9999.00000000 -9999.00000000 -9999.00000000 -9999.00000000 -9999.00000000 0.00000000 
0.00000000 0.00000000 0.00000000 0.00000000 0.00000000 0.00000000 0.00000000 0.00000000 0.00000000 0.00000000 0.00000000 0.00000000 0.00000000 0.00000000 0.00000000 0.00000000 0.00000000 0.00000000 0.00000000 0.00000000 0.00000000 0.00000000 0.00000000 0.00000000 0.00000000 0.00000000 0.00000000 0.00000000 0.00000000 0.00000000 0.00000000 0.00000000 0.00000000 0.00000000 0.00000000 0.00000000 0.00000000 0.00000000 0.00000000 0.00000000 0.00000000 0.00000000 0.00000000 0.00000000 0.00000000 0.00000000 0.00000000 0.00000012 0.00038672 0.00000402 0.00000000 0.00000000 -9999.00000000 -9999.00000000 -9999.00000000 -9999.00000000 -9999.00000000 -9999.00000000 -9999.00000000 -9999.00000000 -9999.00000000 -9999.00000000 -9999.00000000 -9999.00000000 -9999.00000000 -9999.00000000 -9999.00000000 -9999.00000000 -9999.00000000 -9999.00000000 0.00000000 0.00000000 -9999.00000000 -9999.00000000 -9999.00000000 -9999.00000000 -9999.00000000 0.00000000 
0.00000000 0.00000000 0.00000000 0.00000000 0.00000000 0.00000000 0.00000000 0.00000000 0.00000000 0.00000000 0.00000000 0.00000000 0.00000000 0.00000000 0.00000000 0.00000000 0.00000000 0.00000000 0.00000000 0.00000000 0.00000000 0.00000000 0.00000000 0.00000000 0.00000000 0.00000000 0.00000000 0.00000000 0.00000000 0.00000000 0.00000000 0.00000000 0.00000000 0.00000000 0.00000000 0.00000000 0.00000000 0.00000000 0.00000000 0.00000000 0.00000000 0.00000000 0.00000000 0.00000000 0.00000000 0.00000000 0.00045328 0.00000000 0.00000000 0.00000000 0.00000000 0.00000000 0.00000000 -9999.00000000 -9999.00000000 -9999.00000000 -9999.00000000 -9999.00000000 -9999.00000000 -9999.00000000 -9999.00000000 -9999.00000000 -9999.00000000 -9999.00000000 -9999.00000000 -9999.00000000 -9999.00000000 -9999.00000000 -9999.00000000 -9999.00000000 -9999.00000000 0.00000000 -9999.00000000 -9999.00000000 -9999.00000000 -9999.00000000 -9999.00000000 -9999.00000000 
0.00000000 0.00000000 0.00000000 0.00000000 0.00000000 0.00000000 0.00000000 0.00000000 0.00000000 0.00000000 0.00000000 0.00000000 0.00000000 0.00000000 0.00000000 0.00000000 0.00000000 0.00000000 0.00000000 0.00000000 0.00000000 0.00000000 0.00000000 0.00000000 0.00000000 0.00000000 0.00000000 0.00000000 0.00000000 0.00000000 0.00000000 0.00000000 0.00000000 0.00000000 0.00000000 0.00000000 0.00000000 0.00000000 0.00000000 0.00000000 0.00000000 0.00000000 0.00000000 0.00000000 0.00000000 0.00000000 0.00000000 0.00000000 0.00140851 0.00000052 0.00000000 0.00020683 0.00000000 0.00000000 0.00000000 0.00000000 -9999.00000000 -9999.00000000 -9999.00000000 -9999.00000000 -9999.00000000 -9999.00000000 -9999.00000000 -9999.00000000 -9999.00000000 -9999.00000000 -9999.00000000 -9999.00000000 -9999.00000000 -9999.00000000 -9999.00000000 -9999.00000000 0.00000000 -9999.00000000 -9999.00000000 -9999.00000000 -9999.00000000 -9999.00000000 
0.00000000 0.00000000 0.00000000 0.00000000 0.00000000 0.00000000 0.00000000 0.00000000 0.00000000 0.00000000 0.00000000 0.00000000 0.00000000 0.00000000 0.00000000 0.00000000 0.00000000 0.00000000 0.00000000 0.00000000 0.00000000 0.00000000 0.00000000 0.00000000 0.00000000 0.00000000 0.00000000 0.00000000 0.00000000 0.00000000 0.00000000 0.00000000 0.00000000 0.00000000 0.00000000 0.00000000 0.00000000 0.00000000 0.00000000 0.00000000 0.00000000 0.00000000 0.00000000 0.00000000 0.00000000 0.00000000 0.00000000 0.00000000 0.00000000 0.00000018 0.00000000 0.00000000 0.00000000 0.00000000 0.00000384 0.00000096 0.00000000 -9999.00000000 -9999.00000000 -9999.00000000 -9999.00000000 -9999.00000000 -9999.00000000 -9999.00000000 -9999.00000000 -9999.00000000 -9999.00000000 -9999.00000000 -9999.00000000 -9999.00000000 -9999.00000000 -9999.00000000 -9999.00000000 -9999.00000000 -9999.00000000 -9999.00000000 -9999.00000000 -9999.00000000 
0.00000000 0.00000000 0.00000000 0.00000000 0.00000000 0.00000000 0.00000000 0.00000000 0.00000000 0.00000000 0.00000000 0.00000000 0.00000000 0.00000000 0.00000000 0.00000000 0.00000000 0.00000000 0.00000000 0.00000000 0.00000000 0.00000000 0.00000000 0.00000000 0.00000000 0.00000000 0.00000000 0.00000000 0.00000000 0.00000000 0.00000000 0.00000000 0.00000000 0.00000000 0.00000000 0.00000000 0.00000000 0.00000000 0.00000000 0.00000000 0.00000000 0.00000000 0.00000000 0.00000000 0.00000000 0.00000000 0.00000000 0.00000000 0.00000000 0.00000000 0.00000012 0.00010216 0.00000000 0.00000000 0.00000000 0.00000000 0.00000000 -9999.00000000 -9999.00000000 -9999.00000000 -9999.00000000 -9999.00000000 -9999.00000000 -9999.00000000 -9999.00000000 -9999.00000000 -9999.00000000 -9999.00000000 -9999.00000000 -9999.00000000 -9999.00000000 -9999.00000000 -9999.00000000 -9999.00000000 -9999.00000000 -9999.00000000 -9999.00000000 -9999.00000000 
0.00000000 0.00000000 0.00000000 0.00000000 0.00000000 0.00000000 0.00000000 0.00000000 0.00000000 0.00000000 0.00000000 0.00000000 0.00000000 0.00000000 0.00000000 0.00000000 0.00000000 0.00000000 0.00000000 0.00000000 0.00000000 0.00000000 0.00000000 0.00000000 0.00000000 0.00000000 0.00000000 0.00000000 0.00000000 0.00000000 0.00000000 0.00000000 0.00000000 0.00000000 0.00000000 0.00000000 0.00000000 0.00000000 0.00000000 0.00000000 0.00000000 0.00000000 0.00000000 0.00000000 0.00000000 0.00000000 0.00000000 0.00000000 0.00000000 0.00000000 0.00000000 0.00000000 0.00000000 0.00000000 0.00000000 0.00000401 0.00000000 0.00000000 -9999.00000000 -9999.00000000 -9999.00000000 -9999.00000000 -9999.00000000 -9999.00000000 -9999.00000000 -9999.00000000 -9999.00000000 -9999.00000000 -9999.00000000 -9999.00000000 -9999.00000000 -9999.00000000 -9999.00000000 -9999.00000000 -9999.00000000 -9999.00000000 -9999.00000000 -9999.00000000 
0.00000000 0.00000000 0.00000000 0.00000000 0.00000000 0.00000000 0.00000000 0.00000000 0.00000000 0.00000000 0.00000000 0.00000000 0.00000000 0.00000000 0.00000000 0.00000000 0.00000000 0.00000000 0.00000000 0.00000000 0.00000000 0.00000000 0.00000000 0.00000000 0.00000000 0.00000000 0.00000000 0.00000000 0.00000000 0.00000000 0.00000000 0.00000000 0.00000000 0.00000000 0.00000000 0.00000000 0.00000000 0.00000000 0.00000000 0.00000000 0.00000000 0.00000000 0.00000000 0.00000000 0.00000000 0.00000000 0.00000000 0.00000000 0.00000000 0.00000000 0.00000000 0.00000000 0.00000000 0.00119337 0.00000000 0.00000000 0.00000000 0.00000000 -9999.00000000 -9999.00000000 -9999.00000000 -9999.00000000 -9999.00000000 -9999.00000000 -9999.00000000 -9999.00000000 -9999.00000000 -9999.00000000 -9999.00000000 -9999.00000000 -9999.00000000 -9999.00000000 -9999.00000000 -9999.00000000 -9999.00000000 -9999.00000000 -9999.00000000 0.00000000 
0.00000000 0.00000000 0.00000000 0.00000000 0.00000000 0.00000000 0.00000000 0.00000000 0.00000000 0.00000000 0.00000000 0.00000000 0.00000000 0.00000000 0.00000000 0.00000000 0.00000000 0.00000000 0.00000000 0.00000000 0.00000000 0.00000000 0.00000000 0.00000000 0.00000000 0.00000000 0.00000000 0.00000000 0.00000000 0.00000000 0.00000000 0.00000000 0.00000000 0.00000000 0.00000000 0.00000000 0.00000000 0.00000000 0.00000000 0.00000000 0.00000000 0.00000000 0.00000000 0.00000000 0.00000000 0.00000000 0.00000000 0.00000000 0.00000000 0.00000000 0.00000000 0.00000000 0.00000000 0.00000000 0.00000000 0.00000000 0.00000000 0.00000000 -9999.00000000 -9999.00000000 -9999.00000000 -9999.00000000 -9999.00000000 -9999.00000000 -9999.00000000 -9999.00000000 -9999.00000000 -9999.00000000 -9999.00000000 -9999.00000000 -9999.00000000 -9999.00000000 -9999.00000000 -9999.00000000 -9999.00000000 -9999.00000000 -9999.00000000 -9999.00000000 
0.00000000 0.00000000 0.00000000 0.00000000 0.00000000 0.00000000 0.00000000 0.00000000 0.00000000 0.00000000 0.00000000 0.00000000 0.00000000 0.00000000 0.00000000 0.00000000 0.00000000 0.00000000 0.00000000 0.00000000 0.00000000 0.00000000 0.00000000 0.00000000 0.00000000 0.00000000 0.00000000 0.00000000 0.00000000 0.00000000 0.00000000 0.00000000 0.00000000 0.00000000 0.00000000 0.00000000 0.00000000 0.00000000 0.00000000 0.00000000 0.00000000 0.00000000 0.00000000 0.00000000 0.00000000 0.00000000 0.00000000 0.00000000 0.00000000 0.00000000 0.00000000 0.00000000 0.00000000 0.00000000 0.00000000 0.00000000 0.00000000 0.00000000 -9999.00000000 -9999.00000000 -9999.00000000 -9999.00000000 -9999.00000000 -9999.00000000 -9999.00000000 -9999.00000000 -9999.00000000 -9999.00000000 -9999.00000000 -9999.00000000 -9999.00000000 -9999.00000000 -9999.00000000 -9999.00000000 -9999.00000000 -9999.00000000 -9999.00000000 -9999.00000000 
0.00000000 0.00000000 0.00000000 0.00000000 0.00000000 0.00000000 0.00000000 0.00000000 0.00000000 0.00000000 0.00000000 0.00000000 0.00000000 0.00000000 0.00000000 0.00000000 0.00000000 0.00000000 0.00000000 0.00000000 0.00000000 0.00000000 0.00000000 0.00000000 0.00000000 0.00000000 0.00000000 0.00000000 0.00000000 0.00000000 0.00000000 0.00000000 0.00000000 0.00000000 0.00000000 0.00000000 0.00000000 0.00000000 0.00000000 0.00000000 0.00000000 0.00000000 0.00000000 0.00000000 0.00000000 0.00000000 0.00000000 0.00000000 0.00000000 0.00000000 0.00000000 0.00000000 0.00000000 0.00000000 0.00045094 0.00000000 0.00000000 0.00000000 -9999.00000000 -9999.00000000 -9999.00000000 -9999.00000000 -9999.00000000 -9999.00000000 -9999.00000000 -9999.00000000 -9999.00000000 -9999.00000000 -9999.00000000 -9999.00000000 -9999.00000000 -9999.00000000 -9999.00000000 -9999.00000000 -9999.00000000 -9999.00000000 -9999.00000000 -9999.00000000 
0.00000000 0.00000000 0.00000000 0.00000000 0.00000000 0.00000000 0.00000000 0.00000000 0.00000000 0.00000000 0.00000000 0.00000000 0.00000000 0.00000000 0.00000000 0.00000000 0.00000000 0.00000000 0.00000000 0.00000000 0.00000000 0.00000000 0.00000000 0.00000000 0.00000000 0.00000000 0.00000000 0.00000000 0.00000000 0.00000000 0.00000000 0.00000000 0.00000000 0.00000000 0.00000000 0.00000000 0.00000000 0.00000000 0.00000000 0.00000000 0.00000000 0.00000000 0.00000000 0.00000000 0.00000000 0.00000000 0.00000000 0.00000000 0.00000000 0.00000000 0.00000000 0.00000000 0.00000000 0.00000000 0.00000547 0.00000000 0.00000000 0.00000000 -9999.00000000 -9999.00000000 -9999.00000000 -9999.00000000 -9999.00000000 -9999.00000000 -9999.00000000 -9999.00000000 -9999.00000000 -9999.00000000 -9999.00000000 -9999.00000000 -9999.00000000 -9999.00000000 -9999.00000000 -9999.00000000 -9999.00000000 -9999.00000000 -9999.00000000 -9999.00000000 
0.00000000 0.00000000 0.00000000 0.00000000 0.00000000 0.00000000 0.00000000 0.00000000 0.00000000 0.00000000 0.00000000 0.00000000 0.00000000 0.00000000 0.00000000 0.00000000 0.00000000 0.00000000 0.00000000 0.00000000 0.00000000 0.00000000 0.00000000 0.00000000 0.00000000 0.00000000 0.00000000 0.00000000 0.00000000 0.00000000 0.00000000 0.00000000 0.00000000 0.00000000 0.00000000 0.00000000 0.00000000 0.00000000 0.00000000 0.00000000 0.00000000 0.00000000 0.00000000 0.00000000 0.00000000 0.00000000 0.00000000 0.00000000 0.00000000 0.00000000 0.00000000 0.00000000 0.00000000 0.00000000 0.00054450 0.00000000 0.00000000 -9999.00000000 -9999.00000000 -9999.00000000 -9999.00000000 -9999.00000000 -9999.00000000 -9999.00000000 -9999.00000000 -9999.00000000 -9999.00000000 -9999.00000000 -9999.00000000 -9999.00000000 -9999.00000000 -9999.00000000 -9999.00000000 -9999.00000000 -9999.00000000 -9999.00000000 -9999.00000000 -9999.00000000 
0.00000000 0.00000000 0.00000000 0.00000000 0.00000000 0.00000000 0.00000000 0.00000000 0.00000000 0.00000000 0.00000000 0.00000000 0.00000000 0.00000000 0.00000000 0.00000000 0.00000000 0.00000000 0.00000000 0.00000000 0.00000000 0.00000000 0.00000000 0.00000000 0.00000000 0.00000000 0.00000000 0.00000000 0.00000000 0.00000000 0.00000000 0.00000000 0.00000000 0.00000000 0.00000000 0.00000000 0.00000000 0.00000000 0.00000000 0.00000000 0.00000000 0.00000000 0.00000000 0.00000000 0.00000000 0.00000000 0.00000000 0.00000000 0.00000000 0.00000000 0.00000000 0.00000000 0.00000000 0.00042491 0.00019146 0.00000000 0.00000000 -9999.00000000 -9999.00000000 -9999.00000000 -9999.00000000 -9999.00000000 -9999.00000000 -9999.00000000 -9999.00000000 -9999.00000000 -9999.00000000 -9999.00000000 -9999.00000000 -9999.00000000 -9999.00000000 -9999.00000000 -9999.00000000 -9999.00000000 -9999.00000000 -9999.00000000 -9999.00000000 -9999.00000000 
0.00000000 0.00000000 0.00000000 0.00000000 0.00000000 0.00000000 0.00000000 0.00000000 0.00000000 0.00000000 0.00000000 0.00000000 0.00000000 0.00000000 0.00000000 0.00000000 0.00000000 0.00000000 0.00000000 0.00000000 0.00000000 0.00000000 0.00000000 0.00000000 0.00000000 0.00000000 0.00000000 0.00000000 0.00000000 0.00000000 0.00000000 0.00000000 0.00000000 0.00000000 0.00000000 0.00000000 0.00000000 0.00000000 0.00000000 0.00000000 0.00000000 0.00000000 0.00000000 0.00000000 0.00000000 0.00000000 0.00000000 0.00000000 0.00000000 0.00000000 0.00000000 0.00000000 0.00000000 0.00000000 0.00000000 0.00000000 0.00000000 -9999.00000000 -9999.00000000 -9999.00000000 -9999.00000000 -9999.00000000 -9999.00000000 -9999.00000000 -9999.00000000 -9999.00000000 -9999.00000000 -9999.00000000 -9999.00000000 -9999.00000000 -9999.00000000 -9999.00000000 -9999.00000000 -9999.00000000 -9999.00000000 -9999.00000000 -9999.00000000 -9999.00000000 
0.00000000 0.00000000 0.00000000 0.00000000 0.00000000 0.00000000 0.00000000 0.00000000 0.00000000 0.00000000 0.00000000 0.00000000 0.00000000 0.00000000 0.00000000 0.00000000 0.00000000 0.00000000 0.00000000 0.00000000 0.00000000 0.00000000 0.00000000 0.00000000 0.00000000 0.00000000 0.00000000 0.00000000 0.00000000 0.00000000 0.00000000 0.00000000 0.00000000 0.00000000 0.00000000 0.00000000 0.00000000 0.00000000 0.00000000 0.00000000 0.00000000 0.00000000 0.00000000 0.00000000 0.00000000 0.00000000 0.00000000 0.00000000 0.00000000 0.00000000 0.00000000 0.00000000 0.00000000 0.00000000 0.00256397 0.00000000 -9999.00000000 -9999.00000000 -9999.00000000 -9999.00000000 -9999.00000000 -9999.00000000 -9999.00000000 -9999.00000000 -9999.00000000 -9999.00000000 -9999.00000000 -9999.00000000 -9999.00000000 -9999.00000000 -9999.00000000 -9999.00000000 -9999.00000000 -9999.00000000 -9999.00000000 -9999.00000000 -9999.00000000 -9999.00000000 
0.00000000 0.00000000 0.00000000 0.00000000 0.00000000 0.00000000 0.00000000 0.00000000 0.00000000 0.00000000 0.00000000 0.00000000 0.00000000 0.00000000 0.00000000 0.00000000 0.00000000 0.00000000 0.00000000 0.00000000 0.00000000 0.00000000 0.00000000 0.00000000 0.00000000 0.00000000 0.00000000 0.00000000 0.00000000 0.00000000 0.00000000 0.00000000 0.00000000 0.00000000 0.00000000 0.00000000 0.00000000 0.00000000 0.00000000 0.00000000 0.00000000 0.00000000 0.00000000 0.00000000 0.00000000 0.00000000 0.00000000 0.00000000 0.00000000 0.00000000 0.00000000 0.00000000 0.00000000 0.00088009 0.00000172 0.00073454 -9999.00000000 -9999.00000000 -9999.00000000 -9999.00000000 -9999.00000000 -9999.00000000 -9999.00000000 -9999.00000000 -9999.00000000 -9999.00000000 -9999.00000000 -9999.00000000 -9999.00000000 -9999.00000000 -9999.00000000 -9999.00000000 -9999.00000000 -9999.00000000 -9999.00000000 -9999.00000000 -9999.00000000 -9999.00000000 
0.00000000 0.00000000 0.00000000 0.00000000 0.00000000 0.00000000 0.00000000 0.00000000 0.00000000 0.00000000 0.00000000 0.00000000 0.00000000 0.00000000 0.00000000 0.00000000 0.00000000 0.00000000 0.00000000 0.00000000 0.00000000 0.00000000 0.00000000 0.00000000 0.00000000 0.00000000 0.00000000 0.00000000 0.00000000 0.00000000 0.00000000 0.00000000 0.00000000 0.00000000 0.00000000 0.00000000 0.00000000 0.00000000 0.00000000 0.00000000 0.00000000 0.00000000 0.00000000 0.00000000 0.00000000 0.00000000 0.00000000 0.00000000 0.00000000 0.00000000 0.00000000 0.00000000 0.00000000 0.00109020 0.00000000 0.00005719 -9999.00000000 -9999.00000000 0.00000000 0.00000000 -9999.00000000 -9999.00000000 -9999.00000000 -9999.00000000 -9999.00000000 -9999.00000000 -9999.00000000 -9999.00000000 -9999.00000000 -9999.00000000 -9999.00000000 -9999.00000000 -9999.00000000 -9999.00000000 -9999.00000000 -9999.00000000 -9999.00000000 -9999.00000000 
0.00000000 0.00000000 0.00000000 0.00000000 0.00000000 0.00000000 0.00000000 0.00000000 0.00000000 0.00000000 0.00000000 0.00000000 0.00000000 0.00000000 0.00000000 0.00000000 0.00000000 0.00000000 0.00000000 0.00000000 0.00000000 0.00000000 0.00000000 0.00000000 0.00000000 0.00000000 0.00000000 0.00000000 0.00000000 0.00000000 0.00000000 0.00000000 0.00000000 0.00000000 0.00000000 0.00000000 0.00000000 0.00000000 0.00000000 0.00000000 0.00000000 0.00000000 0.00000000 0.00000000 0.00000000 0.00000000 0.00000000 0.00000000 0.00000000 0.00000000 0.00000000 0.00018737 0.00000000 0.00097886 0.00000000 0.00065636 -9999.00000000 -9999.00000000 0.00000000 0.00000000 0.00000000 -9999.00000000 -9999.00000000 -9999.00000000 -9999.00000000 -9999.00000000 -9999.00000000 -9999.00000000 -9999.00000000 -9999.00000000 -9999.00000000 -9999.00000000 -9999.00000000 -9999.00000000 -9999.00000000 -9999.00000000 -9999.00000000 -9999.00000000 
0.00000000 0.00000000 0.00000000 0.00000000 0.00000000 0.00000000 0.00000000 0.00000000 0.00000000 0.00000000 0.00000000 0.00000000 0.00000000 0.00000000 0.00000000 0.00000000 0.00000000 0.00000000 0.00000000 0.00000000 0.00000000 0.00000000 0.00000000 0.00000000 0.00000000 0.00000000 0.00000000 0.00000000 0.00000000 0.00000000 0.00000000 0.00000000 0.00000000 0.00000000 0.00000000 0.00000000 0.00000000 0.00000000 0.00000000 0.00000000 0.00000000 0.00000000 0.00000000 0.00000000 0.00000000 0.00000000 0.00000000 0.00000000 0.00000000 0.00000000 0.00000000 0.00000000 0.00000000 0.00000000 0.00000000 0.00000833 0.00000000 -9999.00000000 -9999.00000000 0.00000000 0.00000000 -9999.00000000 -9999.00000000 -9999.00000000 -9999.00000000 -9999.00000000 -9999.00000000 -9999.00000000 -9999.00000000 -9999.00000000 -9999.00000000 -9999.00000000 -9999.00000000 -9999.00000000 -9999.00000000 -9999.00000000 -9999.00000000 -9999.00000000 
0.00000000 0.00000000 0.00000000 0.00000000 0.00000000 0.00000000 0.00000000 0.00000000 0.00000000 0.00000000 0.00000000 0.00000000 0.00000000 0.00000000 0.00000000 0.00000000 0.00000000 0.00000000 0.00000000 0.00000000 0.00000000 0.00000000 0.00000000 0.00000000 0.00000000 0.00000000 0.00000000 0.00000000 0.00000000 0.00000000 0.00000000 0.00000000 0.00000000 0.00000000 0.00000000 0.00000000 0.00000000 0.00000000 0.00000000 0.00000000 0.00000000 0.00000000 0.00000000 0.00000000 0.00000000 0.00000000 0.00000000 0.00000000 0.00000000 0.00000000 0.00003202 0.00000000 0.00000000 0.00000000 0.00237637 0.00003666 0.00000000 0.00000000 0.00000000 0.00000000 -9999.00000000 -9999.00000000 -9999.00000000 -9999.00000000 -9999.00000000 -9999.00000000 -9999.00000000 -9999.00000000 -9999.00000000 -9999.00000000 -9999.00000000 -9999.00000000 -9999.00000000 -9999.00000000 -9999.00000000 -9999.00000000 -9999.00000000 -9999.00000000 
0.00000000 0.00000000 0.00000000 0.00000000 0.00000000 0.00000000 0.00000000 0.00000000 0.00000000 0.00000000 0.00000000 0.00000000 0.00000000 0.00000000 0.00000000 0.00000000 0.00000000 0.00000000 0.00000000 0.00000000 0.00000000 0.00000000 0.00000000 0.00000000 0.00000000 0.00000000 0.00000000 0.00000000 0.00000000 0.00000000 0.00000000 0.00000000 0.00000000 0.00000000 0.00000000 0.00000000 0.00000000 0.00000000 0.00000000 0.00000000 0.00000000 0.00000000 0.00000000 0.00000000 0.00000000 0.00000000 0.00000000 0.00000000 0.00000000 0.00000000 0.00000000 0.00000000 0.00000000 0.00000000 0.00000000 0.00000000 0.00000000 0.00000000 0.00000000 0.00000000 -9999.00000000 -9999.00000000 -9999.00000000 -9999.00000000 -9999.00000000 -9999.00000000 -9999.00000000 -9999.00000000 -9999.00000000 -9999.00000000 -9999.00000000 -9999.00000000 -9999.00000000 -9999.00000000 -9999.00000000 -9999.00000000 -9999.00000000 -9999.00000000 
0.00000000 0.00000000 0.00000000 0.00000000 0.00000000 0.00000000 0.00000000 0.00000000 0.00000000 0.00000000 0.00000000 0.00000000 0.00000000 0.00000000 0.00000000 0.00000000 0.00000000 0.00000000 0.00000000 0.00000000 0.00000000 0.00000000 0.00000000 0.00000000 0.00000000 0.00000000 0.00000000 0.00000000 0.00000000 0.00000000 0.00000000 0.00000000 0.00000000 0.00000000 0.00000000 0.00000000 0.00000000 0.00000000 0.00000000 0.00000000 0.00000000 0.00000000 0.00000000 0.00000000 0.00000000 0.00000000 0.00000000 0.00000000 0.00000000 0.00000000 0.00000000 0.00000000 0.00000000 0.00000000 0.00000000 0.00049846 0.00004620 0.00000000 0.00000000 -9999.00000000 -9999.00000000 -9999.00000000 -9999.00000000 -9999.00000000 -9999.00000000 -9999.00000000 -9999.00000000 -9999.00000000 -9999.00000000 -9999.00000000 -9999.00000000 -9999.00000000 -9999.00000000 -9999.00000000 -9999.00000000 -9999.00000000 -9999.00000000 -9999.00000000 
0.00000000 0.00000000 0.00000000 0.00000000 0.00000000 0.00000000 0.00000000 0.00000000 0.00000000 0.00000000 0.00000000 0.00000000 0.00000000 0.00000000 0.00000000 0.00000000 0.00000000 0.00000000 0.00000000 0.00000000 0.00000000 0.00000000 0.00000000 0.00000000 0.00000000 0.00000000 0.00000000 0.00000000 0.00000000 0.00000000 0.00000000 0.00000000 0.00000000 0.00000000 0.00000000 0.00000000 0.00000000 0.00000000 0.00000000 0.00000000 0.00000000 0.00000000 0.00000000 0.00000000 0.00000000 0.00000000 0.00000000 0.00000000 0.00000000 0.00000000 0.00000000 0.00000000 0.00000000 0.00000000 0.00000000 0.00000000 0.00085542 0.00294268 -9999.00000000 -9999.00000000 -9999.00000000 -9999.00000000 -9999.00000000 -9999.00000000 -9999.00000000 -9999.00000000 -9999.00000000 -9999.00000000 -9999.00000000 -9999.00000000 -9999.00000000 -9999.00000000 -9999.00000000 -9999.00000000 -9999.00000000 -9999.00000000 -9999.00000000 -9999.00000000 
0.00000000 0.00000000 0.00000000 0.00000000 0.00000000 0.00000000 0.00000000 0.00000000 0.00000000 0.00000000 0.00000000 0.00000000 0.00000000 0.00000000 0.00000000 0.00000000 0.00000000 0.00000000 0.00000000 0.00000000 0.00000000 0.00000000 0.00000000 0.00000000 0.00000000 0.00000000 0.00000000 0.00000000 0.00000000 0.00000000 0.00000000 0.00000000 0.00000000 0.00000000 0.00000000 0.00000000 0.00000000 0.00000000 0.00000000 0.00000000 0.00000000 0.00000000 0.00000000 0.00000000 0.00000000 0.00000000 0.00000000 0.00000000 0.00000000 0.00000000 0.00000000 0.00000000 0.00000000 0.00000000 0.00000000 0.00000000 0.00027245 0.00000000 0.00000000 -9999.00000000 -9999.00000000 -9999.00000000 -9999.00000000 -9999.00000000 -9999.00000000 -9999.00000000 -9999.00000000 -9999.00000000 -9999.00000000 -9999.00000000 -9999.00000000 -9999.00000000 -9999.00000000 -9999.00000000 -9999.00000000 -9999.00000000 -9999.00000000 -9999.00000000 
0.00000000 0.00000000 0.00000000 0.00000000 0.00000000 0.00000000 0.00000000 0.00000000 0.00000000 0.00000000 0.00000000 0.00000000 0.00000000 0.00000000 0.00000000 0.00000000 0.00000000 0.00000000 0.00000000 0.00000000 0.00000000 0.00000000 0.00000000 0.00000000 0.00000000 0.00000000 0.00000000 0.00000000 0.00000000 0.00000000 0.00000000 0.00000000 0.00000000 0.00000000 0.00000000 0.00000000 0.00000000 0.00000000 0.00000000 0.00000000 0.00000000 0.00000000 0.00000000 0.00000000 0.00000000 0.00000000 0.00000000 0.00000000 0.00000000 0.00000000 0.00000000 0.00000000 0.00014037 0.00000000 0.00000000 0.00000000 0.00019295 0.00012608 0.00200962 0.00000000 -9999.00000000 -9999.00000000 -9999.00000000 -9999.00000000 -9999.00000000 -9999.00000000 -9999.00000000 -9999.00000000 -9999.00000000 -9999.00000000 -9999.00000000 -9999.00000000 -9999.00000000 -9999.00000000 -9999.00000000 -9999.00000000 -9999.00000000 -9999.00000000 
0.00000000 0.00000000 0.00000000 0.00000000 0.00000000 0.00000000 0.00000000 0.00000000 0.00000000 0.00000000 0.00000000 0.00000000 0.00000000 0.00000000 0.00000000 0.00000000 0.00000000 0.00000000 0.00000000 0.00000000 0.00000000 0.00000000 0.00000000 0.00000000 0.00000000 0.00000000 0.00000000 0.00000000 0.00000000 0.00000000 0.00000000 0.00000000 0.00000000 0.00000000 0.00000000 0.00000000 0.00000000 0.00000000 0.00000000 0.00000000 0.00000000 0.00000000 0.00000000 0.00000000 0.00000000 0.00000000 0.00000000 0.00000000 0.00000000 0.00000000 0.00000000 0.00000000 0.00000000 0.00000000 0.00000000 0.00000000 0.00007125 0.00018617 0.00000000 0.00000000 -9999.00000000 -9999.00000000 -9999.00000000 -9999.00000000 -9999.00000000 -9999.00000000 -9999.00000000 -9999.00000000 -9999.00000000 -9999.00000000 -9999.00000000 -9999.00000000 -9999.00000000 -9999.00000000 -9999.00000000 -9999.00000000 -9999.00000000 -9999.00000000 
0.00000000 0.00000000 0.00000000 0.00000000 0.00000000 0.00000000 0.00000000 0.00000000 0.00000000 0.00000000 0.00000000 0.00000000 0.00000000 0.00000000 0.00000000 0.00000000 0.00000000 0.00000000 0.00000000 0.00000000 0.00000000 0.00000000 0.00000000 0.00000000 0.00000000 0.00000000 0.00000000 0.00000000 0.00000000 0.00000000 0.00000000 0.00000000 0.00000000 0.00000000 0.00000000 0.00000000 0.00000000 0.00000000 0.00000000 0.00000000 0.00000000 0.00000000 0.00000000 0.00000000 0.00000000 0.00000000 0.00000000 0.00000000 0.00000000 0.00000000 0.00000000 0.00000000 0.00000000 0.00000000 0.00000000 0.00000000 0.00000000 0.00000000 0.00000000 0.00008321 -9999.00000000 -9999.00000000 -9999.00000000 -9999.00000000 -9999.00000000 -9999.00000000 -9999.00000000 -9999.00000000 -9999.00000000 -9999.00000000 -9999.00000000 -9999.00000000 -9999.00000000 -9999.00000000 -9999.00000000 -9999.00000000 -9999.00000000 -9999.00000000 
0.00000000 0.00000000 0.00000000 0.00000000 0.00000000 0.00000000 0.00000000 0.00000000 0.00000000 0.00000000 0.00000000 0.00000000 0.00000000 0.00000000 0.00000000 0.00000000 0.00000000 0.00000000 0.00000000 0.00000000 0.00000000 0.00000000 0.00000000 0.00000000 0.00000000 0.00000000 0.00000000 0.00000000 0.00000000 0.00000000 0.00000000 0.00000000 0.00000000 0.00000000 0.00000000 0.00000000 0.00000000 0.00000000 0.00000000 0.00000000 0.00000000 0.00000000 0.00000000 0.00000000 0.00000000 0.00000000 0.00000000 0.00000000 0.00000000 0.00000000 0.00000000 0.00000000 0.00000000 0.00000000 0.00000000 0.00000000 0.00000000 0.00010886 0.00008429 0.00013304 0.00000000 -9999.00000000 -9999.00000000 -9999.00000000 -9999.00000000 -9999.00000000 -9999.00000000 -9999.00000000 -9999.00000000 -9999.00000000 -9999.00000000 -9999.00000000 -9999.00000000 -9999.00000000 -9999.00000000 -9999.00000000 -9999.00000000 -9999.00000000 
0.00000000 0.00000000 0.00000000 0.00000000 0.00000000 0.00000000 0.00000000 0.00000000 0.00000000 0.00000000 0.00000000 0.00000000 0.00000000 0.00000000 0.00000000 0.00000000 0.00000000 0.00000000 0.00000000 0.00000000 0.00000000 0.00000000 0.00000000 0.00000000 0.00000000 0.00000000 0.00000000 0.00000000 0.00000000 0.00000000 0.00000000 0.00000000 0.00000000 0.00000000 0.00000000 0.00000000 0.00000000 0.00000000 0.00000000 0.00000000 0.00000000 0.00000000 0.00000000 0.00000000 0.00000000 0.00000000 0.00000000 0.00000000 0.00000000 0.00000000 0.00000000 0.00000000 0.00000000 0.00000000 0.00000000 0.00000000 0.00000000 0.00000583 0.00055545 0.00000000 0.00010247 -9999.00000000 -9999.00000000 -9999.00000000 -9999.00000000 -9999.00000000 -9999.00000000 -9999.00000000 -9999.00000000 -9999.00000000 -9999.00000000 -9999.00000000 -9999.00000000 -9999.00000000 -9999.00000000 -9999.00000000 -9999.00000000 -9999.00000000 
0.00000000 0.00000000 0.00000000 0.00000000 0.00000000 0.00000000 0.00000000 0.00000000 0.00000000 0.00000000 0.00000000 0.00000000 0.00000000 0.00000000 0.00000000 0.00000000 0.00000000 0.00000000 0.00000000 0.00000000 0.00000000 0.00000000 0.00000000 0.00000000 0.00000000 0.00000000 0.00000000 0.00000000 0.00000000 0.00000000 0.00000000 0.00000000 0.00000000 0.00000000 0.00000000 0.00000000 0.00000000 0.00000000 0.00000000 0.00000000 0.00000000 0.00000000 0.00000000 0.00000000 0.00000000 0.00000000 0.00000000 0.00000000 0.00000000 0.00000000 0.00000000 0.00000000 0.00000000 0.00000000 0.00000000 0.00000000 0.00000000 0.00000000 0.00000000 0.00000000 0.00015249 0.00000000 -9999.00000000 -9999.00000000 0.00000000 -9999.00000000 -9999.00000000 -9999.00000000 -9999.00000000 -9999.00000000 -9999.00000000 -9999.00000000 -9999.00000000 -9999.00000000 -9999.00000000 -9999.00000000 -9999.00000000 -9999.00000000 
0.00000000 0.00000000 0.00000000 0.00000000 0.00000000 0.00000000 0.00000000 0.00000000 0.00000000 0.00000000 0.00000000 0.00000000 0.00000000 0.00000000 0.00000000 0.00000000 0.00000000 0.00000000 0.00000000 0.00000000 0.00000000 0.00000000 0.00000000 0.00000000 0.00000000 0.00000000 0.00000000 0.00000000 0.00000000 0.00000000 0.00000000 0.00000000 0.00000000 0.00000000 0.00000000 0.00000000 0.00000000 0.00000000 0.00000000 0.00000000 0.00000000 0.00000000 0.00000000 0.00000000 0.00000000 0.00000000 0.00000000 0.00000000 0.00000000 0.00000000 0.00000000 0.00000000 0.00000000 0.00000000 0.00000000 0.00000000 0.00000000 0.00000000 0.00000000 0.00007144 0.00016697 0.00002011 0.00108843 0.00000000 0.00000000 -9999.00000000 -9999.00000000 -9999.00000000 -9999.00000000 -9999.00000000 -9999.00000000 -9999.00000000 -9999.00000000 -9999.00000000 -9999.00000000 -9999.00000000 -9999.00000000 -9999.00000000 
0.00000000 0.00000000 0.00000000 0.00000000 0.00000000 0.00000000 0.00000000 0.00000000 0.00000000 0.00000000 0.00000000 0.00000000 0.00000000 0.00000000 0.00000000 0.00000000 0.00000000 0.00000000 0.00000000 0.00000000 0.00000000 0.00000000 0.00000000 0.00000000 0.00000000 0.00000000 0.00000000 0.00000000 0.00000000 0.00000000 0.00000000 0.00000000 0.00000000 0.00000000 0.00000000 0.00000000 0.00000000 0.00000000 0.00000000 0.00000000 0.00000000 0.00000000 0.00000000 0.00000000 0.00000000 0.00000000 0.00000000 0.00000000 0.00000000 0.00000000 0.00000000 0.00000000 0.00000000 0.00000000 0.00000000 0.00000000 0.00000000 0.00000000 0.00000000 0.00000000 0.00000000 0.00000000 0.00000000 0.00000000 0.00000000 -9999.00000000 -9999.00000000 -9999.00000000 -9999.00000000 -9999.00000000 -9999.00000000 -9999.00000000 -9999.00000000 -9999.00000000 -9999.00000000 -9999.00000000 -9999.00000000 -9999.00000000 
0.00000000 0.00000000 0.00000000 0.00000000 0.00000000 0.00000000 0.00000000 0.00000000 0.00000000 0.00000000 0.00000000 0.00000000 0.00000000 0.00000000 0.00000000 0.00000000 0.00000000 0.00000000 0.00000000 0.00000000 0.00000000 0.00000000 0.00000000 0.00000000 0.00000000 0.00000000 0.00000000 0.00000000 0.00000000 0.00000000 0.00000000 0.00000000 0.00000000 0.00000000 0.00000000 0.00000000 0.00000000 0.00000000 0.00000000 0.00000000 0.00000000 0.00000000 0.00000000 0.00000000 0.00000000 0.00000000 0.00000000 0.00000000 0.00000000 0.00000000 0.00000000 0.00000000 0.00000000 0.00000000 0.00000000 0.00000000 0.00000000 0.00000000 0.00000000 0.00000000 0.00001785 0.00000000 0.00005238 0.00000000 -9999.00000000 -9999.00000000 -9999.00000000 -9999.00000000 -9999.00000000 -9999.00000000 -9999.00000000 -9999.00000000 -9999.00000000 -9999.00000000 -9999.00000000 -9999.00000000 -9999.00000000 -9999.00000000 
0.00000000 0.00000000 0.00000000 0.00000000 0.00000000 0.00000000 0.00000000 0.00000000 0.00000000 0.00000000 0.00000000 0.00000000 0.00000000 0.00000000 0.00000000 0.00000000 0.00000000 0.00000000 0.00000000 0.00000000 0.00000000 0.00000000 0.00000000 0.00000000 0.00000000 0.00000000 0.00000000 0.00000000 0.00000000 0.00000000 0.00000000 0.00000000 0.00000000 0.00000000 0.00000000 0.00000000 0.00000000 0.00000000 0.00000000 0.00000000 0.00000000 0.00000000 0.00000000 0.00000000 0.00000000 0.00000000 0.00000000 0.00000000 0.00000000 0.00000000 0.00000000 0.00000000 0.00000000 0.00000000 0.00000000 0.00000000 0.00000000 0.00025302 0.00000000 0.00000000 0.00001554 0.00000000 0.00053588 0.00002842 -9999.00000000 -9999.00000000 -9999.00000000 -9999.00000000 -9999.00000000 -9999.00000000 -9999.00000000 -9999.00000000 -9999.00000000 -9999.00000000 -9999.00000000 -9999.00000000 -9999.00000000 -9999.00000000 
0.00000000 0.00000000 0.00000000 0.00000000 0.00000000 0.00000000 0.00000000 0.00000000 0.00000000 0.00000000 0.00000000 0.00000000 0.00000000 0.00000000 0.00000000 0.00000000 0.00000000 0.00000000 0.00000000 0.00000000 0.00000000 0.00000000 0.00000000 0.00000000 0.00000000 0.00000000 0.00000000 0.00000000 0.00000000 0.00000000 0.00000000 0.00000000 0.00000000 0.00000000 0.00000000 0.00000000 0.00000000 0.00000000 0.00000000 0.00000000 0.00000000 0.00000000 0.00000000 0.00000000 0.00000000 0.00000000 0.00000000 0.00000000 0.00000000 0.00000000 0.00000000 0.00000000 0.00000000 0.00000000 0.00000000 0.00000000 0.00000000 0.00000000 0.00000000 0.00000000 0.00000000 0.00000000 0.00051774 0.00035611 0.00000000 0.00000000 0.00000000 0.00000000 -9999.00000000 -9999.00000000 -9999.00000000 -9999.00000000 -9999.00000000 -9999.00000000 -9999.00000000 -9999.00000000 -9999.00000000 -9999.00000000 
0.00000000 0.00000000 0.00000000 0.00000000 0.00000000 0.00000000 0.00000000 0.00000000 0.00000000 0.00000000 0.00000000 0.00000000 0.00000000 0.00000000 0.00000000 0.00000000 0.00000000 0.00000000 0.00000000 0.00000000 0.00000000 0.00000000 0.00000000 0.00000000 0.00000000 0.00000000 0.00000000 0.00000000 0.00000000 0.00000000 0.00000000 0.00000000 0.00000000 0.00000000 0.00000000 0.00000000 0.00000000 0.00000000 0.00000000 0.00000000 0.00000000 0.00000000 0.00000000 0.00000000 0.00000000 0.00000000 0.00000000 0.00000000 0.00000000 0.00000000 0.00000000 0.00000000 0.00000000 0.00000000 0.00000000 0.00000000 0.00000000 0.00000000 0.00000000 0.00000000 0.00000000 0.00052546 0.00028129 0.00000000 0.00021217 0.00176565 0.00013101 0.00000000 -9999.00000000 -9999.00000000 -9999.00000000 -9999.00000000 -9999.00000000 -9999.00000000 -9999.00000000 -9999.00000000 -9999.00000000 -9999.00000000 
0.00000000 0.00000000 0.00000000 0.00000000 0.00000000 0.00000000 0.00000000 0.00000000 0.00000000 0.00000000 0.00000000 0.00000000 0.00000000 0.00000000 0.00000000 0.00000000 0.00000000 0.00000000 0.00000000 0.00000000 0.00000000 0.00000000 0.00000000 0.00000000 0.00000000 0.00000000 0.00000000 0.00000000 0.00000000 0.00000000 0.00000000 0.00000000 0.00000000 0.00000000 0.00000000 0.00000000 0.00000000 0.00000000 0.00000000 0.00000000 0.00000000 0.00000000 0.00000000 0.00000000 0.00000000 0.00000000 0.00000000 0.00000000 0.00000000 0.00000000 0.00000000 0.00000000 0.00000000 0.00000000 0.00000000 0.00000000 0.00000000 0.00000000 0.00000000 0.00000000 0.00000000 0.00000000 0.00000000 0.00045703 0.00000000 0.00002176 0.00000000 0.00045486 -9999.00000000 -9999.00000000 -9999.00000000 -9999.00000000 -9999.00000000 -9999.00000000 -9999.00000000 -9999.00000000 -9999.00000000 -9999.00000000 
0.00000000 0.00000000 0.00000000 0.00000000 0.00000000 0.00000000 0.00000000 0.00000000 0.00000000 0.00000000 0.00000000 0.00000000 0.00000000 0.00000000 0.00000000 0.00000000 0.00000000 0.00000000 0.00000000 0.00000000 0.00000000 0.00000000 0.00000000 0.00000000 0.00000000 0.00000000 0.00000000 0.00000000 0.00000000 0.00000000 0.00000000 0.00000000 0.00000000 0.00000000 0.00000000 0.00000000 0.00000000 0.00000000 0.00000000 0.00000000 0.00000000 0.00000000 0.00000000 0.00000000 0.00000000 0.00000000 0.00000000 0.00000000 0.00000000 0.00000000 0.00000000 0.00000000 0.00000000 0.00000000 0.00000000 0.00000000 0.00000000 0.00000000 0.00000000 0.00000000 0.00000000 0.00000000 0.00000000 0.00000000 0.00005633 0.00000000 0.00000000 0.00084499 -9999.00000000 -9999.00000000 -9999.00000000 -9999.00000000 -9999.00000000 -9999.00000000 -9999.00000000 -9999.00000000 -9999.00000000 -9999.00000000 
0.00000000 0.00000000 0.00000000 0.00000000 0.00000000 0.00000000 0.00000000 0.00000000 0.00000000 0.00000000 0.00000000 0.00000000 0.00000000 0.00000000 0.00000000 0.00000000 0.00000000 0.00000000 0.00000000 0.00000000 0.00000000 0.00000000 0.00000000 0.00000000 0.00000000 0.00000000 0.00000000 0.00000000 0.00000000 0.00000000 0.00000000 0.00000000 0.00000000 0.00000000 0.00000000 0.00000000 0.00000000 0.00000000 0.00000000 0.00000000 0.00000000 0.00000000 0.00000000 0.00000000 0.00000000 0.00000000 0.00000000 0.00000000 0.00000000 0.00000000 0.00000000 0.00000000 0.00000000 0.00000000 0.00000000 0.00000000 0.00000000 0.00000000 0.00000000 0.00000000 0.00000000 0.00000000 0.00000000 0.00000000 0.00000000 0.00063139 0.00000000 0.00013496 -9999.00000000 -9999.00000000 -9999.00000000 -9999.00000000 -9999.00000000 -9999.00000000 -9999.00000000 -9999.00000000 -9999.00000000 -9999.00000000 
0.00000000 0.00000000 0.00000000 0.00000000 0.00000000 0.00000000 0.00000000 0.00000000 0.00000000 0.00000000 0.00000000 0.00000000 0.00000000 0.00000000 0.00000000 0.00000000 0.00000000 0.00000000 0.00000000 0.00000000 0.00000000 0.00000000 0.00000000 0.00000000 0.00000000 0.00000000 0.00000000 0.00000000 0.00000000 0.00000000 0.00000000 0.00000000 0.00000000 0.00000000 0.00000000 0.00000000 0.00000000 0.00000000 0.00000000 0.00000000 0.00000000 0.00000000 0.00000000 0.00000000 0.00000000 0.00000000 0.00000000 0.00000000 0.00000000 0.00000000 0.00000000 0.00000000 0.00000000 0.00000000 0.00000000 0.00000000 0.00000000 0.00000000 0.00000000 0.00000000 0.00000000 0.00000000 0.00000000 0.00000000 0.00098473 0.00060378 0.00061083 0.00000352 0.00048983 -9999.00000000 -9999.00000000 -9999.00000000 -9999.00000000 -9999.00000000 -9999.00000000 -9999.00000000 -9999.00000000 -9999.00000000 
0.00000000 0.00000000 0.00000000 0.00000000 0.00000000 0.00000000 0.00000000 0.00000000 0.00000000 0.00000000 0.00000000 0.00000000 0.00000000 0.00000000 0.00000000 0.00000000 0.00000000 0.00000000 0.00000000 0.00000000 0.00000000 0.00000000 0.00000000 0.00000000 0.00000000 0.00000000 0.00000000 0.00000000 0.00000000 0.00000000 0.00000000 0.00000000 0.00000000 0.00000000 0.00000000 0.00000000 0.00000000 0.00000000 0.00000000 0.00000000 0.00000000 0.00000000 0.00000000 0.00000000 0.00000000 0.00000000 0.00000000 0.00000000 0.00000000 0.00000000 0.00000000 0.00000000 0.00000000 0.00000000 0.00000000 0.00000000 0.00000000 0.00000000 0.00000000 0.00000000 0.00000000 0.00000000 0.00000000 0.00000000 0.00000000 0.00000000 0.00000000 0.00000000 0.00016706 0.00000000 -9999.00000000 -9999.00000000 -9999.00000000 -9999.00000000 -9999.00000000 -9999.00000000 -9999.00000000 -9999.00000000 
0.00000000 0.00000000 0.00000000 0.00000000 0.00000000 0.00000000 0.00000000 0.00000000 0.00000000 0.00000000 0.00000000 0.00000000 0.00000000 0.00000000 0.00000000 0.00000000 0.00000000 0.00000000 0.00000000 0.00000000 0.00000000 0.00000000 0.00000000 0.00000000 0.00000000 0.00000000 0.00000000 0.00000000 0.00000000 0.00000000 0.00000000 0.00000000 0.00000000 0.00000000 0.00000000 0.00000000 0.00000000 0.00000000 0.00000000 0.00000000 0.00000000 0.00000000 0.00000000 0.00000000 0.00000000 0.00000000 0.00000000 0.00000000 0.00000000 0.00000000 0.00000000 0.00000000 0.00000000 0.00000000 0.00000000 0.00000000 0.00000000 0.00000000 0.00000000 0.00000000 0.00000000 0.00000000 0.00000000 0.00050496 0.00000000 0.00000000 0.00052383 0.00056485 0.00002808 0.00000000 0.00000000 0.00000000 -9999.00000000 -9999.00000000 -9999.00000000 -9999.00000000 -9999.00000000 -9999.00000000 
0.00000000 0.00000000 0.00000000 0.00000000 0.00000000 0.00000000 0.00000000 0.00000000 0.00000000 0.00000000 0.00000000 0.00000000 0.00000000 0.00000000 0.00000000 0.00000000 0.00000000 0.00000000 0.00000000 0.00000000 0.00000000 0.00000000 0.00000000 0.00000000 0.00000000 0.00000000 0.00000000 0.00000000 0.00000000 0.00000000 0.00000000 0.00000000 0.00000000 0.00000000 0.00000000 0.00000000 0.00000000 0.00000000 0.00000000 0.00000000 0.00000000 0.00000000 0.00000000 0.00000000 0.00000000 0.00000000 0.00000000 0.00000000 0.00000000 0.00000000 0.00000000 0.00000000 0.00000000 0.00000000 0.00000000 0.00000000 0.00000000 0.00000000 0.00000000 0.00000000 0.00000000 0.00000000 0.00000000 0.00000000 0.00000000 0.00000000 0.00030101 0.00000000 0.00000000 0.00000000 0.00000000 0.00000000 0.00000000 0.00000000 -9999.00000000 -9999.00000000 -9999.00000000 -9999.00000000 
0.00000000 0.00000000 0.00000000 0.00000000 0.00000000 0.00000000 0.00000000 0.00000000 0.00000000 0.00000000 0.00000000 0.00000000 0.00000000 0.00000000 0.00000000 0.00000000 0.00000000 0.00000000 0.00000000 0.00000000 0.00000000 0.00000000 0.00000000 0.00000000 0.00000000 0.00000000 0.00000000 0.00000000 0.00000000 0.00000000 0.00000000 0.00000000 0.00000000 0.00000000 0.00000000 0.00000000 0.00000000 0.00000000 0.00000000 0.00000000 0.00000000 0.00000000 0.00000000 0.00000000 0.00000000 0.00000000 0.00000000 0.00000000 0.00000000 0.00000000 0.00000000 0.00000000 0.00000000 0.00000000 0.00000000 0.00000000 0.00000000 0.00000000 0.00000000 0.00000000 0.00000000 0.00000000 0.00000000 0.00000000 0.00000000 0.00000000 0.00000000 0.00000000 0.00049283 0.00000000 0.00000000 0.00000000 0.00003465 0.00000000 0.00000000 -9999.00000000 -9999.00000000 -9999.00000000 
0.00000000 0.00000000 0.00000000 0.00000000 0.00000000 0.00000000 0.00000000 0.00000000 0.00000000 0.00000000 0.00000000 0.00000000 0.00000000 0.00000000 0.00000000 0.00000000 0.00000000 0.00000000 0.00000000 0.00000000 0.00000000 0.00000000 0.00000000 0.00000000 0.00000000 0.00000000 0.00000000 0.00000000 0.00000000 0.00000000 0.00000000 0.00000000 0.00000000 0.00000000 0.00000000 0.00000000 0.00000000 0.00000000 0.00000000 0.00000000 0.00000000 0.00000000 0.00000000 0.00000000 0.00000000 0.00000000 0.00000000 0.00000000 0.00000000 0.00000000 0.00000000 0.00000000 0.00000000 0.00000000 0.00000000 0.00000000 0.00000000 0.00000000 0.00000000 0.00000000 0.00000000 0.00000000 0.00000000 0.00000000 0.00000000 0.00000000 0.00000000 0.00000000 0.00000000 0.00000000 0.00000000 0.00000000 0.00000000 0.00000000 0.00000000 -9999.00000000 -9999.00000000 -9999.00000000 
0.00000000 0.00000000 0.00000000 0.00000000 0.00000000 0.00000000 0.00000000 0.00000000 0.00000000 0.00000000 0.00000000 0.00000000 0.00000000 0.00000000 0.00000000 0.00000000 0.00000000 0.00000000 0.00000000 0.00000000 0.00000000 0.00000000 0.00000000 0.00000000 0.00000000 0.00000000 0.00000000 0.00000000 0.00000000 0.00000000 0.00000000 0.00000000 0.00000000 0.00000000 0.00000000 0.00000000 0.00000000 0.00000000 0.00000000 0.00000000 0.00000000 0.00000000 0.00000000 0.00000000 0.00000000 0.00000000 0.00000000 0.00000000 0.00000000 0.00000000 0.00000000 0.00000000 0.00000000 0.00000000 0.00000000 0.00000000 0.00000000 0.00000000 0.00000000 0.00000000 0.00000000 0.00000000 0.00000000 0.00000000 0.00000000 0.00000000 0.00000000 0.00000000 0.00000000 0.00000000 0.00000000 0.00000000 0.00000000 0.00000000 0.00000000 0.00000000 0.00000000 -9999.00000000 
0.00000000 0.00000000 0.00000000 0.00000000 0.00000000 0.00000000 0.00000000 0.00000000 0.00000000 0.00000000 0.00000000 0.00000000 0.00000000 0.00000000 0.00000000 0.00000000 0.00000000 0.00000000 0.00000000 0.00000000 0.00000000 0.00000000 0.00000000 0.00000000 0.00000000 0.00000000 0.00000000 0.00000000 0.00000000 0.00000000 0.00000000 0.00000000 0.00000000 0.00000000 0.00000000 0.00000000 0.00000000 0.00000000 0.00000000 0.00000000 0.00000000 0.00000000 0.00000000 0.00000000 0.00000000 0.00000000 0.00000000 0.00000000 0.00000000 0.00000000 0.00000000 0.00000000 0.00000000 0.00000000 0.00000000 0.00000000 0.00000000 0.00000000 0.00000000 0.00000000 0.00000000 0.00000000 0.00000000 0.00000000 0.00000000 0.00000000 0.00000000 0.00000000 0.00000000 0.00000000 0.00000000 0.00000000 0.00000000 0.00000000 0.00000000 0.00000000 -9999.00000000 -9999.00000000 
0.00000000 0.00000000 0.00000000 0.00000000 0.00000000 0.00000000 0.00000000 0.00000000 0.00000000 0.00000000 0.00000000 0.00000000 0.00000000 0.00000000 0.00000000 0.00000000 0.00000000 0.00000000 0.00000000 0.00000000 0.00000000 0.00000000 0.00000000 0.00000000 0.00000000 0.00000000 0.00000000 0.00000000 0.00000000 0.00000000 0.00000000 0.00000000 0.00000000 0.00000000 0.00000000 0.00000000 0.00000000 0.00000000 0.00000000 0.00000000 0.00000000 0.00000000 0.00000000 0.00000000 0.00000000 0.00000000 0.00000000 0.00000000 0.00000000 0.00000000 0.00000000 0.00000000 0.00000000 0.00000000 0.00000000 0.00000000 0.00000000 0.00000000 0.00000000 0.00000000 0.00000000 0.00000000 0.00000000 0.00000000 0.00000000 0.00000000 0.00000000 0.00000000 0.00000000 0.00000000 0.00000000 0.00000000 0.00000000 0.00000000 0.00000000 0.00000000 0.00000000 -9999.00000000 
0.00000000 0.00000000 0.00000000 0.00000000 0.00000000 0.00000000 0.00000000 0.00000000 0.00000000 0.00000000 0.00000000 0.00000000 0.00000000 0.00000000 0.00000000 0.00000000 0.00000000 0.00000000 0.00000000 0.00000000 0.00000000 0.00000000 0.00000000 0.00000000 0.00000000 0.00000000 0.00000000 0.00000000 0.00000000 0.00000000 0.00000000 0.00000000 0.00000000 0.00000000 0.00000000 0.00000000 0.00000000 0.00000000 0.00000000 0.00000000 0.00000000 0.00000000 0.00000000 0.00000000 0.00000000 0.00000000 0.00000000 0.00000000 0.00000000 0.00000000 0.00000000 0.00000000 0.00000000 0.00000000 0.00000000 0.00000000 0.00000000 0.00000000 0.00000000 0.00000000 0.00000000 0.00000000 0.00000000 0.00000000 0.00000000 0.00000000 0.00000000 0.00000000 0.00000000 0.00000000 0.00000000 0.00000000 0.00000000 0.00000000 0.00000000 0.00000000 -9999.00000000 0.00000000 
0.00000000 0.00000000 0.00000000 0.00000000 0.00000000 0.00000000 0.00000000 0.00000000 0.00000000 0.00000000 0.00000000 0.00000000 0.00000000 0.00000000 0.00000000 0.00000000 0.00000000 0.00000000 0.00000000 0.00000000 0.00000000 0.00000000 0.00000000 0.00000000 0.00000000 0.00000000 0.00000000 0.00000000 0.00000000 0.00000000 0.00000000 0.00000000 0.00000000 0.00000000 0.00000000 0.00000000 0.00000000 0.00000000 0.00000000 0.00000000 0.00000000 0.00000000 0.00000000 0.00000000 0.00000000 0.00000000 0.00000000 0.00000000 0.00000000 0.00000000 0.00000000 0.00000000 0.00000000 0.00000000 0.00000000 0.00000000 0.00000000 0.00000000 0.00000000 0.00000000 0.00000000 0.00000000 0.00000000 0.00000000 0.00000000 0.00000000 0.00000000 0.00000000 0.00000000 0.00000000 0.00000000 0.00000000 0.00000000 0.00000000 0.00000000 0.00000000 -9999.00000000 -9999.00000000 
0.00000000 0.00000000 0.00000000 0.00000000 0.00000000 0.00000000 0.00000000 0.00000000 0.00000000 0.00000000 0.00000000 0.00000000 0.00000000 0.00000000 0.00000000 0.00000000 0.00000000 0.00000000 0.00000000 0.00000000 0.00000000 0.00000000 0.00000000 0.00000000 0.00000000 0.00000000 0.00000000 0.00000000 0.00000000 0.00000000 0.00000000 0.00000000 0.00000000 0.00000000 0.00000000 0.00000000 0.00000000 0.00000000 0.00000000 0.00000000 0.00000000 0.00000000 0.00000000 0.00000000 0.00000000 0.00000000 0.00000000 0.00000000 0.00000000 0.00000000 0.00000000 0.00000000 0.00000000 0.00000000 0.00000000 0.00000000 0.00000000 0.00000000 0.00000000 0.00000000 0.00000000 0.00000000 0.00000000 0.00000000 0.00000000 0.00000000 0.00000000 0.00000000 0.00000000 0.00000000 0.00000000 0.00000000 0.00000000 0.00000000 0.00000000 0.00000000 0.00000000 0.00000000 
0.00000000 0.00000000 0.00000000 0.00000000 0.00000000 0.00000000 0.00000000 0.00000000 0.00000000 0.00000000 0.00000000 0.00000000 0.00000000 0.00000000 0.00000000 0.00000000 0.00000000 0.00000000 0.00000000 0.00000000 0.00000000 0.00000000 0.00000000 0.00000000 0.00000000 0.00000000 0.00000000 0.00000000 0.00000000 0.00000000 0.00000000 0.00000000 0.00000000 0.00000000 0.00000000 0.00000000 0.00000000 0.00000000 0.00000000 0.00000000 0.00000000 0.00000000 0.00000000 0.00000000 0.00000000 0.00000000 0.00000000 0.00000000 0.00000000 0.00000000 0.00000000 0.00000000 0.00000000 0.00000000 0.00000000 0.00000000 0.00000000 0.00000000 0.00000000 0.00000000 0.00000000 0.00000000 0.00000000 0.00000000 0.00000000 0.00000000 0.00000000 0.00000000 0.00000000 0.00000000 0.00000000 0.00000000 0.00000000 0.00000000 0.00000000 0.00000000 0.00000000 0.00000000 
