ncols        26
nrows        22
xllcorner    -87.500000000000
yllcorner    25.000000000000
cellsize     0.250000000000
NODATA_value -9999.00000000
0.00000000 0.00011541 0.00009720 0.00012340 0.00002583 -9999.00000000 -9999.00000000 -9999.00000000 -9999.00000000 -9999.00000000 -9999.00000000 -9999.00000000 -9999.00000000 -9999.00000000 -9999.00000000 -9999.00000000 -9999.00000000 -9999.00000000 -9999.00000000 -9999.00000000 -9999.00000000 -9999.00000000 -9999.00000000 -9999.00000000 0.00000000 0.00000000 
0.00287653 0.00093939 0.00000000 0.00003482 0.00003383 0.00000000 0.00008369 0.00003535 -9999.00000000 -9999.00000000 -9999.00000000 -9999.00000000 -9999.00000000 0.00000000 -9999.00000000 -9999.00000000 -9999.00000000 -9999.00000000 -9999.00000000 -9999.00000000 -9999.00000000 -9999.00000000 -9999.00000000 -9999.00000000 -9999.00000000 0.00000000 
0.00000000 0.00000000 0.00000000 0.00000000 0.00000000 0.00000000 0.00009366 0.00005022 0.00001133 -9999.00000000 -9999.00000000 -9999.00000000 0.00000000 0.00000000 0.00000000 -9999.00000000 -9999.00000000 -9999.00000000 -9999.00000000 -9999.00000000 -9999.00000000 -9999.00000000 -9999.00000000 -9999.00000000 -9999.00000000 0.00000000 
0.00000000 0.00000000 0.00000000 0.00000000 0.00000000 0.00000000 0.00000709 0.00001539 0.00000000 0.00000000 0.00000000 0.00010239 0.00003247 0.00000000 0.00000000 0.00000000 -9999.00000000 -9999.00000000 -9999.00000000 -9999.00000000 -9999.00000000 -9999.00000000 -9999.00000000 -9999.00000000 -9999.00000000 0.00000000 
0.00000000 0.00000000 0.00000000 0.00000000 0.00000000 0.00000000 0.00000000 0.00000000 0.00000000 0.00000000 0.00000000 0.00000000 0.00000000 0.00000000 0.00000000 0.00000000 0.00000000 -9999.00000000 -9999.00000000 -9999.00000000 -9999.00000000 -9999.00000000 -9999.00000000 -9999.00000000 -9999.00000000 -9999.00000000 
0.00000000 0.00000000 0.00000000 0.00000000 0.00000000 0.00000000 0.00000000 0.00000000 0.00000000 0.00000000 0.00000000 0.00000000 0.00000000 0.00000000 0.00000000 0.00000000 0.00013130 0.00001490 0.00000000 -9999.00000000 -9999.00000000 -9999.00000000 -9999.00000000 -9999.00000000 -9999.00000000 -9999.00000000 
0.00000000 0.00000000 0.00000000 0.00000000 0.00000000 0.00000000 0.00000000 0.00000000 0.00000000 0.00000000 0.00000000 0.00000000 0.00000000 0.00000000 0.00000000 0.00000000 0.00000000 0.00003064 0.00000000 -9999.00000000 -9999.00000000 -9999.00000000 -9999.00000000 -9999.00000000 -9999.00000000 -9999.00000000 
0.00000000 0.00000000 0.00000000 0.00000000 0.00000000 0.00000000 0.00000000 0.00000000 0.00000000 0.00000000 0.00000000 0.00000000 0.00000000 0.00000000 0.00000000 0.00000000 0.00000000 0.00000000 0.00000000 -9999.00000000 -9999.00000000 -9999.00000000 -9999.00000000 -9999.00000000 -9999.00000000 -9999.00000000 
0.00000000 0.00000000 0.00000000 0.00000000 0.00000000 0.00000000 0.00000000 0.00000000 0.00000000 0.00000000 0.00000000 0.00000000 0.00000000 0.00000000 0.00000000 0.00000000 0.00000000 0.00000000 0.00000000 -9999.00000000 -9999.00000000 -9999.00000000 -9999.00000000 -9999.00000000 -9999.00000000 -9999.00000000 
0.00000000 0.00000000 0.00000000 0.00000000 0.00000000 0.00000000 0.00000000 0.00000000 0.00000000 0.00000000 0.00000000 0.00000000 0.00000000 0.00000000 0.00000000 0.00000000 0.00000000 0.00006566 0.00005956 -9999.00000000 -9999.00000000 -9999.00000000 -9999.00000000 -9999.00000000 -9999.00000000 -9999.00000000 
0.00000000 0.00000000 0.00000000 0.00000000 0.00000000 0.00000000 0.00000000 0.00000000 0.00000000 0.00000000 0.00000000 0.00000000 0.00000000 0.00000000 0.00000000 0.00000000 0.00000000 0.00007687 0.00000461 0.00000000 -9999.00000000 -9999.00000000 -9999.00000000 -9999.00000000 -9999.00000000 -9999.00000000 
0.00000000 0.00000000 0.00000000 0.00000000 0.00000000 0.00000000 0.00000000 0.00000000 0.00000000 0.00000000 0.00000000 0.00000000 0.00000000 0.00000000 0.00000000 0.00000000 0.00000183 0.00000000 0.00023230 0.00000000 -9999.00000000 -9999.00000000 -9999.00000000 -9999.00000000 -9999.00000000 -9999.00000000 
0.00000000 0.00000000 0.00000000 0.00000000 0.00000000 0.00000000 0.00000000 0.00000000 0.00000000 0.00000000 0.00000000 0.00000000 0.00000000 0.00000000 0.00000000 0.00000000 0.00000000 0.00001561 0.00000761 -9999.00000000 -9999.00000000 -9999.00000000 -9999.00000000 -9999.00000000 -9999.00000000 -9999.00000000 
0.00000000 0.00000000 0.00000000 0.00000000 0.00000000 0.00000000 0.00000000 0.00000000 0.00000000 0.00000000 0.00000000 0.00000000 0.00000000 0.00000000 0.00000000 0.00000000 0.00000000 0.00000000 0.00000000 0.00000000 -9999.00000000 -9999.00000000 -9999.00000000 -9999.00000000 -9999.00000000 -9999.00000000 
0.00000000 0.00000000 0.00000000 0.00000000 0.00000000 0.00000000 0.00000000 0.00000000 0.00000000 0.00000000 0.00000000 0.00000000 0.00000000 0.00000000 0.00000000 0.00000000 0.00000000 0.00000000 0.00000000 0.00000000 0.00006846 0.00000000 -9999.00000000 -9999.00000000 -9999.00000000 -9999.00000000 
0.00000000 0.00000000 0.00000000 0.00000000 0.00000000 0.00000000 0.00000000 0.00000000 0.00000000 0.00000000 0.00000000 0.00000000 0.00000000 0.00000000 0.00000000 0.00000000 0.00000000 0.00000000 0.00000000 0.00001320 0.00003564 -9999.00000000 -9999.00000000 -9999.00000000 -9999.00000000 -9999.00000000 
0.00000000 0.00000000 0.00000000 0.00000000 0.00000000 0.00000000 0.00000000 0.00000000 0.00000000 0.00000000 0.00000000 0.00000000 0.00000000 0.00000000 0.00000000 0.00000000 0.00000000 0.00000000 0.00000000 0.00000000 0.00004106 0.00006447 0.00000000 -9999.00000000 -9999.00000000 -9999.00000000 
0.00000000 0.00000000 0.00000000 0.00000000 0.00000000 0.00000000 0.00000000 0.00000000 0.00000000 0.00000000 0.00000000 0.00000000 0.00000000 0.00000000 0.00000000 0.00000000 0.00000000 0.00000000 0.00000000 0.00000000 0.00000000 0.00012140 0.00000000 -9999.00000000 -9999.00000000 -9999.00000000 
0.00000000 0.00000000 0.00000000 0.00000000 0.00000000 0.00000000 0.00000000 0.00000000 0.00000000 0.00000000 0.00000000 0.00000000 0.00000000 0.00000000 0.00000000 0.00000000 0.00000000 0.00000000 0.00000000 0.00000000 0.00000000 0.00005611 0.00000000 0.00000000 -9999.00000000 -9999.00000000 
0.00000000 0.00000000 0.00000000 0.00000000 0.00000000 0.00000000 0.00000000 0.00000000 0.00000000 0.00000000 0.00000000 0.00000000 0.00000000 0.00000000 0.00000000 0.00000000 0.00000000 0.00000000 0.00000000 0.00000000 0.00000000 0.00000000 0.00005472 0.00000000 0.00000000 -9999.00000000 
0.00000000 0.00000000 0.00000000 0.00000000 0.00000000 0.00000000 0.00000000 0.00000000 0.00000000 0.00000000 0.00000000 0.00000000 0.00000000 0.00000000 0.00000000 0.00000000 0.00000000 0.00000000 0.00000000 0.00000000 0.00000000 0.00000000 0.00000000 0.00000000 0.00000000 0.00000000 
0.00000000 0.00000000 0.00000000 0.00000000 0.00000000 0.00000000 0.00000000 0.00000000 0.00000000 0.00000000 0.00000000 0.00000000 0.00000000 0.00000000 0.00000000 0.00000000 0.00000000 0.00000000 0.00000000 0.00000000 0.00000000 0.00000000 0.00000000 0.00000000 0.00000000 0.00000000 
